;FLAVOR:RepRap
;TIME:230
;Filament used: 0.0577939m
;Layer height: 0.1
;Generated with Cura_SteamEngine 2.5.0-BETA
M190 S60
M104 S200
M109 S200
G28 ;Home
G1 Z15.0 F6000 ;Move the platform down 15mm
;Prime the extruder
G92 E0
G1 F200 E3
G92 E0
;LAYER_COUNT:50
;LAYER:0
M107
G0 F3600 X100.971 Y100.479 Z0.1
;TYPE:SKIRT
G1 F1800 X101.639 Y99.912 E0.01457
G1 X102.356 Y99.409 E0.02914
G1 X103.116 Y98.973 E0.04371
G1 X103.913 Y98.608 E0.05829
G1 X104.739 Y98.317 E0.07285
G1 X105.589 Y98.103 E0.08743
G1 X106.454 Y97.967 E0.10199
G1 X107.511 Y97.909 E0.11959
G1 X112.493 Y97.91 E0.20244
G1 X113.368 Y97.95 E0.21701
G1 X114.236 Y98.07 E0.23158
G1 X115.089 Y98.268 E0.24614
G1 X115.921 Y98.544 E0.26072
G1 X116.724 Y98.894 E0.27529
G1 X117.492 Y99.316 E0.28986
G1 X118.218 Y99.806 E0.30443
G1 X118.897 Y100.36 E0.319
G1 X119.522 Y100.974 E0.33357
G1 X120.089 Y101.642 E0.34814
G1 X120.592 Y102.359 E0.36271
G1 X121.028 Y103.119 E0.37728
G1 X121.393 Y103.916 E0.39186
G1 X121.683 Y104.742 E0.40642
G1 X121.897 Y105.592 E0.42099
G1 X122.033 Y106.457 E0.43555
G1 X122.091 Y107.51 E0.45309
G1 X122.091 Y112.491 E0.53593
G1 X122.051 Y113.366 E0.55049
G1 X121.931 Y114.234 E0.56507
G1 X121.733 Y115.088 E0.57964
G1 X121.458 Y115.919 E0.5942
G1 X121.108 Y116.723 E0.60878
G1 X120.686 Y117.491 E0.62336
G1 X120.196 Y118.217 E0.63792
G1 X119.642 Y118.896 E0.6525
G1 X119.029 Y119.521 E0.66705
G1 X118.361 Y120.088 E0.68163
G1 X117.644 Y120.591 E0.69619
G1 X116.884 Y121.027 E0.71076
G1 X116.087 Y121.392 E0.72534
G1 X115.261 Y121.683 E0.7399
G1 X114.411 Y121.897 E0.75448
G1 X113.546 Y122.033 E0.76904
G1 X112.491 Y122.091 E0.78661
G1 X107.509 Y122.091 E0.86946
G1 X106.634 Y122.051 E0.88403
G1 X105.766 Y121.931 E0.8986
G1 X104.912 Y121.733 E0.91318
G1 X104.081 Y121.458 E0.92774
G1 X103.277 Y121.108 E0.94232
G1 X102.509 Y120.686 E0.95689
G1 X101.783 Y120.196 E0.97146
G1 X101.104 Y119.642 E0.98603
G1 X100.479 Y119.029 E1.00059
G1 X99.912 Y118.361 E1.01516
G1 X99.409 Y117.644 E1.02973
G1 X98.973 Y116.884 E1.0443
G1 X98.608 Y116.087 E1.05888
G1 X98.317 Y115.261 E1.07344
G1 X98.103 Y114.411 E1.08802
G1 X97.967 Y113.546 E1.10258
G1 X97.909 Y112.491 E1.12015
G1 X97.909 Y107.509 E1.203
G1 X97.949 Y106.634 E1.21757
G1 X98.069 Y105.766 E1.23214
G1 X98.267 Y104.912 E1.24672
G1 X98.542 Y104.081 E1.26128
G1 X98.892 Y103.277 E1.27586
G1 X99.314 Y102.509 E1.29043
G1 X99.804 Y101.783 E1.305
G1 X100.358 Y101.104 E1.31957
G1 X100.971 Y100.479 E1.33413
G0 F3600 X101.364 Y100.662
G1 F1800 X102.028 Y100.12 E1.34838
G1 X102.74 Y99.642 E1.36265
G1 X103.493 Y99.232 E1.3769
G1 X104.282 Y98.894 E1.39118
G1 X105.098 Y98.631 E1.40544
G1 X105.935 Y98.445 E1.41969
G1 X106.786 Y98.337 E1.43396
G1 X107.511 Y98.309 E1.44603
G1 X112.493 Y98.31 E1.52888
G1 X113.35 Y98.35 E1.54314
G1 X114.199 Y98.47 E1.5574
G1 X115.033 Y98.668 E1.57166
G1 X115.846 Y98.943 E1.58593
G1 X116.629 Y99.293 E1.60019
G1 X117.376 Y99.714 E1.61445
G1 X118.081 Y100.203 E1.62872
G1 X118.737 Y100.755 E1.64298
G1 X119.339 Y101.366 E1.65724
G1 X119.881 Y102.031 E1.67151
G1 X120.359 Y102.743 E1.68577
G1 X120.769 Y103.496 E1.70003
G1 X121.107 Y104.284 E1.71429
G1 X121.37 Y105.101 E1.72856
G1 X121.556 Y105.938 E1.74282
G1 X121.663 Y106.789 E1.75709
G1 X121.691 Y107.51 E1.76909
G1 X121.691 Y112.491 E1.85192
G1 X121.651 Y113.348 E1.86619
G1 X121.531 Y114.197 E1.88045
G1 X121.333 Y115.031 E1.8947
G1 X121.058 Y115.844 E1.90897
G1 X120.709 Y116.627 E1.92323
G1 X120.288 Y117.374 E1.93749
G1 X119.799 Y118.079 E1.95176
G1 X119.247 Y118.736 E1.96603
G1 X118.636 Y119.338 E1.98029
G1 X117.972 Y119.88 E1.99455
G1 X117.26 Y120.358 E2.00881
G1 X116.507 Y120.768 E2.02307
G1 X115.718 Y121.106 E2.03734
G1 X114.902 Y121.369 E2.0516
G1 X114.065 Y121.555 E2.06586
G1 X113.214 Y121.663 E2.08012
G1 X112.491 Y121.691 E2.09216
G1 X107.509 Y121.691 E2.17501
G1 X106.652 Y121.651 E2.18928
G1 X105.803 Y121.531 E2.20353
G1 X104.969 Y121.333 E2.21779
G1 X104.156 Y121.058 E2.23206
G1 X103.373 Y120.709 E2.24632
G1 X102.626 Y120.288 E2.26058
G1 X101.921 Y119.799 E2.27485
G1 X101.264 Y119.247 E2.28912
G1 X100.662 Y118.636 E2.30338
G1 X100.12 Y117.972 E2.31764
G1 X99.642 Y117.26 E2.3319
G1 X99.232 Y116.507 E2.34616
G1 X98.894 Y115.718 E2.36043
G1 X98.631 Y114.902 E2.37469
G1 X98.445 Y114.065 E2.38895
G1 X98.337 Y113.214 E2.40321
G1 X98.309 Y112.491 E2.41524
G1 X98.309 Y107.509 E2.4981
G1 X98.349 Y106.652 E2.51236
G1 X98.469 Y105.803 E2.52662
G1 X98.667 Y104.969 E2.54088
G1 X98.942 Y104.156 E2.55515
G1 X99.291 Y103.373 E2.56941
G1 X99.712 Y102.626 E2.58367
G1 X100.201 Y101.921 E2.59793
G1 X100.753 Y101.264 E2.61221
G1 X101.364 Y100.662 E2.62647
G0 F3600 X101.756 Y100.85
G1 F1800 X102.416 Y100.333 E2.64041
G1 X103.122 Y99.88 E2.65436
G1 X103.868 Y99.497 E2.66831
G1 X104.648 Y99.187 E2.68227
G1 X105.453 Y98.953 E2.69621
G1 X106.277 Y98.796 E2.71016
G1 X107.511 Y98.709 E2.73073
G1 X112.493 Y98.71 E2.81358
G1 X113.331 Y98.75 E2.82753
G1 X114.161 Y98.87 E2.84148
G1 X114.976 Y99.068 E2.85543
G1 X115.768 Y99.343 E2.86937
G1 X116.531 Y99.692 E2.88332
G1 X117.257 Y100.112 E2.89727
G1 X117.94 Y100.6 E2.91123
G1 X118.573 Y101.15 E2.92517
G1 X119.151 Y101.758 E2.93913
G1 X119.668 Y102.418 E2.95307
G1 X120.12 Y103.125 E2.96702
G1 X120.503 Y103.871 E2.98097
G1 X120.813 Y104.65 E2.99491
G1 X121.048 Y105.456 E3.00887
G1 X121.205 Y106.28 E3.02282
G1 X121.291 Y107.51 E3.04333
G1 X121.291 Y112.491 E3.12616
G1 X121.251 Y113.329 E3.14011
G1 X121.131 Y114.159 E3.15406
G1 X120.933 Y114.974 E3.16801
G1 X120.659 Y115.767 E3.18196
G1 X120.31 Y116.529 E3.1959
G1 X119.89 Y117.256 E3.20986
G1 X119.402 Y117.938 E3.22381
G1 X118.852 Y118.572 E3.23777
G1 X118.244 Y119.15 E3.25172
G1 X117.584 Y119.667 E3.26566
G1 X116.878 Y120.12 E3.27961
G1 X116.132 Y120.503 E3.29355
G1 X115.352 Y120.813 E3.30751
G1 X114.547 Y121.047 E3.32145
G1 X113.723 Y121.204 E3.3354
G1 X112.491 Y121.291 E3.35594
G1 X107.509 Y121.291 E3.43879
G1 X106.671 Y121.251 E3.45275
G1 X105.841 Y121.131 E3.46669
G1 X105.026 Y120.933 E3.48064
G1 X104.233 Y120.659 E3.49459
G1 X103.471 Y120.31 E3.50853
G1 X102.744 Y119.89 E3.52249
G1 X102.062 Y119.402 E3.53644
G1 X101.428 Y118.852 E3.5504
G1 X100.85 Y118.244 E3.56435
G1 X100.333 Y117.584 E3.57829
G1 X99.88 Y116.878 E3.59224
G1 X99.497 Y116.132 E3.60619
G1 X99.187 Y115.352 E3.62014
G1 X98.953 Y114.547 E3.63409
G1 X98.796 Y113.723 E3.64804
G1 X98.709 Y112.491 E3.66858
G1 X98.709 Y107.509 E3.75143
G1 X98.749 Y106.671 E3.76538
G1 X98.869 Y105.841 E3.77932
G1 X99.067 Y105.026 E3.79327
G1 X99.341 Y104.233 E3.80722
G1 X99.69 Y103.471 E3.82116
G1 X100.11 Y102.744 E3.83513
G1 X100.598 Y102.062 E3.84907
G1 X101.148 Y101.428 E3.86303
G1 X101.756 Y100.85 E3.87698
G0 F3600 X102.147 Y101.043
G1 F1800 X102.802 Y100.552 E3.89059
G1 X103.502 Y100.126 E3.90422
G1 X104.241 Y99.771 E3.91786
G1 X105.011 Y99.489 E3.93149
G1 X105.804 Y99.284 E3.94511
G1 X106.614 Y99.157 E3.95875
G1 X107.511 Y99.109 E3.97369
G1 X112.493 Y99.11 E4.05654
G1 X113.311 Y99.15 E4.07016
G1 X114.122 Y99.27 E4.08379
G1 X114.917 Y99.468 E4.09742
G1 X115.689 Y99.743 E4.11104
G1 X116.431 Y100.091 E4.12467
G1 X117.135 Y100.511 E4.13831
G1 X117.795 Y100.996 E4.15193
G1 X118.405 Y101.544 E4.16556
G1 X118.958 Y102.149 E4.17919
G1 X119.449 Y102.805 E4.19282
G1 X119.875 Y103.505 E4.20645
G1 X120.23 Y104.244 E4.22008
G1 X120.511 Y105.013 E4.2337
G1 X120.716 Y105.807 E4.24734
G1 X120.843 Y106.616 E4.26095
G1 X120.891 Y107.51 E4.27584
G1 X120.891 Y112.491 E4.35868
G1 X120.851 Y113.31 E4.37231
G1 X120.731 Y114.12 E4.38593
G1 X120.533 Y114.916 E4.39957
G1 X120.259 Y115.688 E4.41319
G1 X119.91 Y116.429 E4.42682
G1 X119.491 Y117.134 E4.44045
G1 X119.006 Y117.794 E4.45408
G1 X118.458 Y118.403 E4.4677
G1 X117.853 Y118.957 E4.48134
G1 X117.198 Y119.448 E4.49496
G1 X116.498 Y119.874 E4.50858
G1 X115.759 Y120.229 E4.52222
G1 X114.989 Y120.511 E4.53585
G1 X114.196 Y120.716 E4.54947
G1 X113.386 Y120.843 E4.56311
G1 X112.491 Y120.891 E4.57801
G1 X107.509 Y120.891 E4.66087
G1 X106.69 Y120.851 E4.6745
G1 X105.88 Y120.731 E4.68812
G1 X105.084 Y120.533 E4.70176
G1 X104.312 Y120.259 E4.71538
G1 X103.571 Y119.91 E4.729
G1 X102.866 Y119.491 E4.74264
G1 X102.206 Y119.006 E4.75626
G1 X101.597 Y118.458 E4.76989
G1 X101.043 Y117.853 E4.78353
G1 X100.552 Y117.198 E4.79714
G1 X100.126 Y116.498 E4.81077
G1 X99.771 Y115.759 E4.82441
G1 X99.489 Y114.989 E4.83804
G1 X99.284 Y114.196 E4.85166
G1 X99.157 Y113.386 E4.8653
G1 X99.109 Y112.491 E4.8802
G1 X99.109 Y107.509 E4.96305
G1 X99.149 Y106.69 E4.97669
G1 X99.269 Y105.88 E4.99031
G1 X99.467 Y105.084 E5.00395
G1 X99.741 Y104.312 E5.01757
G1 X100.09 Y103.571 E5.03119
G1 X100.509 Y102.866 E5.04483
G1 X100.994 Y102.206 E5.05845
G1 X101.542 Y101.597 E5.07208
G1 X102.147 Y101.043 E5.08572
G0 F3600 X102.537 Y101.242
G1 F1800 X103.187 Y100.777 E5.09901
G1 X103.881 Y100.379 E5.11231
G1 X104.611 Y100.052 E5.12562
G1 X105.37 Y99.8 E5.13892
G1 X106.15 Y99.625 E5.15221
G1 X106.944 Y99.529 E5.16551
G1 X107.511 Y99.509 E5.17495
G1 X112.493 Y99.51 E5.2578
G1 X113.291 Y99.55 E5.27108
G1 X114.082 Y99.67 E5.28439
G1 X114.857 Y99.868 E5.29769
G1 X115.608 Y100.142 E5.31099
G1 X116.328 Y100.49 E5.32428
G1 X117.01 Y100.909 E5.3376
G1 X117.646 Y101.393 E5.35089
G1 X118.231 Y101.938 E5.36418
G1 X118.759 Y102.539 E5.37749
G1 X119.224 Y103.19 E5.39079
G1 X119.622 Y103.883 E5.40408
G1 X119.948 Y104.614 E5.41739
G1 X120.2 Y105.373 E5.43069
G1 X120.375 Y106.153 E5.44399
G1 X120.471 Y106.947 E5.45729
G1 X120.491 Y107.51 E5.46665
G1 X120.491 Y112.491 E5.54949
G1 X120.451 Y113.29 E5.56279
G1 X120.331 Y114.081 E5.5761
G1 X120.134 Y114.855 E5.58938
G1 X119.859 Y115.607 E5.6027
G1 X119.511 Y116.327 E5.61599
G1 X119.093 Y117.009 E5.6293
G1 X118.609 Y117.645 E5.64259
G1 X118.064 Y118.23 E5.65588
G1 X117.463 Y118.758 E5.66919
G1 X116.813 Y119.223 E5.68248
G1 X116.119 Y119.621 E5.69578
G1 X115.389 Y119.948 E5.70909
G1 X114.63 Y120.2 E5.72239
G1 X113.85 Y120.375 E5.73568
G1 X113.056 Y120.471 E5.74898
G1 X112.491 Y120.491 E5.75838
G1 X107.509 Y120.491 E5.84123
G1 X106.71 Y120.451 E5.85454
G1 X105.919 Y120.331 E5.86784
G1 X105.145 Y120.134 E5.88112
G1 X104.393 Y119.859 E5.89444
G1 X103.673 Y119.511 E5.90774
G1 X102.991 Y119.093 E5.92104
G1 X102.355 Y118.609 E5.93433
G1 X101.77 Y118.064 E5.94763
G1 X101.242 Y117.463 E5.96093
G1 X100.777 Y116.813 E5.97422
G1 X100.379 Y116.119 E5.98753
G1 X100.052 Y115.389 E6.00083
G1 X99.8 Y114.63 E6.01413
G1 X99.625 Y113.85 E6.02742
G1 X99.529 Y113.056 E6.04072
G1 X99.509 Y112.491 E6.05013
G1 X99.509 Y107.509 E6.13298
G1 X99.549 Y106.71 E6.14628
G1 X99.669 Y105.919 E6.15959
G1 X99.866 Y105.145 E6.17287
G1 X100.141 Y104.393 E6.18618
G1 X100.489 Y103.673 E6.19948
G1 X100.907 Y102.991 E6.21279
G1 X101.391 Y102.355 E6.22608
G1 X101.936 Y101.77 E6.23937
G1 X102.537 Y101.242 E6.25268
G0 F3600 X102.926 Y101.446
G1 F1800 X103.571 Y101.009 E6.26563
G1 X104.257 Y100.64 E6.27859
G1 X104.978 Y100.343 E6.29155
G1 X105.726 Y100.121 E6.30453
G1 X106.492 Y99.977 E6.31749
G1 X107.511 Y99.909 E6.33448
G1 X112.493 Y99.91 E6.41733
G1 X113.271 Y99.95 E6.43028
G1 X114.041 Y100.07 E6.44324
G1 X114.795 Y100.268 E6.45621
G1 X115.525 Y100.542 E6.46917
G1 X116.223 Y100.889 E6.48214
G1 X116.881 Y101.306 E6.49509
G1 X117.494 Y101.789 E6.50807
G1 X118.053 Y102.331 E6.52102
G1 X118.554 Y102.928 E6.53398
G1 X118.992 Y103.573 E6.54694
G1 X119.361 Y104.26 E6.55991
G1 X119.658 Y104.981 E6.57288
G1 X119.879 Y105.728 E6.58584
G1 X120.023 Y106.494 E6.5988
G1 X120.091 Y107.51 E6.61573
G1 X120.091 Y112.491 E6.69857
G1 X120.051 Y113.269 E6.71152
G1 X119.932 Y114.04 E6.72449
G1 X119.734 Y114.794 E6.73746
G1 X119.46 Y115.523 E6.75041
G1 X119.113 Y116.221 E6.76337
G1 X118.696 Y116.88 E6.77634
G1 X118.213 Y117.492 E6.78931
G1 X117.671 Y118.052 E6.80227
G1 X117.074 Y118.554 E6.81524
G1 X116.429 Y118.991 E6.8282
G1 X115.743 Y119.36 E6.84115
G1 X115.022 Y119.657 E6.85412
G1 X114.274 Y119.879 E6.86709
G1 X113.508 Y120.023 E6.88006
G1 X112.491 Y120.091 E6.89701
G1 X107.509 Y120.091 E6.97986
G1 X106.731 Y120.051 E6.99281
G1 X105.96 Y119.932 E7.00579
G1 X105.206 Y119.734 E7.01875
G1 X104.477 Y119.46 E7.0317
G1 X103.779 Y119.113 E7.04466
G1 X103.12 Y118.696 E7.05763
G1 X102.508 Y118.213 E7.0706
G1 X101.948 Y117.671 E7.08356
G1 X101.446 Y117.074 E7.09653
G1 X101.009 Y116.429 E7.10949
G1 X100.64 Y115.743 E7.12244
G1 X100.343 Y115.022 E7.13541
G1 X100.121 Y114.274 E7.14838
G1 X99.977 Y113.508 E7.16135
G1 X99.909 Y112.491 E7.1783
G1 X99.909 Y107.509 E7.26115
G1 X99.949 Y106.731 E7.2741
G1 X100.068 Y105.96 E7.28708
G1 X100.266 Y105.206 E7.30004
G1 X100.54 Y104.477 E7.31299
G1 X100.887 Y103.779 E7.32596
G1 X101.304 Y103.12 E7.33892
G1 X101.787 Y102.508 E7.35189
G1 X102.329 Y101.948 E7.36485
G1 X102.926 Y101.446 E7.37782
G0 F3600 X103.314 Y101.657
G1 F1800 X103.953 Y101.249 E7.39043
G1 X104.631 Y100.909 E7.40304
G1 X105.342 Y100.643 E7.41567
G1 X106.076 Y100.453 E7.42828
G1 X106.827 Y100.341 E7.4409
G1 X107.51 Y100.309 E7.45227
G1 X112.492 Y100.31 E7.53513
G1 X113.25 Y100.35 E7.54775
G1 X113.999 Y100.47 E7.56036
G1 X114.732 Y100.668 E7.57299
G1 X115.439 Y100.941 E7.58559
G1 X116.114 Y101.288 E7.59822
G1 X116.749 Y101.704 E7.61084
G1 X117.336 Y102.184 E7.62345
G1 X117.87 Y102.723 E7.63607
G1 X118.343 Y103.316 E7.64868
G1 X118.752 Y103.955 E7.6613
G1 X119.092 Y104.634 E7.67393
G1 X119.358 Y105.344 E7.68654
G1 X119.547 Y106.079 E7.69916
G1 X119.659 Y106.829 E7.71177
G1 X119.691 Y107.51 E7.72311
G1 X119.691 Y112.491 E7.80594
G1 X119.651 Y113.249 E7.81856
G1 X119.532 Y113.998 E7.83117
G1 X119.334 Y114.73 E7.84379
G1 X119.06 Y115.438 E7.85641
G1 X118.714 Y116.113 E7.86902
G1 X118.298 Y116.748 E7.88165
G1 X117.818 Y117.335 E7.89426
G1 X117.279 Y117.869 E7.90688
G1 X116.686 Y118.343 E7.9195
G1 X116.047 Y118.751 E7.93211
G1 X115.369 Y119.091 E7.94472
G1 X114.658 Y119.357 E7.95735
G1 X113.924 Y119.547 E7.96996
G1 X113.173 Y119.659 E7.98258
G1 X112.491 Y119.691 E7.99394
G1 X107.509 Y119.691 E8.07679
G1 X106.751 Y119.651 E8.08941
G1 X106.002 Y119.532 E8.10202
G1 X105.27 Y119.334 E8.11463
G1 X104.562 Y119.06 E8.12726
G1 X103.887 Y118.714 E8.13987
G1 X103.252 Y118.298 E8.1525
G1 X102.665 Y117.818 E8.16511
G1 X102.131 Y117.279 E8.17773
G1 X101.657 Y116.686 E8.19035
G1 X101.249 Y116.047 E8.20296
G1 X100.909 Y115.369 E8.21557
G1 X100.643 Y114.658 E8.2282
G1 X100.453 Y113.924 E8.24081
G1 X100.341 Y113.173 E8.25343
G1 X100.309 Y112.491 E8.26479
G1 X100.309 Y107.509 E8.34764
G1 X100.349 Y106.751 E8.36026
G1 X100.468 Y106.002 E8.37287
G1 X100.666 Y105.27 E8.38548
G1 X100.94 Y104.562 E8.39811
G1 X101.286 Y103.887 E8.41072
G1 X101.702 Y103.252 E8.42335
G1 X102.182 Y102.665 E8.43596
G1 X102.721 Y102.131 E8.44858
G1 X103.314 Y101.657 E8.4612
G0 F3600 X103.7 Y101.876
G1 F1800 X104.333 Y101.496 E8.47348
G1 X105.002 Y101.188 E8.48573
G1 X105.701 Y100.954 E8.49799
G1 X106.422 Y100.796 E8.51026
G1 X107.51 Y100.709 E8.52841
G1 X112.492 Y100.71 E8.61126
G1 X113.229 Y100.75 E8.62354
G1 X113.956 Y100.87 E8.63579
G1 X114.666 Y101.067 E8.64804
G1 X115.351 Y101.341 E8.66031
G1 X116.002 Y101.687 E8.67257
G1 X116.612 Y102.101 E8.68483
G1 X117.173 Y102.579 E8.69709
G1 X117.68 Y103.115 E8.70936
G1 X118.125 Y103.703 E8.72162
G1 X118.504 Y104.335 E8.73388
G1 X118.813 Y105.005 E8.74615
G1 X119.047 Y105.704 E8.75841
G1 X119.204 Y106.424 E8.77066
G1 X119.291 Y107.51 E8.78878
G1 X119.291 Y112.491 E8.87161
G1 X119.251 Y113.227 E8.88387
G1 X119.132 Y113.955 E8.89614
G1 X118.934 Y114.665 E8.9084
G1 X118.661 Y115.35 E8.92066
G1 X118.315 Y116.001 E8.93292
G1 X117.901 Y116.611 E8.94518
G1 X117.423 Y117.172 E8.95744
G1 X116.887 Y117.679 E8.96971
G1 X116.3 Y118.124 E8.98196
G1 X115.667 Y118.504 E8.99423
G1 X114.998 Y118.812 E9.00648
G1 X114.299 Y119.046 E9.01874
G1 X113.578 Y119.204 E9.03102
G1 X112.491 Y119.291 E9.04915
G1 X107.509 Y119.291 E9.132
G1 X106.773 Y119.251 E9.14426
G1 X106.045 Y119.132 E9.15653
G1 X105.335 Y118.934 E9.16878
G1 X104.65 Y118.661 E9.18105
G1 X103.999 Y118.315 E9.19331
G1 X103.389 Y117.901 E9.20557
G1 X102.828 Y117.423 E9.21782
G1 X102.321 Y116.887 E9.23009
G1 X101.876 Y116.3 E9.24234
G1 X101.496 Y115.667 E9.25462
G1 X101.188 Y114.998 E9.26687
G1 X100.954 Y114.299 E9.27913
