;FLAVOR:RepRap
;TIME:910
;Filament used: 0.426301m
;Layer height: 0.1
;Generated with Cura_SteamEngine 2.5.0-BETA
M190 S60
M104 S200
M109 S200
G28 ;Home
G1 Z15.0 F6000 ;Move the platform down 15mm
;Prime the extruder
G92 E0
G1 F200 E3
G92 E0
;LAYER_COUNT:48
;LAYER:0
M107
G0 F3600 X60.468 Y102.336 Z0.3
;TYPE:SKIRT
G1 F1800 X61.085 Y102.021 E0.03456
G1 X61.733 Y101.778 E0.06909
G1 X62.406 Y101.611 E0.10368
G1 X63.092 Y101.523 E0.13819
G1 X63.509 Y101.509 E0.159
G1 X112.491 Y101.51 E2.60273
G1 X113.182 Y101.55 E2.63726
G1 X113.865 Y101.669 E2.67185
G1 X114.529 Y101.867 E2.70642
G1 X115.165 Y102.139 E2.74093
G1 X115.766 Y102.483 E2.77547
G1 X116.324 Y102.894 E2.81005
G1 X116.83 Y103.366 E2.84457
G1 X117.279 Y103.894 E2.87915
G1 X117.664 Y104.47 E2.91372
G1 X117.979 Y105.086 E2.94823
G1 X118.222 Y105.734 E2.98276
G1 X118.389 Y106.407 E3.01735
G1 X118.477 Y107.094 E3.05191
G1 X118.491 Y107.51 E3.07267
G1 X118.491 Y112.491 E3.32118
G1 X118.451 Y113.182 E3.35571
G1 X118.332 Y113.865 E3.3903
G1 X118.134 Y114.528 E3.42482
G1 X117.862 Y115.165 E3.45937
G1 X117.518 Y115.766 E3.49392
G1 X117.107 Y116.324 E3.5285
G1 X116.635 Y116.83 E3.56302
G1 X116.107 Y117.279 E3.5976
G1 X115.532 Y117.664 E3.63212
G1 X114.915 Y117.979 E3.66668
G1 X114.267 Y118.222 E3.70121
G1 X113.594 Y118.389 E3.73581
G1 X112.908 Y118.477 E3.77031
G1 X112.491 Y118.491 E3.79113
G1 X63.509 Y118.49 E6.23485
G1 X62.818 Y118.45 E6.26938
G1 X62.135 Y118.331 E6.30397
G1 X61.471 Y118.133 E6.33854
G1 X60.835 Y117.861 E6.37305
G1 X60.234 Y117.517 E6.4076
G1 X59.676 Y117.106 E6.44217
G1 X59.17 Y116.634 E6.47669
G1 X58.721 Y116.106 E6.51127
G1 X58.336 Y115.53 E6.54584
G1 X58.021 Y114.914 E6.58036
G1 X57.778 Y114.266 E6.61488
G1 X57.611 Y113.593 E6.64948
G1 X57.523 Y112.906 E6.68403
G1 X57.509 Y112.49 E6.7048
G1 X57.509 Y107.509 E6.9533
G1 X57.549 Y106.818 E6.98783
G1 X57.668 Y106.135 E7.02242
G1 X57.866 Y105.472 E7.05694
G1 X58.138 Y104.835 E7.0915
G1 X58.482 Y104.234 E7.12605
G1 X58.893 Y103.676 E7.16062
G1 X59.365 Y103.17 E7.19514
G1 X59.893 Y102.721 E7.22972
G1 X60.468 Y102.336 E7.26425
G0 F3600 X60.849 Y102.581
G1 F1800 X61.456 Y102.299 E7.29764
G1 X62.092 Y102.091 E7.33102
G1 X62.748 Y101.961 E7.36439
G1 X63.509 Y101.909 E7.40244
G1 X112.491 Y101.91 E9.84616
G1 X113.159 Y101.95 E9.87955
G1 X113.817 Y102.069 E9.91291
G1 X114.457 Y102.266 E9.94632
G1 X115.068 Y102.538 E9.97969
G1 X115.642 Y102.881 E10.01305
G1 X116.172 Y103.29 E10.04645
G1 X116.649 Y103.759 E10.07982
G1 X117.067 Y104.282 E10.11322
G1 X117.419 Y104.85 E10.14656
G1 X117.701 Y105.457 E10.17995
G1 X117.909 Y106.093 E10.21334
G1 X118.039 Y106.749 E10.2467
G1 X118.091 Y107.51 E10.28475
G1 X118.091 Y112.491 E10.53326
G1 X118.051 Y113.159 E10.56664
G1 X117.932 Y113.817 E10.6
G1 X117.735 Y114.457 E10.63341
G1 X117.463 Y115.068 E10.66678
G1 X117.12 Y115.642 E10.70014
G1 X116.711 Y116.172 E10.73354
G1 X116.242 Y116.649 E10.76691
G1 X115.72 Y117.067 E10.80028
G1 X115.151 Y117.419 E10.83366
G1 X114.544 Y117.701 E10.86705
G1 X113.908 Y117.909 E10.90043
G1 X113.252 Y118.039 E10.9338
G1 X112.491 Y118.091 E10.97185
G1 X63.509 Y118.09 E13.41557
G1 X62.841 Y118.05 E13.44896
G1 X62.183 Y117.931 E13.48232
G1 X61.543 Y117.734 E13.51573
G1 X60.932 Y117.462 E13.5491
G1 X60.358 Y117.119 E13.58246
G1 X59.828 Y116.71 E13.61586
G1 X59.351 Y116.241 E13.64923
G1 X58.933 Y115.718 E13.68263
G1 X58.581 Y115.15 E13.71597
G1 X58.299 Y114.543 E13.74936
G1 X58.091 Y113.907 E13.78275
G1 X57.961 Y113.251 E13.81611
G1 X57.909 Y112.49 E13.85417
G1 X57.909 Y107.509 E14.10267
G1 X57.949 Y106.841 E14.13605
G1 X58.068 Y106.183 E14.16942
G1 X58.265 Y105.543 E14.20282
G1 X58.537 Y104.932 E14.23619
G1 X58.88 Y104.358 E14.26955
G1 X59.289 Y103.828 E14.30295
G1 X59.758 Y103.351 E14.33632
G1 X60.28 Y102.933 E14.36969
G1 X60.849 Y102.581 E14.40307
G0 F3600 X61.227 Y102.836
G1 F1800 X61.823 Y102.59 E14.43524
G1 X62.444 Y102.419 E14.46737
G1 X63.082 Y102.327 E14.49953
G1 X63.509 Y102.309 E14.52085
G1 X112.491 Y102.31 E16.96457
G1 X113.135 Y102.35 E16.99677
G1 X113.768 Y102.469 E17.0289
G1 X114.382 Y102.666 E17.06107
G1 X114.967 Y102.937 E17.09323
G1 X115.514 Y103.279 E17.12542
G1 X116.014 Y103.685 E17.15755
G1 X116.46 Y104.151 E17.18973
G1 X116.845 Y104.668 E17.22189
G1 X117.164 Y105.228 E17.25405
G1 X117.41 Y105.824 E17.28621
G1 X117.581 Y106.445 E17.31835
G1 X117.673 Y107.083 E17.35051
G1 X117.691 Y107.51 E17.37183
G1 X117.691 Y112.491 E17.62033
G1 X117.651 Y113.134 E17.65248
G1 X117.532 Y113.768 E17.68466
G1 X117.335 Y114.382 E17.71683
G1 X117.064 Y114.967 E17.74899
G1 X116.722 Y115.514 E17.78118
G1 X116.316 Y116.014 E17.81331
G1 X115.851 Y116.46 E17.84546
G1 X115.334 Y116.845 E17.87762
G1 X114.773 Y117.164 E17.90981
G1 X114.177 Y117.41 E17.94198
G1 X113.556 Y117.581 E17.97412
G1 X112.918 Y117.673 E18.00628
G1 X112.491 Y117.691 E18.0276
G1 X63.509 Y117.69 E20.47132
G1 X62.865 Y117.65 E20.50351
G1 X62.232 Y117.531 E20.53564
G1 X61.618 Y117.334 E20.56781
G1 X61.033 Y117.063 E20.59998
G1 X60.486 Y116.721 E20.63216
G1 X59.986 Y116.315 E20.6643
G1 X59.54 Y115.849 E20.69648
G1 X59.155 Y115.332 E20.72864
G1 X58.836 Y114.772 E20.76079
G1 X58.59 Y114.176 E20.79296
G1 X58.419 Y113.555 E20.82509
G1 X58.327 Y112.917 E20.85725
G1 X58.309 Y112.49 E20.87858
G1 X58.309 Y107.509 E21.12708
G1 X58.349 Y106.866 E21.15922
G1 X58.468 Y106.232 E21.1914
G1 X58.665 Y105.618 E21.22357
G1 X58.936 Y105.033 E21.25574
G1 X59.278 Y104.486 E21.28792
G1 X59.684 Y103.986 E21.32006
G1 X60.149 Y103.54 E21.3522
G1 X60.666 Y103.155 E21.38436
G1 X61.227 Y102.836 E21.41656
G0 F3600 X61.601 Y103.104
G1 F1800 X62.184 Y102.895 E21.44746
G1 X62.79 Y102.763 E21.4784
G1 X63.509 Y102.709 E21.51437
G1 X112.491 Y102.71 E23.95809
G1 X113.109 Y102.75 E23.98899
G1 X113.717 Y102.869 E24.0199
G1 X114.304 Y103.066 E24.05079
G1 X114.861 Y103.336 E24.08167
G1 X115.379 Y103.676 E24.11258
G1 X115.849 Y104.08 E24.1435
G1 X116.262 Y104.541 E24.17438
G1 X116.613 Y105.051 E24.20527
G1 X116.896 Y105.602 E24.23617
G1 X117.105 Y106.186 E24.26712
G1 X117.237 Y106.791 E24.29801
G1 X117.291 Y107.51 E24.33399
G1 X117.291 Y112.491 E24.58249
G1 X117.251 Y113.109 E24.61339
G1 X117.132 Y113.717 E24.64429
G1 X116.935 Y114.304 E24.67519
G1 X116.665 Y114.861 E24.70607
G1 X116.325 Y115.379 E24.73698
G1 X115.921 Y115.849 E24.7679
G1 X115.46 Y116.262 E24.79878
G1 X114.95 Y116.613 E24.82967
G1 X114.399 Y116.896 E24.86057
G1 X113.816 Y117.105 E24.89147
G1 X113.21 Y117.237 E24.92241
G1 X112.491 Y117.291 E24.95838
G1 X63.509 Y117.29 E27.40211
G1 X62.891 Y117.25 E27.433
G1 X62.283 Y117.131 E27.46391
G1 X61.696 Y116.934 E27.4948
G1 X61.139 Y116.664 E27.52568
G1 X60.621 Y116.324 E27.5566
G1 X60.151 Y115.92 E27.58752
G1 X59.738 Y115.459 E27.6184
G1 X59.387 Y114.949 E27.64928
G1 X59.104 Y114.398 E27.68019
G1 X58.895 Y113.814 E27.71113
G1 X58.763 Y113.209 E27.74203
G1 X58.709 Y112.49 E27.778
G1 X58.709 Y107.509 E28.0265
G1 X58.749 Y106.891 E28.0574
G1 X58.868 Y106.283 E28.08831
G1 X59.065 Y105.696 E28.1192
G1 X59.335 Y105.139 E28.15008
G1 X59.675 Y104.621 E28.18099
G1 X60.079 Y104.151 E28.21191
G1 X60.54 Y103.738 E28.24279
G1 X61.05 Y103.387 E28.27368
G1 X61.601 Y103.104 E28.30458
G0 F3600 X61.971 Y103.386
G1 F1800 X62.54 Y103.217 E28.3342
G1 X63.125 Y103.126 E28.36373
G1 X63.509 Y103.109 E28.38291
G1 X112.491 Y103.11 E30.82663
G1 X113.083 Y103.15 E30.85623
G1 X113.664 Y103.269 E30.88582
G1 X114.223 Y103.465 E30.91537
G1 X114.751 Y103.735 E30.94496
G1 X115.238 Y104.073 E30.97454
G1 X115.675 Y104.474 E31.00413
G1 X116.055 Y104.929 E31.0337
G1 X116.369 Y105.432 E31.06328
G1 X116.614 Y105.972 E31.09287
G1 X116.783 Y106.541 E31.12248
G1 X116.874 Y107.127 E31.15207
G1 X116.891 Y107.51 E31.17119
G1 X116.891 Y112.491 E31.4197
G1 X116.851 Y113.083 E31.4493
G1 X116.732 Y113.663 E31.47884
G1 X116.536 Y114.223 E31.50844
G1 X116.266 Y114.751 E31.53802
G1 X115.928 Y115.238 E31.5676
G1 X115.527 Y115.675 E31.59719
G1 X115.072 Y116.055 E31.62677
G1 X114.569 Y116.369 E31.65635
G1 X114.029 Y116.614 E31.68593
G1 X113.46 Y116.783 E31.71555
G1 X112.875 Y116.874 E31.74508
G1 X112.491 Y116.891 E31.76426
G1 X63.509 Y116.89 E34.20798
G1 X62.917 Y116.85 E34.23758
G1 X62.336 Y116.731 E34.26717
G1 X61.777 Y116.535 E34.29672
G1 X61.249 Y116.265 E34.32631
G1 X60.762 Y115.927 E34.35589
G1 X60.325 Y115.526 E34.38548
G1 X59.945 Y115.071 E34.41505
G1 X59.631 Y114.568 E34.44463
G1 X59.386 Y114.028 E34.47422
G1 X59.217 Y113.459 E34.50383
G1 X59.126 Y112.873 E34.53342
G1 X59.109 Y112.49 E34.55254
G1 X59.109 Y107.509 E34.80105
G1 X59.149 Y106.917 E34.83065
G1 X59.268 Y106.337 E34.86019
G1 X59.464 Y105.777 E34.88979
G1 X59.734 Y105.249 E34.91938
G1 X60.072 Y104.762 E34.94895
G1 X60.473 Y104.325 E34.97854
G1 X60.928 Y103.945 E35.00812
G1 X61.431 Y103.631 E35.0377
G1 X61.971 Y103.386 E35.06728
G0 F3600 X62.336 Y103.685
G1 F1800 X62.886 Y103.558 E35.09544
G1 X63.509 Y103.509 E35.12662
G1 X112.491 Y103.51 E37.57034
G1 X113.055 Y103.55 E37.59855
G1 X113.608 Y103.669 E37.62677
G1 X114.138 Y103.865 E37.65497
G1 X114.635 Y104.133 E37.68314
G1 X115.09 Y104.469 E37.71135
G1 X115.493 Y104.866 E37.73958
G1 X115.835 Y105.316 E37.76778
G1 X116.111 Y105.809 E37.79596
G1 X116.315 Y106.337 E37.8242
G1 X116.442 Y106.887 E37.85237
G1 X116.491 Y107.51 E37.88354
G1 X116.491 Y112.491 E38.13205
G1 X116.451 Y113.055 E38.16025
G1 X116.332 Y113.608 E38.18848
G1 X116.136 Y114.138 E38.21667
G1 X115.868 Y114.635 E38.24484
G1 X115.532 Y115.09 E38.27306
G1 X115.135 Y115.493 E38.30128
G1 X114.685 Y115.835 E38.32948
G1 X114.192 Y116.111 E38.35767
G1 X113.664 Y116.315 E38.38591
G1 X113.114 Y116.442 E38.41407
G1 X112.491 Y116.491 E38.44525
G1 X63.509 Y116.49 E40.88897
G1 X62.945 Y116.45 E40.91718
G1 X62.392 Y116.331 E40.9454
G1 X61.862 Y116.135 E40.97359
G1 X61.365 Y115.867 E41.00176
G1 X60.91 Y115.531 E41.02998
G1 X60.507 Y115.134 E41.0582
G1 X60.165 Y114.684 E41.0864
G1 X59.889 Y114.191 E41.11459
G1 X59.685 Y113.663 E41.14283
G1 X59.558 Y113.113 E41.17099
G1 X59.509 Y112.49 E41.20217
G1 X59.509 Y107.509 E41.45067
G1 X59.549 Y106.945 E41.47888
G1 X59.668 Y106.392 E41.5071
G1 X59.864 Y105.862 E41.53529
G1 X60.132 Y105.365 E41.56346
G1 X60.468 Y104.91 E41.59168
G1 X60.865 Y104.507 E41.6199
G1 X61.315 Y104.165 E41.6481
G1 X61.808 Y103.889 E41.67629
G1 X62.336 Y103.685 E41.70453
G0 F3600 X62.692 Y104.003
G1 F1800 X63.222 Y103.92 E41.73129
G1 X63.509 Y103.909 E41.74562
G1 X112.491 Y103.91 E44.18934
G1 X113.026 Y103.95 E44.21611
G1 X113.549 Y104.069 E44.24287
G1 X114.048 Y104.264 E44.2696
G1 X114.513 Y104.532 E44.29637
G1 X114.933 Y104.865 E44.32312
G1 X115.299 Y105.257 E44.34987
G1 X115.602 Y105.699 E44.37661
G1 X115.837 Y106.182 E44.4034
G1 X115.997 Y106.693 E44.43012
G1 X116.08 Y107.223 E44.45688
G1 X116.091 Y107.51 E44.47121
G1 X116.091 Y112.491 E44.71972
G1 X116.051 Y113.026 E44.74648
G1 X115.932 Y113.549 E44.77324
G1 X115.737 Y114.048 E44.79997
G1 X115.469 Y114.513 E44.82675
G1 X115.136 Y114.933 E44.85349
G1 X114.744 Y115.299 E44.88024
G1 X114.302 Y115.602 E44.90698
G1 X113.819 Y115.837 E44.93378
G1 X113.308 Y115.997 E44.96049
G1 X112.778 Y116.08 E44.98725
G1 X112.491 Y116.091 E45.00158
G1 X63.509 Y116.09 E47.44531
G1 X62.974 Y116.05 E47.47207
G1 X62.451 Y115.931 E47.49883
G1 X61.952 Y115.736 E47.52556
G1 X61.487 Y115.468 E47.55234
G1 X61.067 Y115.135 E47.57908
G1 X60.701 Y114.743 E47.60583
G1 X60.398 Y114.301 E47.63257
G1 X60.163 Y113.818 E47.65937
G1 X60.003 Y113.307 E47.68608
G1 X59.92 Y112.777 E47.71284
G1 X59.909 Y112.49 E47.72717
G1 X59.909 Y107.509 E47.97568
G1 X59.949 Y106.974 E48.00244
G1 X60.068 Y106.451 E48.0292
G1 X60.263 Y105.952 E48.05593
G1 X60.531 Y105.487 E48.08271
G1 X60.864 Y105.067 E48.10945
G1 X61.256 Y104.701 E48.1362
G1 X61.698 Y104.398 E48.16294
G1 X62.181 Y104.163 E48.18974
G1 X62.692 Y104.003 E48.21645
G0 F3600 X63.509 Y104.309
G1 F1800 X112.491 Y104.31 E50.66017
G1 X112.995 Y104.35 E50.6854
G1 X113.486 Y104.469 E50.7106
G1 X113.953 Y104.664 E50.73585
G1 X114.383 Y104.929 E50.76105
G1 X114.766 Y105.26 E50.7863
G1 X115.092 Y105.646 E50.81151
G1 X115.353 Y106.079 E50.83673
G1 X115.543 Y106.547 E50.86193
G1 X115.656 Y107.04 E50.88717
G1 X115.691 Y107.51 E50.91068
G1 X115.691 Y112.491 E51.15918
G1 X115.651 Y112.995 E51.18441
G1 X115.532 Y113.486 E51.20961
G1 X115.338 Y113.953 E51.23484
G1 X115.072 Y114.383 E51.26007
G1 X114.742 Y114.766 E51.28529
G1 X114.355 Y115.092 E51.31054
G1 X113.922 Y115.353 E51.33576
G1 X113.454 Y115.543 E51.36096
G1 X112.961 Y115.656 E51.38619
G1 X112.491 Y115.691 E51.4097
G1 X63.509 Y115.69 E53.85343
G1 X63.005 Y115.65 E53.87865
G1 X62.514 Y115.531 E53.90386
G1 X62.047 Y115.336 E53.9291
G1 X61.617 Y115.071 E53.9543
G1 X61.234 Y114.74 E53.97956
G1 X60.908 Y114.354 E54.00477
G1 X60.647 Y113.921 E54.02999
G1 X60.457 Y113.453 E54.05519
G1 X60.344 Y112.96 E54.08042
G1 X60.309 Y112.49 E54.10394
G1 X60.309 Y107.509 E54.35244
G1 X60.349 Y107.005 E54.37766
G1 X60.468 Y106.514 E54.40287
G1 X60.662 Y106.047 E54.4281
G1 X60.928 Y105.617 E54.45332
G1 X61.258 Y105.234 E54.47854
G1 X61.645 Y104.908 E54.50379
G1 X62.078 Y104.647 E54.52901
G1 X62.546 Y104.457 E54.55421
G1 X63.039 Y104.344 E54.57945
G1 X63.509 Y104.309 E54.60296
G1 F1500 E48.10296
G0 F3600 X64.114 Y106.835
G0 X64.114 Y108.114
G0 X64.17 Y108.17
G0 X64.1 Y108.1
;TYPE:WALL-INNER
G1 F1500 E54.60296
G1 F1800 X67.9 Y108.1 E54.77738
G1 X67.9 Y111.9 E54.95179
G1 X64.1 Y111.9 E55.12621
G1 X64.1 Y108.1 E55.30062
G0 F3600 X63.7 Y107.7
;TYPE:WALL-OUTER
G1 F1800 X68.3 Y107.7 E55.51176
G1 X68.3 Y112.3 E55.72289
G1 X63.7 Y112.3 E55.93403
G1 X63.7 Y107.7 E56.14517
G0 F3600 X63.9 Y107.7
G0 X64.279 Y108.403
;TYPE:SKIN
G1 F1800 X67.595 Y111.719 E56.36041
G1 X67.665 Y111.789
G0 F3600 X67.72 Y111.278
G1 F1800 X64.721 Y108.279 E56.55508
G1 X64.651 Y108.209
G0 F3600 X65.287 Y108.279
G1 F1800 X67.72 Y110.712 E56.71301
G1 X67.79 Y110.782
G0 F3600 X67.72 Y110.146
G1 F1800 X65.852 Y108.279 E56.83423
G1 X65.782 Y108.209
G0 F3600 X66.418 Y108.279
G1 F1800 X67.72 Y109.581 E56.91874
G1 X67.79 Y109.651
G0 F3600 X67.72 Y109.015
G1 F1800 X66.984 Y108.279 E56.96652
G1 X66.914 Y108.209
G0 F3600 X67.549 Y108.279
G1 F1800 X67.72 Y108.449 E56.97758
G0 F3600 X67.03 Y111.719
G1 F1800 X64.279 Y108.968 E57.15615
G1 X64.209 Y108.898
G0 F3600 X64.279 Y109.534
G1 F1800 X66.464 Y111.719 E57.29798
G1 X66.534 Y111.789
G0 F3600 X65.898 Y111.719
G1 F1800 X64.279 Y110.1 E57.40307
G1 X64.209 Y110.03
G0 F3600 X64.279 Y110.665
G1 F1800 X65.333 Y111.719 E57.47149
G1 X65.403 Y111.789
G0 F3600 X64.767 Y111.719
G1 F1800 X64.279 Y111.231 E57.50317
G0 F3600 X64.5 Y111.231
G1 F1500 E51.00317
G0 F3600 X67.88 Y111.83
G0 X69.62 Y111.83
G0 X69.67 Y111.83
G0 X69.6 Y111.9
;TYPE:WALL-INNER
G1 F1500 E57.50317
G1 F1800 X69.6 Y108.1 E57.68138
G1 X73.4 Y108.1 E57.85958
G1 X73.4 Y111.9 E58.03779
G1 X69.6 Y111.9 E58.216
G0 F3600 X69.2 Y112.3
;TYPE:WALL-OUTER
G1 F1800 X69.2 Y107.7 E58.43172
G1 X73.8 Y107.7 E58.64745
G1 X73.8 Y112.3 E58.86317
G1 X69.2 Y112.3 E59.0789
G0 F3600 X69.2 Y112.1
G0 X69.818 Y111.679
G1 F1800 X70.101 Y111.396 E59.10292
;TYPE:SKIN
G1 X69.709 Y111.004
G0 F3600 X69.779 Y110.508
G1 F1800 X70.989 Y111.719 E59.18321
G1 X71.059 Y111.789
G0 F3600 X71.555 Y111.719
G1 F1800 X69.779 Y109.943 E59.301
G1 X69.709 Y109.873
G0 F3600 X69.779 Y109.377
G1 F1800 X72.121 Y111.719 E59.45632
G1 X72.191 Y111.789
G0 F3600 X72.687 Y111.719
G1 F1800 X69.779 Y108.811 E59.64919
G1 X69.709 Y108.741
G0 F3600 X69.812 Y108.279
G1 F1800 X73.22 Y111.686 E59.87518
G1 X73.29 Y111.756
G0 F3600 X73.22 Y111.121
G1 F1800 X70.378 Y108.279 E60.06367
G1 X70.308 Y108.209
G0 F3600 X70.944 Y108.279
G1 F1800 X73.22 Y110.555 E60.21462
G1 X73.29 Y110.625
G0 F3600 X73.22 Y109.989
G1 F1800 X71.509 Y108.279 E60.32806
G1 X71.439 Y108.209
G0 F3600 X72.075 Y108.279
G1 F1800 X73.22 Y109.424 E60.404
G1 X73.29 Y109.494
G0 F3600 X73.22 Y108.858
G1 F1800 X72.641 Y108.279 E60.4424
G1 X72.571 Y108.209
G0 F3600 X72.571 Y108.5
G1 F1500 E53.9424
G0 F3600 X73.38 Y108.17
G0 X75.12 Y108.17
G0 X75.17 Y108.17
G0 X75.1 Y108.1
;TYPE:WALL-INNER
G1 F1500 E60.4424
G1 F1800 X78.9 Y108.1 E60.6244
G1 X78.9 Y111.9 E60.8064
G1 X75.1 Y111.9 E60.9884
G1 X75.1 Y108.1 E61.1704
G0 F3600 X74.7 Y107.7
;TYPE:WALL-OUTER
