;FLAVOR:RepRap
;TIME:203
;Filament used: 0.150496m
;Layer height: 0.1
;Generated with Cura_SteamEngine 2.4.0
M190 S60
M104 S205
M109 S205
G28 ;Home
G1 Z15.0 F6000 ;Move the platform down 15mm
;Prime the extruder
G92 E0
G1 F200 E3
G92 E0
;LAYER_COUNT:2
;LAYER:0
M107
G1 F1500 E-6.5
G0 F4500 X35.6 Y35.6 Z0.2
;TYPE:WALL-INNER
G1 F1500 E0
G1 F1800 X184.4 Y35.6 E4.94911
G1 X184.4 Y184.4 E9.89822
G1 X35.6 Y184.4 E14.84732
G1 X35.6 Y35.6 E19.79643
G0 F4500 X35.67 Y35.67
G0 X36.33 Y36.33
G0 X36.4 Y36.4
G1 F1800 X36.4 Y183.6 E24.69232
G1 X183.6 Y183.6 E29.58822
G1 X183.6 Y36.4 E34.48411
G1 X36.4 Y36.4 E39.38
G0 F4500 X36.8 Y36.8
;TYPE:WALL-OUTER
G1 F1800 X36.8 Y183.2 E44.24928
G1 X183.2 Y183.2 E49.11857
G1 X183.2 Y36.8 E53.98785
G1 X36.8 Y36.8 E58.85713
G0 F4500 X36.8 Y37
G0 X36.3 Y37
G0 X35.67 Y35.67
G0 X35.2 Y35.2
G1 F1800 X184.8 Y35.2 E63.83285
G1 X184.8 Y184.8 E68.80857
G1 X35.2 Y184.8 E73.78428
G1 X35.2 Y35.2 E78.76
G0 F4500 X35.4 Y35.2
G0 X35.999 Y35.999
G1 F1800 X36.565 Y35.999 E78.78066
G1 X37.13 Y35.999 E78.80128
G1 X37.696 Y35.999 E78.82195
G1 X38.262 Y35.999 E78.84261
G1 X38.827 Y35.999 E78.86323
G1 X39.393 Y35.999 E78.88389
G1 X39.959 Y35.999 E78.90455
G1 X40.524 Y35.999 E78.92518
G1 X41.09 Y35.999 E78.94584
G1 X41.656 Y35.999 E78.9665
G1 X42.221 Y35.999 E78.98712
G1 X42.787 Y35.999 E79.00778
G1 X43.353 Y35.999 E79.02844
G1 X43.919 Y35.999 E79.0491
G1 X44.484 Y35.999 E79.06973
G1 X45.05 Y35.999 E79.09039
G1 X45.616 Y35.999 E79.11105
G1 X46.181 Y35.999 E79.13167
G1 X46.747 Y35.999 E79.15233
G1 X47.313 Y35.999 E79.17299
G1 X47.878 Y35.999 E79.19362
G1 X48.444 Y35.999 E79.21428
G1 X49.01 Y35.999 E79.23494
G1 X49.575 Y35.999 E79.25556
G1 X50.141 Y35.999 E79.27623
G1 X50.707 Y35.999 E79.29689
G1 X51.272 Y35.999 E79.31751
G1 X51.838 Y35.999 E79.33817
G1 X52.404 Y35.999 E79.35883
G1 X52.969 Y35.999 E79.37946
G1 X53.535 Y35.999 E79.40012
G1 X54.101 Y35.999 E79.42078
G1 X54.667 Y35.999 E79.44144
G1 X55.232 Y35.999 E79.46206
G1 X55.798 Y35.999 E79.48272
G1 X56.364 Y35.999 E79.50338
G1 X56.929 Y35.999 E79.52401
G1 X57.495 Y35.999 E79.54467
G1 X58.061 Y35.999 E79.56533
G1 X58.626 Y35.999 E79.58595
G1 X59.192 Y35.999 E79.60661
G1 X59.758 Y35.999 E79.62727
G1 X60.323 Y35.999 E79.6479
G1 X60.889 Y35.999 E79.66856
G1 X61.455 Y35.999 E79.68922
G1 X62.02 Y35.999 E79.70984
G1 X62.586 Y35.999 E79.73051
G1 X63.152 Y35.999 E79.75117
G1 X63.718 Y35.999 E79.77183
G1 X64.283 Y35.999 E79.79245
G1 X64.849 Y35.999 E79.81311
G1 X65.415 Y35.999 E79.83377
G1 X65.98 Y35.999 E79.8544
G1 X66.546 Y35.999 E79.87506
G1 X67.112 Y35.999 E79.89572
G1 X67.677 Y35.999 E79.91634
G1 X68.243 Y35.999 E79.937
G1 X68.809 Y35.999 E79.95766
G1 X69.374 Y35.999 E79.97829
G1 X69.94 Y35.999 E79.99895
G1 X70.506 Y35.999 E80.01961
G1 X71.071 Y35.999 E80.04023
G1 X71.637 Y35.999 E80.06089
G1 X72.203 Y35.999 E80.08155
G1 X72.768 Y35.999 E80.10218
G1 X73.334 Y35.999 E80.12284
G1 X73.9 Y35.999 E80.1435
G1 X74.466 Y35.999 E80.16416
G1 X75.031 Y35.999 E80.18478
G1 X75.597 Y35.999 E80.20545
G1 X76.163 Y35.999 E80.22611
G1 X76.728 Y35.999 E80.24673
G1 X77.294 Y35.999 E80.26739
G1 X77.86 Y35.999 E80.28805
G1 X78.425 Y35.999 E80.30868
G1 X78.991 Y35.999 E80.32934
G1 X79.557 Y35.999 E80.35
G1 X80.122 Y35.999 E80.37062
G1 X80.688 Y35.999 E80.39128
G1 X81.254 Y35.999 E80.41194
G1 X81.819 Y35.999 E80.43257
G1 X82.385 Y35.999 E80.45323
G1 X82.951 Y35.999 E80.47389
G1 X83.516 Y35.999 E80.49451
G1 X84.082 Y35.999 E80.51517
G1 X84.648 Y35.999 E80.53583
G1 X85.214 Y35.999 E80.55649
G1 X85.779 Y35.999 E80.57712
G1 X86.345 Y35.999 E80.59778
G1 X86.911 Y35.999 E80.61844
G1 X87.476 Y35.999 E80.63906
G1 X88.042 Y35.999 E80.65973
G1 X88.608 Y35.999 E80.68039
G1 X89.173 Y35.999 E80.70101
G1 X89.739 Y35.999 E80.72167
G1 X90.305 Y35.999 E80.74233
G1 X90.87 Y35.999 E80.76296
G1 X91.436 Y35.999 E80.78362
G1 X92.002 Y35.999 E80.80428
G1 X92.567 Y35.999 E80.8249
G1 X93.133 Y35.999 E80.84556
G1 X93.699 Y35.999 E80.86622
G1 X94.265 Y35.999 E80.88688
G1 X94.83 Y35.999 E80.90751
G1 X95.396 Y35.999 E80.92817
G1 X95.962 Y35.999 E80.94883
G1 X96.527 Y35.999 E80.96945
G1 X97.093 Y35.999 E80.99011
G1 X97.659 Y35.999 E81.01077
G1 X98.224 Y35.999 E81.0314
G1 X98.79 Y35.999 E81.05206
G1 X99.356 Y35.999 E81.07272
G1 X99.921 Y35.999 E81.09334
G1 X100.487 Y35.999 E81.11401
G1 X101.053 Y35.999 E81.13467
G1 X101.618 Y35.999 E81.15529
G1 X102.184 Y35.999 E81.17595
G1 X102.75 Y35.999 E81.19661
G1 X103.315 Y35.999 E81.21724
G1 X103.881 Y35.999 E81.2379
G1 X104.447 Y35.999 E81.25856
G1 X105.013 Y35.999 E81.27922
G1 X105.578 Y35.999 E81.29984
G1 X106.144 Y35.999 E81.3205
G1 X106.71 Y35.999 E81.34116
G1 X107.275 Y35.999 E81.36179
G1 X107.841 Y35.999 E81.38245
G1 X108.407 Y35.999 E81.40311
G1 X108.972 Y35.999 E81.42373
G1 X109.538 Y35.999 E81.44439
G1 X110.104 Y35.999 E81.46505
G1 X110.669 Y35.999 E81.48568
G1 X111.235 Y35.999 E81.50634
G1 X111.801 Y35.999 E81.527
G1 X112.366 Y35.999 E81.54762
G1 X112.932 Y35.999 E81.56828
G1 X113.498 Y35.999 E81.58895
G1 X114.064 Y35.999 E81.60961
G1 X114.629 Y35.999 E81.63023
G1 X115.195 Y35.999 E81.65089
G1 X115.761 Y35.999 E81.67155
G1 X116.326 Y35.999 E81.69218
G1 X116.892 Y35.999 E81.71284
G1 X117.458 Y35.999 E81.7335
G1 X118.023 Y35.999 E81.75412
G1 X118.589 Y35.999 E81.77478
G1 X119.155 Y35.999 E81.79544
G1 X119.72 Y35.999 E81.81607
G1 X120.286 Y35.999 E81.83673
G1 X120.852 Y35.999 E81.85739
G1 X121.417 Y35.999 E81.87801
G1 X121.983 Y35.999 E81.89867
G1 X122.549 Y35.999 E81.91933
G1 X123.114 Y35.999 E81.93996
G1 X123.68 Y35.999 E81.96062
G1 X124.246 Y35.999 E81.98128
G1 X124.812 Y35.999 E82.00194
G1 X125.377 Y35.999 E82.02256
G1 X125.943 Y35.999 E82.04323
G1 X126.509 Y35.999 E82.06389
G1 X127.074 Y35.999 E82.08451
G1 X127.64 Y35.999 E82.10517
G1 X128.206 Y35.999 E82.12583
G1 X128.771 Y35.999 E82.14646
G1 X129.337 Y35.999 E82.16712
G1 X129.903 Y35.999 E82.18778
G1 X130.468 Y35.999 E82.2084
G1 X131.034 Y35.999 E82.22906
G1 X131.6 Y35.999 E82.24972
G1 X132.165 Y35.999 E82.27035
G1 X132.731 Y35.999 E82.29101
G1 X133.297 Y35.999 E82.31167
G1 X133.863 Y35.999 E82.33233
G1 X134.428 Y35.999 E82.35295
G1 X134.994 Y35.999 E82.37361
G1 X135.56 Y35.999 E82.39427
G1 X136.125 Y35.999 E82.4149
G1 X136.691 Y35.999 E82.43556
G1 X137.257 Y35.999 E82.45622
G1 X137.822 Y35.999 E82.47684
G1 X138.388 Y35.999 E82.49751
G1 X138.954 Y35.999 E82.51817
G1 X139.519 Y35.999 E82.53879
G1 X140.085 Y35.999 E82.55945
G1 X140.651 Y35.999 E82.58011
G1 X141.216 Y35.999 E82.60074
G1 X141.782 Y35.999 E82.6214
G1 X142.348 Y35.999 E82.64206
G1 X142.913 Y35.999 E82.66268
G1 X143.479 Y35.999 E82.68334
G1 X144.045 Y35.999 E82.704
G1 X144.611 Y35.999 E82.72466
G1 X145.176 Y35.999 E82.74529
G1 X145.742 Y35.999 E82.76595
G1 X146.308 Y35.999 E82.78661
G1 X146.873 Y35.999 E82.80723
G1 X147.439 Y35.999 E82.82789
G1 X148.005 Y35.999 E82.84855
G1 X148.57 Y35.999 E82.86918
G1 X149.136 Y35.999 E82.88984
G1 X149.702 Y35.999 E82.9105
G1 X150.267 Y35.999 E82.93112
G1 X150.833 Y35.999 E82.95179
G1 X151.399 Y35.999 E82.97245
G1 X151.964 Y35.999 E82.99307
G1 X152.53 Y35.999 E83.01373
G1 X153.096 Y35.999 E83.03439
G1 X153.661 Y35.999 E83.05502
G1 X154.227 Y35.999 E83.07568
G1 X154.793 Y35.999 E83.09634
G1 X155.359 Y35.999 E83.117
G1 X155.924 Y35.999 E83.13762
G1 X156.49 Y35.999 E83.15828
G1 X157.056 Y35.999 E83.17894
G1 X157.621 Y35.999 E83.19957
G1 X158.187 Y35.999 E83.22023
G1 X158.753 Y35.999 E83.24089
G1 X159.318 Y35.999 E83.26151
G1 X159.884 Y35.999 E83.28217
G1 X160.45 Y35.999 E83.30283
G1 X161.015 Y35.999 E83.32346
G1 X161.581 Y35.999 E83.34412
G1 X162.147 Y35.999 E83.36478
G1 X162.712 Y35.999 E83.3854
G1 X163.278 Y35.999 E83.40606
G1 X163.844 Y35.999 E83.42673
G1 X164.41 Y35.999 E83.44739
G1 X164.975 Y35.999 E83.46801
G1 X165.541 Y35.999 E83.48867
G1 X166.107 Y35.999 E83.50933
G1 X166.672 Y35.999 E83.52996
G1 X167.238 Y35.999 E83.55062
G1 X167.804 Y35.999 E83.57128
G1 X168.369 Y35.999 E83.5919
G1 X168.935 Y35.999 E83.61256
G1 X169.501 Y35.999 E83.63322
G1 X170.066 Y35.999 E83.65385
G1 X170.632 Y35.999 E83.67451
G1 X171.198 Y35.999 E83.69517
G1 X171.763 Y35.999 E83.71579
G1 X172.329 Y35.999 E83.73645
G1 X172.895 Y35.999 E83.75711
G1 X173.46 Y35.999 E83.77774
G1 X174.026 Y35.999 E83.7984
G1 X174.592 Y35.999 E83.81906
G1 X175.158 Y35.999 E83.83972
G1 X175.723 Y35.999 E83.86034
G1 X176.289 Y35.999 E83.88101
G1 X176.855 Y35.999 E83.90167
G1 X177.42 Y35.999 E83.92229
G1 X177.986 Y35.999 E83.94295
G1 X178.552 Y35.999 E83.96361
G1 X179.117 Y35.999 E83.98424
G1 X179.683 Y35.999 E84.0049
G1 X180.249 Y35.999 E84.02556
G1 X180.814 Y35.999 E84.04618
G1 X181.38 Y35.999 E84.06684
G1 X181.946 Y35.999 E84.0875
G1 X182.511 Y35.999 E84.10813
G1 X183.077 Y35.999 E84.12879
G1 X183.821 Y36.177 E84.15786
;TYPE:SKIN
G0 X184.289 Y36.645
G0 F4500 X183.999 Y36.92
G1 F1800 X183.999 Y37.486 E84.17857
G1 X183.999 Y38.052 E84.19927
G1 X183.999 Y38.618 E84.21998
G1 X183.999 Y39.183 E84.24065
G1 X183.999 Y39.749 E84.26136
G1 X183.999 Y40.315 E84.28207
G1 X183.999 Y40.88 E84.30274
G1 X183.999 Y41.446 E84.32345
G1 X183.999 Y42.012 E84.34415
G1 X183.999 Y42.577 E84.36483
G1 X183.999 Y43.143 E84.38553
G1 X183.999 Y43.709 E84.40624
G1 X183.999 Y44.274 E84.42691
G1 X183.999 Y44.84 E84.44762
G1 X183.999 Y45.406 E84.46833
G1 X183.999 Y45.971 E84.489
G1 X183.999 Y46.537 E84.50971
G1 X183.999 Y47.103 E84.53041
G1 X183.999 Y47.668 E84.55109
G1 X183.999 Y48.234 E84.57179
G1 X183.999 Y48.8 E84.5925
G1 X183.999 Y49.366 E84.61321
G1 X183.999 Y49.931 E84.63388
G1 X183.999 Y50.497 E84.65459
G1 X183.999 Y51.063 E84.6753
G1 X183.999 Y51.628 E84.69597
G1 X183.999 Y52.194 E84.71667
G1 X183.999 Y52.76 E84.73738
G1 X183.999 Y53.325 E84.75805
G1 X183.999 Y53.891 E84.77876
G1 X183.999 Y54.457 E84.79947
G1 X183.999 Y55.022 E84.82014
G1 X183.999 Y55.588 E84.84085
G1 X183.999 Y56.154 E84.86156
G1 X183.999 Y56.719 E84.88223
G1 X183.999 Y57.285 E84.90293
G1 X183.999 Y57.851 E84.92364
G1 X183.999 Y58.417 E84.94435
G1 X183.999 Y58.982 E84.96502
G1 X183.999 Y59.548 E84.98573
G1 X183.999 Y60.114 E85.00644
G1 X183.999 Y60.679 E85.02711
G1 X183.999 Y61.245 E85.04782
G1 X183.999 Y61.811 E85.06852
G1 X183.999 Y62.376 E85.08919
G1 X183.999 Y62.942 E85.1099
G1 X183.999 Y63.508 E85.13061
G1 X183.999 Y64.073 E85.15128
G1 X183.999 Y64.639 E85.17199
G1 X183.999 Y65.205 E85.1927
G1 X183.999 Y65.77 E85.21337
G1 X183.999 Y66.336 E85.23408
G1 X183.999 Y66.902 E85.25478
G1 X183.999 Y67.467 E85.27545
G1 X183.999 Y68.033 E85.29616
G1 X183.999 Y68.599 E85.31687
G1 X183.999 Y69.165 E85.33758
G1 X183.999 Y69.73 E85.35825
G1 X183.999 Y70.296 E85.37896
G1 X183.999 Y70.862 E85.39966
G1 X183.999 Y71.427 E85.42034
G1 X183.999 Y71.993 E85.44104
G1 X183.999 Y72.559 E85.46175
G1 X183.999 Y73.124 E85.48242
G1 X183.999 Y73.69 E85.50313
G1 X183.999 Y74.256 E85.52384
G1 X183.999 Y74.821 E85.54451
G1 X183.999 Y75.387 E85.56522
G1 X183.999 Y75.953 E85.58592
G1 X183.999 Y76.518 E85.6066
G1 X183.999 Y77.084 E85.6273
G1 X183.999 Y77.65 E85.64801
G1 X183.999 Y78.215 E85.66868
G1 X183.999 Y78.781 E85.68939
G1 X183.999 Y79.347 E85.7101
G1 X183.999 Y79.913 E85.73081
G1 X183.999 Y80.478 E85.75148
G1 X183.999 Y81.044 E85.77218
G1 X183.999 Y81.61 E85.79289
G1 X183.999 Y82.175 E85.81356
G1 X183.999 Y82.741 E85.83427
G1 X183.999 Y83.307 E85.85498
G1 X183.999 Y83.872 E85.87565
G1 X183.999 Y84.438 E85.89636
G1 X183.999 Y85.004 E85.91707
G1 X183.999 Y85.569 E85.93774
G1 X183.999 Y86.135 E85.95844
G1 X183.999 Y86.701 E85.97915
G1 X183.999 Y87.266 E85.99982
G1 X183.999 Y87.832 E86.02053
G1 X183.999 Y88.398 E86.04124
G1 X183.999 Y88.964 E86.06195
G1 X183.999 Y89.529 E86.08262
G1 X183.999 Y90.095 E86.10333
G1 X183.999 Y90.661 E86.12403
G1 X183.999 Y91.226 E86.1447
G1 X183.999 Y91.792 E86.16541
G1 X183.999 Y92.358 E86.18612
G1 X183.999 Y92.923 E86.20679
G1 X183.999 Y93.489 E86.2275
G1 X183.999 Y94.055 E86.24821
G1 X183.999 Y94.62 E86.26888
G1 X183.999 Y95.186 E86.28959
G1 X183.999 Y95.752 E86.31029
G1 X183.999 Y96.317 E86.33096
G1 X183.999 Y96.883 E86.35167
G1 X183.999 Y97.449 E86.37238
G1 X183.999 Y98.014 E86.39305
G1 X183.999 Y98.58 E86.41376
G1 X183.999 Y99.146 E86.43447
G1 X183.999 Y99.712 E86.45517
G1 X183.999 Y100.277 E86.47585
G1 X183.999 Y100.843 E86.49655
G1 X183.999 Y101.409 E86.51726
G1 X183.999 Y101.974 E86.53793
G1 X183.999 Y102.54 E86.55864
G1 X183.999 Y103.106 E86.57935
G1 X183.999 Y103.671 E86.60002
G1 X183.999 Y104.237 E86.62073
G1 X183.999 Y104.803 E86.64143
G1 X183.999 Y105.368 E86.66211
G1 X183.999 Y105.934 E86.68281
G1 X183.999 Y106.5 E86.70352
G1 X183.999 Y107.065 E86.72419
G1 X183.999 Y107.631 E86.7449
G1 X183.999 Y108.197 E86.76561
G1 X183.999 Y108.763 E86.78632
G1 X183.999 Y109.328 E86.80699
G1 X183.999 Y109.894 E86.8277
G1 X183.999 Y110.46 E86.8484
G1 X183.999 Y111.025 E86.86907
G1 X183.999 Y111.591 E86.88978
G1 X183.999 Y112.157 E86.91049
G1 X183.999 Y112.722 E86.93116
G1 X183.999 Y113.288 E86.95187
G1 X183.999 Y113.854 E86.97258
G1 X183.999 Y114.419 E86.99325
G1 X183.999 Y114.985 E87.01396
G1 X183.999 Y115.551 E87.03466
G1 X183.999 Y116.116 E87.05533
G1 X183.999 Y116.682 E87.07604
G1 X183.999 Y117.248 E87.09675
G1 X183.999 Y117.813 E87.11742
G1 X183.999 Y118.379 E87.13813
G1 X183.999 Y118.945 E87.15884
G1 X183.999 Y119.511 E87.17954
G1 X183.999 Y120.076 E87.20022
G1 X183.999 Y120.642 E87.22092
G1 X183.999 Y121.208 E87.24163
G1 X183.999 Y121.773 E87.2623
G1 X183.999 Y122.339 E87.28301
G1 X183.999 Y122.905 E87.30372
G1 X183.999 Y123.47 E87.32439
G1 X183.999 Y124.036 E87.3451
G1 X183.999 Y124.602 E87.3658
G1 X183.999 Y125.167 E87.38648
G1 X183.999 Y125.733 E87.40718
G1 X183.999 Y126.299 E87.42789
G1 X183.999 Y126.864 E87.44856
G1 X183.999 Y127.43 E87.46927
G1 X183.999 Y127.996 E87.48998
G1 X183.999 Y128.562 E87.51069
G1 X183.999 Y129.127 E87.53136
G1 X183.999 Y129.693 E87.55206
G1 X183.999 Y130.259 E87.57277
G1 X183.999 Y130.824 E87.59344
G1 X183.999 Y131.39 E87.61415
G1 X183.999 Y131.956 E87.63486
G1 X183.999 Y132.521 E87.65553
G1 X183.999 Y133.087 E87.67624
G1 X183.999 Y133.653 E87.69695
G1 X183.999 Y134.218 E87.71762
G1 X183.999 Y134.784 E87.73832
G1 X183.999 Y135.35 E87.75903
G1 X183.999 Y135.915 E87.7797
G1 X183.999 Y136.481 E87.80041
G1 X183.999 Y137.047 E87.82112
G1 X183.999 Y137.612 E87.84179
G1 X183.999 Y138.178 E87.8625
G1 X183.999 Y138.744 E87.88321
G1 X183.999 Y139.31 E87.90391
G1 X183.999 Y139.875 E87.92458
G1 X183.999 Y140.441 E87.94529
G1 X183.999 Y141.007 E87.966
G1 X183.999 Y141.572 E87.98667
G1 X183.999 Y142.138 E88.00738
G1 X183.999 Y142.704 E88.02809
G1 X183.999 Y143.269 E88.04876
G1 X183.999 Y143.835 E88.06947
G1 X183.999 Y144.401 E88.09017
G1 X183.999 Y144.966 E88.11084
G1 X183.999 Y145.532 E88.13155
G1 X183.999 Y146.098 E88.15226
G1 X183.999 Y146.663 E88.17293
G1 X183.999 Y147.229 E88.19364
G1 X183.999 Y147.795 E88.21435
G1 X183.999 Y148.36 E88.23502
G1 X183.999 Y148.926 E88.25573
G1 X183.999 Y149.492 E88.27643
G1 X183.999 Y150.058 E88.29714
G1 X183.999 Y150.623 E88.31781
G1 X183.999 Y151.189 E88.33852
G1 X183.999 Y151.755 E88.35923
G1 X183.999 Y152.32 E88.3799
G1 X183.999 Y152.886 E88.40061
G1 X183.999 Y153.452 E88.42131
G1 X183.999 Y154.017 E88.44199
G1 X183.999 Y154.583 E88.46269
G1 X183.999 Y155.149 E88.4834
G1 X183.999 Y155.714 E88.50407
G1 X183.999 Y156.28 E88.52478
G1 X183.999 Y156.846 E88.54549
G1 X183.999 Y157.411 E88.56616
G1 X183.999 Y157.977 E88.58687
G1 X183.999 Y158.543 E88.60757
G1 X183.999 Y159.109 E88.62828
G1 X183.999 Y159.674 E88.64895
G1 X183.999 Y160.24 E88.66966
G1 X183.999 Y160.806 E88.69037
G1 X183.999 Y161.371 E88.71104
G1 X183.999 Y161.937 E88.73175
G1 X183.999 Y162.503 E88.75246
G1 X183.999 Y163.068 E88.77313
G1 X183.999 Y163.634 E88.79383
G1 X183.999 Y164.2 E88.81454
G1 X183.999 Y164.765 E88.83521
G1 X183.999 Y165.331 E88.85592
G1 X183.999 Y165.897 E88.87663
G1 X183.999 Y166.462 E88.8973
G1 X183.999 Y167.028 E88.91801
G1 X183.999 Y167.594 E88.93872
G1 X183.999 Y168.159 E88.95939
G1 X183.999 Y168.725 E88.98009
G1 X183.999 Y169.291 E89.0008
G1 X183.999 Y169.857 E89.02151
G1 X183.999 Y170.422 E89.04218
G1 X183.999 Y170.988 E89.06289
G1 X183.999 Y171.554 E89.0836
G1 X183.999 Y172.119 E89.10427
G1 X183.999 Y172.685 E89.12498
G1 X183.999 Y173.251 E89.14568
