;FLAVOR:Repetier
;TIME:1493
;Generated with Cura_SteamEngine 2.5.0-BETA
M190 S60
M104 S200
M109 S200
G21 ;metric values
G90 ;absolute positioning
M82 ;set extruder to absolute mode
M107 ;start with the fan off
G28 X0 Y0 ;move X/Y to min endstops
G28 Z0 ;move Z to min endstops
G1 Z15.0 F9000 ;move the platform down 15mm
G92 E0 ;zero the extruded length
G1 F200 E3 ;extrude 3mm of feed stock
G92 E0 ;zero the extruded length again
G1 F9000
;Put printing message on LCD screen
M117 Printing...
;LAYER_COUNT:52
;LAYER:0
M107
G0 F1500 X84.509 Y93.985 Z0.1
;TYPE:SKIRT
G1 F900 X85.255 Y93.312 E0.01921
G1 X86.051 Y92.701 E0.03841
G1 X86.893 Y92.156 E0.05759
G1 X87.777 Y91.679 E0.0768
G1 X88.695 Y91.274 E0.09599
G1 X89.643 Y90.943 E0.11519
G1 X90.614 Y90.689 E0.13438
G1 X91.602 Y90.513 E0.15358
G1 X92.601 Y90.416 E0.17277
G1 X93.44 Y90.397 E0.18882
G1 X100.824 Y90.47 E0.33005
G1 X115.652 Y90.389 E0.61363
G1 X116.025 Y90.393 E0.62076
G1 X119.177 Y90.469 E0.68106
G1 X126.566 Y90.399 E0.82238
G1 X127.569 Y90.429 E0.84157
G1 X128.567 Y90.539 E0.86077
G1 X129.553 Y90.729 E0.87997
G1 X130.52 Y90.996 E0.89916
G1 X131.463 Y91.339 E0.91835
G1 X132.376 Y91.757 E0.93755
G1 X133.253 Y92.245 E0.95675
G1 X134.088 Y92.802 E0.97594
G1 X134.876 Y93.424 E0.99514
G1 X135.612 Y94.106 E1.01433
G1 X136.292 Y94.845 E1.03354
G1 X136.91 Y95.636 E1.05274
G1 X137.464 Y96.473 E1.07193
G1 X137.949 Y97.352 E1.09113
G1 X138.363 Y98.266 E1.11032
G1 X138.702 Y99.211 E1.12952
G1 X138.966 Y100.18 E1.14873
G1 X139.151 Y101.166 E1.16791
G1 X139.257 Y102.164 E1.18711
G1 X139.285 Y103.011 E1.20332
G1 X139.27 Y117.022 E1.47127
G1 X139.229 Y118.025 E1.49047
G1 X139.108 Y119.022 E1.50968
G1 X138.908 Y120.006 E1.52888
G1 X138.631 Y120.97 E1.54806
G1 X138.278 Y121.91 E1.56726
G1 X137.851 Y122.818 E1.58645
G1 X137.353 Y123.69 E1.60566
G1 X136.787 Y124.519 E1.62485
G1 X136.157 Y125.301 E1.64406
G1 X135.467 Y126.03 E1.66326
G1 X134.721 Y126.701 E1.68245
G1 X133.924 Y127.311 E1.70164
G1 X133.081 Y127.856 E1.72084
G1 X132.197 Y128.332 E1.74004
G1 X131.278 Y128.736 E1.75924
G1 X130.33 Y129.066 E1.77843
G1 X129.359 Y129.319 E1.79762
G1 X128.37 Y129.494 E1.81683
G1 X127.371 Y129.589 E1.83602
G1 X126.609 Y129.609 E1.8506
G1 X123.738 Y129.595 E1.90551
G1 X123.287 Y129.585 E1.91414
G1 X118.537 Y129.392 E2.00505
G1 X102.909 Y129.382 E2.30393
G1 X96.566 Y129.587 E2.4253
G1 X96.221 Y129.594 E2.4319
G1 X93.378 Y129.608 E2.48627
G1 X92.375 Y129.573 E2.50547
G1 X91.378 Y129.458 E2.52466
G1 X90.393 Y129.264 E2.54386
G1 X89.426 Y128.993 E2.56307
G1 X88.485 Y128.645 E2.58225
G1 X87.574 Y128.223 E2.60146
G1 X86.699 Y127.731 E2.62065
G1 X85.867 Y127.17 E2.63984
G1 X85.081 Y126.545 E2.65905
G1 X84.348 Y125.859 E2.67825
G1 X83.672 Y125.117 E2.69745
G1 X83.057 Y124.324 E2.71664
G1 X82.507 Y123.484 E2.73584
G1 X82.026 Y122.603 E2.75504
G1 X81.617 Y121.686 E2.77424
G1 X81.281 Y120.74 E2.79344
G1 X81.023 Y119.77 E2.81263
G1 X80.842 Y118.783 E2.83182
G1 X80.74 Y117.784 E2.85103
G1 X80.716 Y117.008 E2.86588
G1 X80.716 Y102.996 E3.13385
G1 X80.756 Y101.993 E3.15305
G1 X80.876 Y100.996 E3.17225
G1 X81.074 Y100.012 E3.19145
G1 X81.351 Y99.047 E3.21065
G1 X81.703 Y98.107 E3.22985
G1 X82.129 Y97.199 E3.24903
G1 X82.626 Y96.326 E3.26824
G1 X83.191 Y95.497 E3.28742
G1 X83.82 Y94.714 E3.30663
G1 X84.509 Y93.985 E3.32582
G0 F1500 X84.903 Y94.161
G1 F900 X85.645 Y93.509 E3.34471
G1 X86.437 Y92.92 E3.36358
G1 X87.275 Y92.397 E3.38247
G1 X88.152 Y91.943 E3.40136
G1 X89.063 Y91.561 E3.42025
G1 X90.002 Y91.255 E3.43914
G1 X90.963 Y91.025 E3.45804
G1 X91.939 Y90.874 E3.47693
G1 X92.924 Y90.802 E3.49581
G1 X93.436 Y90.797 E3.50561
G1 X100.822 Y90.87 E3.64687
G1 X115.655 Y90.789 E3.93055
G1 X116.015 Y90.793 E3.93743
G1 X119.171 Y90.869 E3.99781
G1 X126.569 Y90.799 E4.1393
G1 X127.557 Y90.829 E4.1582
G1 X128.538 Y90.94 E4.17708
G1 X129.508 Y91.129 E4.19598
G1 X130.459 Y91.396 E4.21487
G1 X131.385 Y91.74 E4.23376
G1 X132.28 Y92.157 E4.25265
G1 X133.139 Y92.645 E4.27154
G1 X133.955 Y93.201 E4.29042
G1 X134.724 Y93.821 E4.30931
G1 X135.44 Y94.501 E4.3282
G1 X136.098 Y95.237 E4.34708
G1 X136.695 Y96.024 E4.36597
G1 X137.227 Y96.857 E4.38487
G1 X137.689 Y97.73 E4.40376
G1 X138.079 Y98.637 E4.42265
G1 X138.394 Y99.573 E4.44153
G1 X138.633 Y100.532 E4.46043
G1 X138.793 Y101.506 E4.47931
G1 X138.874 Y102.491 E4.49821
G1 X138.885 Y103.011 E4.50816
G1 X138.87 Y117.022 E4.77611
G1 X138.829 Y118.009 E4.79501
G1 X138.708 Y118.989 E4.81389
G1 X138.509 Y119.957 E4.83279
G1 X138.231 Y120.905 E4.85168
G1 X137.878 Y121.827 E4.87056
G1 X137.452 Y122.718 E4.88945
G1 X136.955 Y123.571 E4.90833
G1 X136.39 Y124.382 E4.92724
G1 X135.762 Y125.144 E4.94612
G1 X135.074 Y125.853 E4.96501
G1 X134.331 Y126.504 E4.98391
G1 X133.538 Y127.092 E5.00279
G1 X132.7 Y127.615 E5.02168
G1 X131.822 Y128.068 E5.04057
G1 X130.91 Y128.448 E5.05947
G1 X129.971 Y128.754 E5.07835
G1 X129.01 Y128.982 E5.09724
G1 X128.034 Y129.133 E5.11613
G1 X126.611 Y129.209 E5.14338
G1 X123.74 Y129.195 E5.19829
G1 X123.303 Y129.185 E5.20665
G1 X118.553 Y128.992 E5.29757
G1 X102.926 Y128.982 E5.59643
G1 X96.553 Y129.188 E5.71837
G1 X96.219 Y129.194 E5.72476
G1 X93.376 Y129.208 E5.77913
G1 X92.389 Y129.173 E5.79802
G1 X91.408 Y129.058 E5.81691
G1 X90.439 Y128.864 E5.83581
G1 X89.49 Y128.592 E5.85469
G1 X88.565 Y128.245 E5.87358
G1 X87.672 Y127.824 E5.89246
G1 X86.815 Y127.332 E5.91136
G1 X86.001 Y126.772 E5.93026
G1 X85.236 Y126.148 E5.94914
G1 X84.523 Y125.465 E5.96802
G1 X83.867 Y124.726 E5.98692
G1 X83.274 Y123.936 E6.00581
G1 X82.746 Y123.101 E6.0247
G1 X82.288 Y122.226 E6.04359
G1 X81.902 Y121.317 E6.06248
G1 X81.591 Y120.379 E6.08138
G1 X81.357 Y119.42 E6.10026
G1 X81.201 Y118.445 E6.11914
G1 X81.116 Y117.008 E6.14667
G1 X81.116 Y102.996 E6.41464
G1 X81.156 Y102.009 E6.43354
G1 X81.276 Y101.029 E6.45242
G1 X81.474 Y100.061 E6.47131
G1 X81.751 Y99.113 E6.4902
G1 X82.103 Y98.19 E6.50909
G1 X82.528 Y97.299 E6.52797
G1 X83.024 Y96.445 E6.54686
G1 X83.588 Y95.633 E6.56577
G1 X84.216 Y94.871 E6.58465
G1 X84.903 Y94.161 E6.60355
G0 F1500 X85.296 Y94.341
G1 F900 X86.035 Y93.71 E6.62213
G1 X86.823 Y93.143 E6.6407
G1 X87.655 Y92.642 E6.65927
G1 X88.526 Y92.212 E6.67785
G1 X89.43 Y91.854 E6.69644
G1 X90.359 Y91.572 E6.71501
G1 X91.309 Y91.368 E6.73359
G1 X92.272 Y91.242 E6.75217
G1 X93.432 Y91.197 E6.77437
G1 X100.82 Y91.27 E6.91567
G1 X115.657 Y91.189 E7.19942
G1 X116.005 Y91.192 E7.20608
G1 X119.195 Y91.269 E7.2671
G1 X126.573 Y91.199 E7.40821
G1 X127.544 Y91.229 E7.42679
G1 X128.509 Y91.34 E7.44537
G1 X129.462 Y91.529 E7.46395
G1 X130.396 Y91.797 E7.48253
G1 X131.305 Y92.14 E7.50111
G1 X132.182 Y92.557 E7.51968
G1 X133.022 Y93.044 E7.53825
G1 X133.819 Y93.599 E7.55683
G1 X134.568 Y94.218 E7.57541
G1 X135.264 Y94.896 E7.59399
G1 X135.901 Y95.629 E7.61256
G1 X136.476 Y96.412 E7.63114
G1 X136.985 Y97.24 E7.64973
G1 X137.423 Y98.106 E7.66829
G1 X137.789 Y99.006 E7.68687
G1 X138.08 Y99.933 E7.70545
G1 X138.293 Y100.881 E7.72403
G1 X138.428 Y101.843 E7.74261
G1 X138.485 Y103.011 E7.76498
G1 X138.47 Y117.022 E8.03293
G1 X138.429 Y117.992 E8.0515
G1 X138.308 Y118.956 E8.07008
G1 X138.109 Y119.907 E8.08866
G1 X137.832 Y120.838 E8.10724
G1 X137.479 Y121.743 E8.12581
G1 X137.053 Y122.616 E8.14439
G1 X136.557 Y123.451 E8.16297
G1 X135.993 Y124.242 E8.18154
G1 X135.367 Y124.984 E8.20011
G1 X134.681 Y125.673 E8.2187
G1 X133.941 Y126.302 E8.23728
G1 X133.152 Y126.869 E8.25586
G1 X132.319 Y127.369 E8.27444
G1 X131.448 Y127.798 E8.29301
G1 X130.545 Y128.155 E8.31158
G1 X129.615 Y128.436 E8.33016
G1 X128.665 Y128.639 E8.34874
G1 X127.701 Y128.764 E8.36733
G1 X126.612 Y128.809 E8.38817
G1 X123.741 Y128.795 E8.44308
G1 X123.32 Y128.785 E8.45113
G1 X118.57 Y128.592 E8.54205
G1 X102.913 Y128.582 E8.84148
G1 X96.54 Y128.788 E8.96343
G1 X96.217 Y128.794 E8.96961
G1 X93.374 Y128.808 E9.02398
G1 X92.403 Y128.773 E9.04256
G1 X91.439 Y128.658 E9.06113
G1 X90.487 Y128.464 E9.07971
G1 X89.554 Y128.192 E9.09829
G1 X88.647 Y127.845 E9.11687
G1 X87.772 Y127.424 E9.13544
G1 X86.934 Y126.933 E9.15401
G1 X86.139 Y126.374 E9.1726
G1 X85.393 Y125.752 E9.19117
G1 X84.7 Y125.071 E9.20975
G1 X84.066 Y124.335 E9.22833
G1 X83.495 Y123.549 E9.24691
G1 X82.99 Y122.719 E9.26549
G1 X82.556 Y121.851 E9.28405
G1 X82.194 Y120.949 E9.30264
G1 X81.907 Y120.021 E9.32122
G1 X81.698 Y119.073 E9.33978
G1 X81.568 Y118.11 E9.35837
G1 X81.516 Y117.008 E9.37947
G1 X81.516 Y102.996 E9.64744
G1 X81.556 Y102.025 E9.66602
G1 X81.676 Y101.061 E9.6846
G1 X81.874 Y100.111 E9.70316
G1 X82.15 Y99.179 E9.72175
G1 X82.502 Y98.274 E9.74032
G1 X82.927 Y97.4 E9.75891
G1 X83.423 Y96.565 E9.77748
G1 X83.985 Y95.773 E9.79605
G1 X84.611 Y95.03 E9.81464
G1 X85.296 Y94.341 E9.83322
G0 F1500 X85.688 Y94.524
G1 F900 X86.424 Y93.915 E9.85149
G1 X87.208 Y93.371 E9.86974
G1 X88.035 Y92.893 E9.888
G1 X88.898 Y92.487 E9.90624
G1 X89.793 Y92.154 E9.92451
G1 X90.713 Y91.897 E9.94277
G1 X91.651 Y91.718 E9.96104
G1 X92.6 Y91.618 E9.97929
G1 X93.428 Y91.597 E9.99513
G1 X100.819 Y91.67 E10.13648
G1 X115.659 Y91.589 E10.4203
G1 X115.996 Y91.592 E10.42674
G1 X119.189 Y91.669 E10.48782
G1 X126.577 Y91.599 E10.62912
G1 X127.531 Y91.629 E10.64738
G1 X128.48 Y91.74 E10.66565
G1 X129.415 Y91.93 E10.6839
G1 X130.332 Y92.197 E10.70216
G1 X131.223 Y92.54 E10.72042
G1 X132.082 Y92.957 E10.73868
G1 X132.904 Y93.443 E10.75694
G1 X133.681 Y93.997 E10.77519
G1 X134.41 Y94.614 E10.79346
G1 X135.084 Y95.29 E10.81172
G1 X135.7 Y96.02 E10.82998
G1 X136.252 Y96.799 E10.84824
G1 X136.737 Y97.621 E10.8665
G1 X137.152 Y98.481 E10.88476
G1 X137.493 Y99.373 E10.90302
G1 X137.759 Y100.29 E10.92128
G1 X137.946 Y101.226 E10.93954
G1 X138.055 Y102.175 E10.9578
G1 X138.085 Y103.01 E10.97378
G1 X138.07 Y117.021 E11.24174
G1 X138.029 Y117.975 E11.26
G1 X137.908 Y118.922 E11.27826
G1 X137.709 Y119.856 E11.29652
G1 X137.432 Y120.77 E11.31479
G1 X137.079 Y121.657 E11.33304
G1 X136.654 Y122.512 E11.3513
G1 X136.158 Y123.328 E11.36957
G1 X135.596 Y124.1 E11.38783
G1 X134.972 Y124.822 E11.40608
G1 X134.289 Y125.489 E11.42434
G1 X133.553 Y126.097 E11.44259
G1 X132.768 Y126.641 E11.46086
G1 X131.941 Y127.117 E11.47911
G1 X131.076 Y127.523 E11.49738
G1 X130.181 Y127.855 E11.51564
G1 X129.261 Y128.111 E11.5339
G1 X128.323 Y128.289 E11.55216
G1 X127.373 Y128.387 E11.57042
G1 X126.614 Y128.409 E11.58495
G1 X123.743 Y128.395 E11.63985
G1 X123.336 Y128.386 E11.64764
G1 X118.562 Y128.192 E11.73902
G1 X102.901 Y128.182 E12.03853
G1 X96.527 Y128.388 E12.16049
G1 X96.215 Y128.394 E12.16646
G1 X93.372 Y128.408 E12.22083
G1 X92.418 Y128.373 E12.23909
G1 X91.47 Y128.258 E12.25735
G1 X90.535 Y128.064 E12.27561
G1 X89.62 Y127.792 E12.29387
G1 X88.73 Y127.445 E12.31214
G1 X87.873 Y127.025 E12.33039
G1 X87.054 Y126.534 E12.34865
G1 X86.279 Y125.977 E12.3669
G1 X85.553 Y125.356 E12.38517
G1 X84.882 Y124.678 E12.40342
G1 X84.27 Y123.945 E12.42168
G1 X83.721 Y123.164 E12.43994
G1 X83.239 Y122.339 E12.45821
G1 X82.829 Y121.477 E12.47646
G1 X82.491 Y120.584 E12.49472
G1 X82.23 Y119.666 E12.51298
G1 X82.047 Y118.729 E12.53124
G1 X81.942 Y117.78 E12.5495
G1 X81.916 Y117.008 E12.56427
G1 X81.916 Y102.996 E12.83224
G1 X81.956 Y102.042 E12.8505
G1 X82.076 Y101.095 E12.86876
G1 X82.274 Y100.161 E12.88702
G1 X82.55 Y99.247 E12.90528
G1 X82.902 Y98.359 E12.92354
G1 X83.326 Y97.504 E12.9418
G1 X83.821 Y96.687 E12.96007
G1 X84.382 Y95.915 E12.97832
G1 X85.006 Y95.192 E12.99658
G1 X85.688 Y94.524 E13.01484
G0 F1500 X86.08 Y94.711
G1 F900 X86.812 Y94.125 E13.03277
G1 X87.591 Y93.603 E13.0507
G1 X88.412 Y93.15 E13.06864
G1 X89.269 Y92.768 E13.08658
G1 X90.155 Y92.46 E13.10452
G1 X91.064 Y92.229 E13.12246
G1 X91.989 Y92.076 E13.14039
G1 X92.924 Y92.003 E13.15832
G1 X93.424 Y91.997 E13.16789
G1 X100.817 Y92.07 E13.30928
G1 X115.661 Y91.989 E13.59317
G1 X115.986 Y91.992 E13.59939
G1 X119.154 Y92.068 E13.65999
G1 X126.581 Y91.998 E13.80204
G1 X127.518 Y92.03 E13.81997
G1 X128.449 Y92.14 E13.83789
G1 X129.368 Y92.33 E13.85584
G1 X130.267 Y92.598 E13.87378
G1 X131.14 Y92.94 E13.89171
G1 X131.98 Y93.356 E13.90964
G1 X132.782 Y93.843 E13.92758
G1 X133.54 Y94.395 E13.94552
G1 X134.248 Y95.011 E13.96347
G1 X134.901 Y95.684 E13.9814
G1 X135.494 Y96.41 E13.99933
G1 X136.023 Y97.185 E14.01727
G1 X136.485 Y98.001 E14.0352
G1 X136.875 Y98.854 E14.05314
G1 X137.191 Y99.737 E14.07108
G1 X137.43 Y100.644 E14.08902
G1 X137.592 Y101.568 E14.10696
G1 X137.674 Y102.502 E14.12489
G1 X137.685 Y103.01 E14.13461
G1 X137.67 Y117.021 E14.40256
G1 X137.629 Y117.958 E14.4205
G1 X137.508 Y118.888 E14.43843
G1 X137.309 Y119.804 E14.45636
G1 X137.032 Y120.7 E14.4743
G1 X136.68 Y121.57 E14.49224
G1 X136.255 Y122.406 E14.51018
G1 X135.761 Y123.203 E14.52811
G1 X135.2 Y123.954 E14.54604
G1 X134.577 Y124.656 E14.56399
G1 X133.897 Y125.302 E14.58193
G1 X133.165 Y125.887 E14.59985
G1 X132.385 Y126.408 E14.61779
G1 X131.563 Y126.861 E14.63574
G1 X130.706 Y127.242 E14.65367
G1 X129.82 Y127.548 E14.6716
G1 X128.911 Y127.778 E14.68953
G1 X127.985 Y127.93 E14.70748
G1 X126.616 Y128.009 E14.7337
G1 X123.745 Y127.995 E14.78861
G1 X123.352 Y127.986 E14.79613
G1 X118.578 Y127.792 E14.8875
G1 X102.888 Y127.782 E15.18757
G1 X96.514 Y127.988 E15.30953
G1 X96.213 Y127.994 E15.31529
G1 X93.37 Y128.008 E15.36966
G1 X92.433 Y127.972 E15.38759
G1 X91.502 Y127.857 E15.40553
G1 X90.585 Y127.663 E15.42346
G1 X89.687 Y127.392 E15.4414
G1 X88.815 Y127.045 E15.45935
G1 X87.977 Y126.625 E15.47727
G1 X87.177 Y126.136 E15.49521
G1 X86.422 Y125.579 E15.51315
G1 X85.717 Y124.961 E15.53108
G1 X85.067 Y124.285 E15.54901
G1 X84.477 Y123.556 E15.56695
G1 X83.951 Y122.779 E15.58489
G1 X83.494 Y121.96 E15.60283
G1 X83.108 Y121.106 E15.62075
G1 X82.796 Y120.221 E15.6387
G1 X82.56 Y119.313 E15.65664
G1 X82.403 Y118.389 E15.67457
G1 X82.316 Y117.008 E15.70103
G1 X82.316 Y102.996 E15.969
G1 X82.356 Y102.059 E15.98694
G1 X82.476 Y101.129 E16.00487
G1 X82.674 Y100.212 E16.02281
G1 X82.95 Y99.316 E16.04074
G1 X83.301 Y98.446 E16.05869
G1 X83.725 Y97.61 E16.07661
G1 X84.219 Y96.812 E16.09456
G1 X84.779 Y96.06 E16.11249
G1 X85.4 Y95.358 E16.13042
G1 X86.08 Y94.711 E16.14837
G0 F1500 X86.471 Y94.902
G1 F900 X87.199 Y94.339 E16.16597
G1 X87.974 Y93.841 E16.18359
G1 X88.788 Y93.412 E16.20118
G1 X89.637 Y93.055 E16.2188
G1 X90.513 Y92.773 E16.2364
G1 X91.411 Y92.569 E16.25401
G1 X92.323 Y92.443 E16.27162
G1 X93.42 Y92.397 E16.29261
G1 X100.815 Y92.47 E16.43405
G1 X115.663 Y92.389 E16.71801
G1 X115.976 Y92.392 E16.724
G1 X119.147 Y92.468 E16.78466
G1 X126.585 Y92.398 E16.92692
G1 X127.505 Y92.43 E16.94452
G1 X128.419 Y92.541 E16.96213
G1 X129.32 Y92.731 E16.97974
G1 X130.201 Y92.998 E16.99735
G1 X131.055 Y93.341 E17.01495
G1 X131.876 Y93.756 E17.03254
G1 X132.659 Y94.242 E17.05016
G1 X133.396 Y94.793 E17.06776
G1 X134.083 Y95.406 E17.08537
G1 X134.714 Y96.077 E17.10299
G1 X135.284 Y96.8 E17.12059
G1 X135.789 Y97.569 E17.13819
G1 X136.226 Y98.38 E17.15581
G1 X136.591 Y99.225 E17.17341
G1 X136.881 Y100.099 E17.19102
G1 X137.094 Y100.994 E17.20862
G1 X137.229 Y101.905 E17.22623
G1 X137.285 Y103.009 E17.24737
G1 X137.27 Y117.02 E17.51532
G1 X137.229 Y117.94 E17.53294
G1 X137.108 Y118.853 E17.55055
G1 X136.909 Y119.752 E17.56816
G1 X136.632 Y120.63 E17.58577
G1 X136.281 Y121.481 E17.60337
G1 X135.856 Y122.298 E17.62098
G1 X135.363 Y123.075 E17.63858
G1 X134.804 Y123.806 E17.65618
G1 X134.183 Y124.486 E17.67379
G1 X133.506 Y125.11 E17.6914
G1 X132.777 Y125.673 E17.70902
G1 X132.003 Y126.17 E17.72661
G1 X131.188 Y126.598 E17.74421
G1 X130.338 Y126.954 E17.76184
G1 X129.462 Y127.235 E17.77943
G1 X128.564 Y127.438 E17.79704
G1 X127.652 Y127.563 E17.81464
G1 X126.618 Y127.609 E17.83444
G1 X123.747 Y127.595 E17.88934
G1 X123.368 Y127.586 E17.89659
G1 X118.594 Y127.392 E17.98797
G1 X102.875 Y127.382 E18.28859
G1 X96.501 Y127.588 E18.41055
G1 X96.211 Y127.594 E18.4161
G1 X93.368 Y127.608 E18.47047
G1 X92.448 Y127.572 E18.48808
G1 X91.535 Y127.457 E18.50568
G1 X90.635 Y127.263 E18.52329
G1 X89.755 Y126.992 E18.5409
G1 X88.902 Y126.645 E18.55851
G1 X88.083 Y126.226 E18.5761
G1 X87.302 Y125.737 E18.59372
G1 X86.568 Y125.182 E18.61132
G1 X85.884 Y124.566 E18.62893
G1 X85.256 Y123.893 E18.64653
G1 X84.689 Y123.167 E18.66415
