; generated by Slic3r 1.2.9 on 2017-04-07 at 20:23:53

; external perimeters extrusion width = 0.40mm
; perimeters extrusion width = 0.68mm
; infill extrusion width = 1.28mm
; solid infill extrusion width = 0.68mm
; top infill extrusion width = 0.68mm
; support material extrusion width = 0.40mm

M107
M190 S60 ; set bed temperature
M104 S200 ; set temperature
G28 ; home all axes
G1 Z5 F5000 ; lift nozzle

M109 S200 ; wait for temperature to be reached
G21 ; set units to millimeters
G90 ; use absolute coordinates
M82 ; use absolute distances for extrusion
G92 E0
G1 Z0.100 F7800.000
G1 E-2.00000 F2400.00000
G92 E0
G1 X81.221 Y31.737 F7800.000
G1 E2.00000 F2400.00000
G1 X82.365 Y29.732 E2.01714 F1800.000
G1 X84.121 Y28.233 E2.03428
G1 X86.281 Y27.417 E2.05142
G1 X87.538 Y27.298 E2.06079
G1 X132.462 Y27.298 E2.39425
G1 X134.737 Y27.695 E2.41139
G1 X136.742 Y28.839 E2.42853 F1800.000
G1 X138.242 Y30.595 E2.44567
G1 X139.057 Y32.755 E2.46281
G1 X139.176 Y34.012 E2.47218
G1 X139.176 Y185.988 E3.60027
G1 X138.779 Y188.263 E3.61741
G1 X137.635 Y190.268 E3.63455
G1 X135.879 Y191.767 E3.65169
G1 X133.719 Y192.583 E3.66883
G1 X132.462 Y192.702 E3.67820
G1 X87.538 Y192.702 E4.01167
G1 X85.263 Y192.305 E4.02881
G1 X83.258 Y191.161 E4.04595
G1 X81.758 Y189.405 E4.06308
G1 X80.942 Y187.245 E4.08022
G1 X80.824 Y185.988 E4.08960
G1 X80.824 Y34.012 E5.21769
G1 X81.210 Y31.797 E5.23438
G1 X81.399 Y31.769 F7800.000
G1 X82.542 Y29.799 E5.25129 F1800.000
G1 X84.291 Y28.340 E5.26820
G1 X87.538 Y27.476 E5.29313
G1 X132.462 Y27.476 E5.62660
G1 X134.705 Y27.873 E5.64350
G1 X136.676 Y29.016 E5.66041 F1800.000
G1 X138.134 Y30.765 E5.67732
G1 X138.998 Y34.012 E5.70226
G1 X138.998 Y185.988 E6.83035
G1 X138.601 Y188.231 E6.84725
G1 X137.458 Y190.201 E6.86416
G1 X135.709 Y191.660 E6.88107
G1 X132.462 Y192.524 E6.90601
G1 X87.538 Y192.524 E7.23947
G1 X85.295 Y192.127 E7.25638
G1 X83.324 Y190.984 E7.27329
G1 X81.866 Y189.235 E7.29020
G1 X81.002 Y185.988 E7.31513
G1 X81.002 Y34.012 E8.44322
G1 X81.389 Y31.828 E8.45969
G1 X81.578 Y31.801 F7800.000
G1 X82.719 Y29.866 E8.47636 F1800.000
G1 X84.461 Y28.449 E8.49303
G1 X87.538 Y27.655 E8.51662
G1 X132.462 Y27.655 E8.85008
G1 X134.673 Y28.052 E8.86675
G1 X136.608 Y29.193 E8.88343 F1800.000
G1 X138.025 Y30.936 E8.90010
G1 X138.819 Y34.012 E8.92369
G1 X138.819 Y185.988 E10.05178
G1 X138.422 Y188.199 E10.06845
G1 X137.281 Y190.134 E10.08512
G1 X135.539 Y191.551 E10.10180
G1 X132.462 Y192.345 E10.12538
G1 X87.538 Y192.345 E10.45885
G1 X85.327 Y191.948 E10.47552
G1 X83.392 Y190.807 E10.49219
G1 X81.975 Y189.064 E10.50887
G1 X81.181 Y185.988 E10.53245
G1 X81.181 Y34.012 E11.66054
G1 X81.567 Y31.860 E11.67677
G1 X81.756 Y31.834 F7800.000
G1 X82.895 Y29.935 E11.69321 F1800.000
G1 X84.631 Y28.560 E11.70964
G1 X87.538 Y27.834 E11.73188
G1 X132.462 Y27.834 E12.06535
G1 X134.640 Y28.230 E12.08178
G1 X136.539 Y29.370 E12.09822 F1800.000
G1 X137.914 Y31.105 E12.11465
G1 X138.641 Y34.012 E12.13690
G1 X138.641 Y185.988 E13.26499
G1 X138.244 Y188.166 E13.28142
G1 X137.105 Y190.065 E13.29786
G1 X135.369 Y191.440 E13.31429
G1 X132.462 Y192.166 E13.33653
G1 X87.538 Y192.166 E13.67000
G1 X85.359 Y191.770 E13.68643
G1 X83.461 Y190.630 E13.70287
G1 X82.086 Y188.895 E13.71931
G1 X81.359 Y185.988 E13.74155
G1 X81.359 Y34.012 E14.86964
G1 X81.745 Y31.893 E14.88563
G1 E12.88563 F2400.00000
G92 E0
G1 X93.611 Y177.980 F7800.000
G1 E2.00000 F2400.00000
G1 X94.140 Y178.410 E2.00506 F1800.000
G1 X94.570 Y178.939 E2.01011
G1 X94.877 Y179.531 E2.01507
G1 X95.054 Y180.147 E2.01982
G1 X95.109 Y180.750 E2.02432
G1 X95.054 Y181.353 E2.02882
G1 X94.877 Y181.969 E2.03357
G1 X94.570 Y182.561 E2.03852
G1 X94.140 Y183.090 E2.04358
G1 X93.611 Y183.520 E2.04864
G1 X93.019 Y183.827 E2.05359
G1 X92.403 Y184.004 E2.05834
G1 X91.800 Y184.059 E2.06284
G1 X91.197 Y184.004 E2.06734
G1 X90.581 Y183.827 E2.07209
G1 X89.989 Y183.520 E2.07705
G1 X89.460 Y183.090 E2.08210
G1 X89.030 Y182.561 E2.08716
G1 X88.723 Y181.969 E2.09211
G1 X88.546 Y181.353 E2.09687
G1 X88.491 Y180.750 E2.10137
G1 X88.546 Y180.147 E2.10586
G1 X88.723 Y179.531 E2.11062
G1 X89.030 Y178.939 E2.11557
G1 X89.460 Y178.410 E2.12063
G1 X89.989 Y177.980 E2.12568
G1 X90.581 Y177.673 E2.13064
G1 X91.197 Y177.496 E2.13539
G1 X91.789 Y177.442 E2.13981 F1800.000
G1 X92.403 Y177.496 E2.14438
G1 X93.019 Y177.673 E2.14914
G1 X93.558 Y177.953 E2.15365
G1 X93.513 Y178.130 F7800.000
G1 X94.013 Y178.537 E2.15843 F1800.000
G1 X94.420 Y179.037 E2.16321
G1 X94.710 Y179.597 E2.16790
G1 X94.877 Y180.180 E2.17240
G1 X94.930 Y180.750 E2.17665
G1 X94.877 Y181.320 E2.18090
G1 X94.710 Y181.903 E2.18540
G1 X94.420 Y182.463 E2.19008
G1 X94.013 Y182.963 E2.19487
G1 X93.513 Y183.370 E2.19965
G1 X92.953 Y183.660 E2.20433
G1 X92.370 Y183.827 E2.20883
G1 X91.800 Y183.880 E2.21308
G1 X91.230 Y183.827 E2.21733
G1 X90.647 Y183.660 E2.22183
G1 X90.087 Y183.370 E2.22652
G1 X89.587 Y182.963 E2.23130
G1 X89.180 Y182.463 E2.23608
G1 X88.890 Y181.903 E2.24077
G1 X88.723 Y181.320 E2.24527
G1 X88.670 Y180.750 E2.24952
G1 X88.723 Y180.180 E2.25377
G1 X88.890 Y179.597 E2.25827
G1 X89.180 Y179.037 E2.26295
G1 X89.587 Y178.537 E2.26774
G1 X90.087 Y178.130 E2.27252
G1 X90.647 Y177.840 E2.27720
G1 X91.230 Y177.673 E2.28170
G1 X91.789 Y177.621 E2.28587 F1800.000
G1 X92.370 Y177.672 E2.29020
G1 X92.953 Y177.840 E2.29470
G1 X93.460 Y178.103 E2.29894
G1 X93.415 Y178.280 F7800.000
G1 X93.886 Y178.664 E2.30345 F1800.000
G1 X94.270 Y179.135 E2.30796
G1 X94.543 Y179.664 E2.31238
G1 X94.701 Y180.213 E2.31662
G1 X94.750 Y180.750 E2.32062
G1 X94.701 Y181.287 E2.32463
G1 X94.543 Y181.836 E2.32887
G1 X94.270 Y182.365 E2.33329
G1 X93.886 Y182.836 E2.33780
G1 X93.415 Y183.220 E2.34231
G1 X92.886 Y183.493 E2.34673
G1 X92.337 Y183.651 E2.35097
G1 X91.800 Y183.700 E2.35497
G1 X91.263 Y183.651 E2.35897
G1 X90.714 Y183.493 E2.36321
G1 X90.185 Y183.220 E2.36763
G1 X89.714 Y182.836 E2.37214
G1 X89.330 Y182.365 E2.37665
G1 X89.057 Y181.836 E2.38107
G1 X88.899 Y181.287 E2.38531
G1 X88.850 Y180.750 E2.38932
G1 X88.899 Y180.213 E2.39332
G1 X89.057 Y179.664 E2.39756
G1 X89.330 Y179.135 E2.40198
G1 X89.714 Y178.664 E2.40649
G1 X90.185 Y178.280 E2.41100
G1 X90.714 Y178.007 E2.41542
G1 X91.263 Y177.849 E2.41966
G1 X91.790 Y177.801 E2.42359 F1800.000
G1 X92.337 Y177.849 E2.42766
G1 X92.886 Y178.007 E2.43191
G1 X93.361 Y178.253 E2.43588
G1 X93.778 Y178.113 F7800.000
G1 X90.443 Y176.483 F7800.000
G1 X90.443 Y43.517 E3.42287 F1800.000
G1 X90.468 Y43.517 E3.42306
G1 X90.468 Y37.456 E3.46804
G1 X124.264 Y37.456 E3.71890
G1 X124.264 Y43.517 E3.76389
G1 X129.557 Y43.517 E3.80318
G1 X129.557 Y176.483 E4.79017
G1 X129.532 Y176.483 E4.79036
G1 X129.532 Y182.544 E4.83534
G1 X95.736 Y182.544 E5.08620
G1 X95.736 Y176.483 E5.13119
G1 X90.503 Y176.483 E5.17003
G1 X90.621 Y176.305 F7800.000
G1 X90.621 Y43.695 E6.15437 F1800.000
G1 X90.647 Y43.695 E6.15456
G1 X90.647 Y37.635 E6.19955
G1 X124.086 Y37.635 E6.44776
G1 X124.086 Y43.695 E6.49274
G1 X129.379 Y43.695 E6.53203
G1 X129.379 Y176.305 E7.51637
G1 X129.353 Y176.305 E7.51656
G1 X129.353 Y182.365 E7.56155
G1 X95.914 Y182.365 E7.80976
G1 X95.914 Y176.305 E7.85474
G1 X90.681 Y176.305 E7.89359
G1 X90.800 Y176.126 F7800.000
G1 X90.800 Y43.874 E8.87527 F1800.000
G1 X90.825 Y43.874 E8.87547
G1 X90.825 Y37.813 E8.92045
G1 X123.907 Y37.813 E9.16601
G1 X123.907 Y43.874 E9.21099
G1 X129.200 Y43.874 E9.25028
G1 X129.200 Y176.126 E10.23197
G1 X129.175 Y176.126 E10.23216
G1 X129.175 Y182.187 E10.27715
G1 X96.093 Y182.187 E10.52271
G1 X96.093 Y176.126 E10.56769
G1 X90.860 Y176.126 E10.60654
G1 X90.400 Y176.126 F7800.000
G1 E8.60654 F2400.00000
G92 E0
G1 X127.597 Y42.504 F7800.000
G1 E2.00000 F2400.00000
G1 X126.981 Y42.327 E2.00475 F1800.000
G1 X126.389 Y42.020 E2.00971
G1 X125.860 Y41.590 E2.01476
G1 X125.430 Y41.061 E2.01982
G1 X125.123 Y40.469 E2.02477
G1 X124.946 Y39.853 E2.02953
G1 X124.891 Y39.250 E2.03403
G1 X124.946 Y38.647 E2.03852
G1 X125.123 Y38.031 E2.04328
G1 X125.430 Y37.439 E2.04823
G1 X125.860 Y36.910 E2.05329
G1 X126.389 Y36.480 E2.05834
G1 X126.981 Y36.173 E2.06330
G1 X127.597 Y35.996 E2.06805
G1 X128.189 Y35.942 E2.07247 F1800.000
G1 X128.803 Y35.996 E2.07704
G1 X129.419 Y36.173 E2.08180
G1 X130.011 Y36.480 E2.08675
G1 X130.540 Y36.910 E2.09181
G1 X130.970 Y37.439 E2.09687
G1 X131.277 Y38.031 E2.10182
G1 X131.454 Y38.647 E2.10657
G1 X131.509 Y39.250 E2.11107
G1 X131.454 Y39.853 E2.11557
G1 X131.277 Y40.469 E2.12032
G1 X130.970 Y41.061 E2.12528
G1 X130.540 Y41.590 E2.13033
G1 X130.011 Y42.020 E2.13539
G1 X129.419 Y42.327 E2.14034
G1 X128.803 Y42.504 E2.14510
G1 X128.200 Y42.559 E2.14959
G1 X127.656 Y42.509 E2.15365
G1 X127.630 Y42.327 F7800.000
G1 X127.047 Y42.160 E2.15814 F1800.000
G1 X126.487 Y41.870 E2.16283
G1 X125.987 Y41.463 E2.16761
G1 X125.580 Y40.963 E2.17240
G1 X125.290 Y40.403 E2.17708
G1 X125.123 Y39.820 E2.18158
G1 X125.070 Y39.250 E2.18583
G1 X125.123 Y38.680 E2.19008
G1 X125.290 Y38.097 E2.19458
G1 X125.580 Y37.537 E2.19926
G1 X125.987 Y37.037 E2.20405
G1 X126.487 Y36.630 E2.20883
G1 X127.047 Y36.340 E2.21352
G1 X127.630 Y36.173 E2.21801
G1 X128.189 Y36.121 E2.22219 F1800.000
G1 X128.770 Y36.172 E2.22651
G1 X129.353 Y36.340 E2.23101
G1 X129.913 Y36.630 E2.23570
G1 X130.413 Y37.037 E2.24048
G1 X130.820 Y37.537 E2.24527
G1 X131.110 Y38.097 E2.24995
G1 X131.277 Y38.680 E2.25445
G1 X131.330 Y39.250 E2.25870
G1 X131.277 Y39.820 E2.26295
G1 X131.110 Y40.403 E2.26745
G1 X130.820 Y40.963 E2.27213
G1 X130.413 Y41.463 E2.27692
G1 X129.913 Y41.870 E2.28170
G1 X129.353 Y42.160 E2.28639
G1 X128.770 Y42.327 E2.29088
G1 X128.200 Y42.380 E2.29513
G1 X127.689 Y42.333 E2.29894
G1 X127.663 Y42.151 F7800.000
G1 X127.114 Y41.993 E2.30318 F1800.000
G1 X126.585 Y41.720 E2.30760
G1 X126.114 Y41.336 E2.31211
G1 X125.730 Y40.865 E2.31662
G1 X125.457 Y40.336 E2.32104
G1 X125.299 Y39.787 E2.32528
G1 X125.250 Y39.250 E2.32928
G1 X125.299 Y38.713 E2.33329
G1 X125.457 Y38.164 E2.33753
G1 X125.730 Y37.635 E2.34194
G1 X126.114 Y37.164 E2.34645
G1 X126.585 Y36.780 E2.35097
G1 X127.114 Y36.507 E2.35538
G1 X127.663 Y36.349 E2.35962
G1 X128.190 Y36.301 E2.36355 F1800.000
G1 X128.737 Y36.349 E2.36763
G1 X129.286 Y36.507 E2.37187
G1 X129.815 Y36.780 E2.37629
G1 X130.286 Y37.164 E2.38080
G1 X130.670 Y37.635 E2.38531
G1 X130.943 Y38.164 E2.38973
G1 X131.101 Y38.713 E2.39397
G1 X131.150 Y39.250 E2.39797
G1 X131.101 Y39.787 E2.40198
G1 X130.943 Y40.336 E2.40622
G1 X130.670 Y40.865 E2.41064
G1 X130.286 Y41.336 E2.41515
G1 X129.815 Y41.720 E2.41966
G1 X129.286 Y41.993 E2.42407
G1 X128.737 Y42.151 E2.42832
G1 X128.200 Y42.200 E2.43232
G1 X127.723 Y42.157 E2.43588
G1 X127.393 Y42.446 F7800.000
G1 E0.43588 F2400.00000
G92 E0
G1 X132.005 Y34.469 F7800.000
G1 E2.00000 F2400.00000
G1 X132.005 Y185.531 E3.12130 F1800.000
G1 X87.995 Y185.531 E3.44798
G1 X87.995 Y34.469 E4.56929
G1 X131.945 Y34.469 E4.89552
G1 X132.183 Y34.291 F7800.000
G1 X132.184 Y185.709 E6.01948 F1800.000
G1 X87.816 Y185.709 E6.34881
G1 X87.816 Y34.291 E7.47276
G1 X132.123 Y34.291 E7.80164
G1 X132.362 Y34.112 F7800.000
G1 X132.362 Y185.888 E8.92825 F1800.000
G1 X87.638 Y185.888 E9.26023
G1 X87.638 Y34.112 E10.38683
G1 X132.302 Y34.112 E10.71837
G1 X132.162 Y34.458 F7800.000
G1 X131.911 Y34.679 F7800.000
G1 X131.795 Y34.563 E10.71958 F1800.000
G1 X131.543 Y34.563 E10.72146
G1 X131.911 Y34.931 E10.72533
G1 X131.911 Y35.184 E10.72720
G1 X131.290 Y34.563 E10.73372
G1 X131.038 Y34.563 E10.73559
G1 X131.911 Y35.436 E10.74477
G1 X131.911 Y35.689 E10.74664
G1 X130.785 Y34.563 E10.75846
G1 X130.533 Y34.563 E10.76034
G1 X131.911 Y35.942 E10.77481
G1 X131.911 Y36.194 E10.77669
G1 X130.280 Y34.563 E10.79381
G1 X130.027 Y34.563 E10.79569
G1 X131.911 Y36.447 E10.81547
G1 X131.911 Y36.699 E10.81734
G1 X129.775 Y34.563 E10.83977
G1 X129.522 Y34.563 E10.84165
G1 X131.911 Y36.952 E10.86673
G1 X131.911 Y37.204 E10.86860
G1 X129.270 Y34.563 E10.89634
G1 X129.017 Y34.563 E10.89821
G1 X131.911 Y37.457 E10.92860
G1 X131.911 Y37.709 E10.93047
G1 X128.765 Y34.563 E10.96351
G1 X128.512 Y34.563 E10.96538
G1 X131.911 Y37.962 E11.00107
G1 X131.911 Y38.214 E11.00295
G1 X131.062 Y37.365 E11.01186
G1 X131.333 Y37.889 F7800.000
G1 X131.911 Y38.467 E11.01793 F1800.000
G1 X131.911 Y38.720 E11.01980
G1 X131.453 Y38.262 E11.02461
G1 X131.548 Y38.609 E11.02729
G1 X131.911 Y38.972 E11.03110
G1 X131.911 Y39.225 E11.03297
G1 X131.574 Y38.887 E11.03652
G1 X131.599 Y39.165 E11.03859
G1 X131.911 Y39.477 E11.04186
G1 X131.911 Y39.730 E11.04374
G1 X131.586 Y39.405 E11.04715
G1 X131.565 Y39.636 E11.04888
G1 X131.911 Y39.982 E11.05252
G1 X131.911 Y40.235 E11.05439
G1 X131.539 Y39.863 E11.05830
G1 X131.483 Y40.059 E11.05981
G1 X131.911 Y40.487 E11.06431
G1 X131.911 Y40.740 E11.06618
G1 X131.426 Y40.255 E11.07127
G1 X131.370 Y40.452 E11.07279
G1 X131.911 Y40.993 E11.07847
G1 X131.911 Y41.245 E11.08035
G1 X131.288 Y40.622 E11.08689
G1 X131.202 Y40.789 E11.08828
G1 X131.911 Y41.498 E11.09572
G1 X131.911 Y41.750 E11.09760
G1 X131.116 Y40.955 E11.10595
G1 X131.025 Y41.117 E11.10733
G1 X131.911 Y42.003 E11.11662
G1 X131.911 Y42.255 E11.11850
G1 X130.912 Y41.257 E11.12899
G1 X130.799 Y41.396 E11.13032
G1 X131.911 Y42.508 E11.14200
G1 X131.911 Y42.760 E11.14387
G1 X130.686 Y41.535 E11.15673
G1 X130.567 Y41.669 E11.15806
G1 X131.911 Y43.013 E11.17217
G1 X131.911 Y43.266 E11.17405
G1 X130.428 Y41.782 E11.18962
G1 X130.289 Y41.896 E11.19095
G1 X131.911 Y43.518 E11.20799
G1 X131.911 Y43.771 E11.20986
G1 X130.149 Y42.009 E11.22836
G1 X130.003 Y42.115 E11.22970
G1 X131.911 Y44.023 E11.24974
G1 X131.911 Y44.276 E11.25162
G1 X129.836 Y42.201 E11.27340
G1 X129.670 Y42.287 E11.27479
G1 X131.911 Y44.528 E11.29832
G1 X131.911 Y44.781 E11.30019
G1 X129.504 Y42.374 E11.32547
G1 X129.321 Y42.443 E11.32692
G1 X131.911 Y45.033 E11.35412
G1 X131.911 Y45.286 E11.35600
G1 X129.125 Y42.500 E11.38525
G1 X128.928 Y42.556 E11.38677
G1 X131.911 Y45.539 E11.41808
G1 X131.911 Y45.791 E11.41996
G1 X129.651 Y43.531 E11.44369
G1 X129.543 Y43.423 F7800.000
G1 X128.722 Y42.602 E11.45230 F1800.000
G1 X128.491 Y42.623 E11.45403
G1 X129.290 Y43.423 E11.46242
G1 X129.038 Y43.423 E11.46430
G1 X128.259 Y42.644 E11.47247
G1 X128.001 Y42.639 E11.47439
G1 X128.785 Y43.423 E11.48262
G1 X128.532 Y43.423 E11.48449
G1 X127.723 Y42.613 E11.49299
G1 X127.420 Y42.563 E11.49527
G1 X128.280 Y43.423 E11.50430
G1 X128.027 Y43.423 E11.50617
G1 X127.066 Y42.461 E11.51627
G1 X126.624 Y42.272 F7800.000
G1 X127.775 Y43.423 E11.52836 F1800.000
G1 X127.522 Y43.423 E11.53023
G1 X124.358 Y40.259 E11.56345
G1 X124.358 Y40.006 E11.56533
G1 X125.178 Y40.826 E11.57394
G1 X124.989 Y40.384 F7800.000
G1 X124.358 Y39.754 E11.58056 F1800.000
G1 X124.358 Y39.501 E11.58244
G1 X124.887 Y40.030 E11.58799
G1 X124.837 Y39.727 E11.59027
G1 X124.358 Y39.248 E11.59529
G1 X124.358 Y38.996 E11.59717
G1 X124.811 Y39.449 E11.60193
G1 X124.806 Y39.191 E11.60385
G1 X124.358 Y38.743 E11.60854
G1 X124.358 Y38.491 E11.61042
G1 X124.827 Y38.959 E11.61534
G1 X124.848 Y38.728 E11.61706
G1 X124.358 Y38.238 E11.62220
G1 X124.358 Y37.986 E11.62408
G1 X124.894 Y38.522 E11.62971
G1 X124.950 Y38.325 E11.63122
G1 X124.358 Y37.733 E11.63744
G1 X124.358 Y37.481 E11.63931
G1 X125.007 Y38.129 E11.64612
G1 X125.076 Y37.946 E11.64758
G1 X121.693 Y34.563 E11.68310
G1 X121.946 Y34.563 E11.68498
G1 X125.163 Y37.780 E11.71875
G1 X125.249 Y37.613 E11.72015
G1 X122.198 Y34.563 E11.75218
G1 X122.451 Y34.563 E11.75405
G1 X125.335 Y37.447 E11.78433
G1 X125.441 Y37.301 E11.78568
G1 X122.703 Y34.563 E11.81442
G1 X122.956 Y34.563 E11.81630
G1 X125.554 Y37.161 E11.84358
G1 X125.668 Y37.022 E11.84491
G1 X123.208 Y34.563 E11.87073
G1 X123.461 Y34.563 E11.87261
G1 X125.781 Y36.883 E11.89696
G1 X125.915 Y36.764 E11.89829
G1 X123.714 Y34.563 E11.92140
G1 X123.966 Y34.563 E11.92328
G1 X126.054 Y36.651 E11.94520
G1 X126.193 Y36.538 E11.94654
G1 X124.219 Y34.563 E11.96727
G1 X124.471 Y34.563 E11.96915
G1 X126.333 Y36.425 E11.98869
G1 X126.495 Y36.334 E11.99007
G1 X124.724 Y34.563 E12.00867
G1 X124.976 Y34.563 E12.01054
G1 X126.661 Y36.248 E12.02824
G1 X126.828 Y36.162 E12.02963
G1 X125.229 Y34.563 E12.04642
G1 X125.481 Y34.563 E12.04829
