; generated by Slic3r 1.2.9 on 2017-04-07 at 20:23:26

; external perimeters extrusion width = 0.40mm
; perimeters extrusion width = 0.68mm
; infill extrusion width = 1.28mm
; solid infill extrusion width = 0.68mm
; top infill extrusion width = 0.68mm
; support material extrusion width = 0.40mm

M107
M190 S60 ; set bed temperature
M104 S200 ; set temperature
G28 ; home all axes
G1 Z5 F5000 ; lift nozzle

M109 S200 ; wait for temperature to be reached
G21 ; set units to millimeters
G90 ; use absolute coordinates
M82 ; use absolute distances for extrusion
G92 E0
G1 Z0.100 F7800.000
G1 E-2.00000 F2400.00000
G92 E0
G1 X83.263 Y96.417 F7800.000
G1 E2.00000 F2400.00000
G1 X86.447 Y95.181 E2.02536 F1800.000
G1 X97.270 Y93.613 E2.10654
G1 X98.361 Y93.534 E2.11465
G1 X121.927 Y93.534 E2.28958
G1 X123.046 Y93.617 E2.29791
G1 X133.582 Y95.185 E2.37697 F1800.000
G1 X135.923 Y95.935 E2.39522
G1 X137.903 Y97.393 E2.41348
G1 X139.315 Y99.406 E2.43173
G1 X140.069 Y102.709 E2.45687
G1 X140.069 Y117.279 E2.56502
G1 X139.672 Y119.705 E2.58327
G1 X138.521 Y121.878 E2.60153
G1 X136.737 Y123.571 E2.61978
G1 X134.507 Y124.606 E2.63803
G1 X132.462 Y124.886 E2.65335
G1 X87.538 Y124.886 E2.98681
G1 X85.111 Y124.488 E3.00506
G1 X82.938 Y123.338 E3.02332
G1 X81.246 Y121.554 E3.04157
G1 X80.211 Y119.324 E3.05982
G1 X79.931 Y117.279 E3.07514
G1 X79.931 Y102.709 E3.18329
G1 X80.328 Y100.282 E3.20154
G1 X81.479 Y98.110 E3.21979
G1 X83.219 Y96.458 E3.23760
G1 X83.392 Y96.556 F7800.000
G1 X83.435 Y96.517 E3.23803 F1800.000
G1 X86.473 Y95.357 E3.26217
G1 X97.296 Y93.789 E3.34334
G1 X98.361 Y93.713 E3.35127
G1 X121.927 Y93.713 E3.52619
G1 X123.020 Y93.794 E3.53433
G1 X133.556 Y95.362 E3.61340 F1800.000
G1 X135.868 Y96.107 E3.63143
G1 X137.816 Y97.559 E3.64946
G1 X139.191 Y99.562 E3.66750
G1 X139.890 Y102.709 E3.69143
G1 X139.890 Y117.279 E3.79958
G1 X139.493 Y119.676 E3.81761
G1 X138.344 Y121.816 E3.83565
G1 X136.565 Y123.471 E3.85368
G1 X134.348 Y124.464 E3.87171
G1 X132.462 Y124.707 E3.88583
G1 X87.538 Y124.707 E4.21929
G1 X85.141 Y124.310 E4.23733
G1 X83.001 Y123.161 E4.25536
G1 X81.345 Y121.382 E4.27339
G1 X80.353 Y119.164 E4.29143
G1 X80.110 Y117.279 E4.30554
G1 X80.110 Y102.709 E4.41369
G1 X80.507 Y100.312 E4.43172
G1 X81.656 Y98.172 E4.44976
G1 X83.348 Y96.597 E4.46691
G1 X83.520 Y96.697 F7800.000
G1 X83.607 Y96.617 E4.46779 F1800.000
G1 X86.498 Y95.534 E4.49071
G1 X97.322 Y93.966 E4.57188
G1 X98.361 Y93.891 E4.57962
G1 X121.927 Y93.891 E4.75454
G1 X122.994 Y93.970 E4.76249
G1 X133.529 Y95.538 E4.84155 F1800.000
G1 X135.812 Y96.279 E4.85936
G1 X137.727 Y97.725 E4.87718
G1 X139.066 Y99.717 E4.89499
G1 X139.712 Y102.709 E4.91771
G1 X139.712 Y117.279 E5.02586
G1 X139.315 Y119.646 E5.04368
G1 X138.166 Y121.753 E5.06149
G1 X136.393 Y123.371 E5.07931
G1 X134.189 Y124.320 E5.09712
G1 X132.462 Y124.529 E5.11003
G1 X87.538 Y124.529 E5.44350
G1 X85.171 Y124.132 E5.46131
G1 X83.063 Y122.983 E5.47913
G1 X81.446 Y121.210 E5.49694
G1 X80.497 Y119.006 E5.51476
G1 X80.288 Y117.279 E5.52767
G1 X80.288 Y102.709 E5.63582
G1 X80.685 Y100.342 E5.65363
G1 X81.834 Y98.235 E5.67145
G1 X83.476 Y96.737 E5.68794
G1 X83.646 Y96.838 F7800.000
G1 X83.778 Y96.720 E5.68926 F1800.000
G1 X86.524 Y95.711 E5.71097
G1 X97.347 Y94.143 E5.79215
G1 X98.361 Y94.070 E5.79970
G1 X121.927 Y94.070 E5.97462
G1 X122.968 Y94.147 E5.98237
G1 X133.503 Y95.715 E6.06143 F1800.000
G1 X135.756 Y96.451 E6.07902
G1 X137.638 Y97.891 E6.09661
G1 X138.939 Y99.872 E6.11421
G1 X139.533 Y102.709 E6.13572
G1 X139.533 Y117.279 E6.24387
G1 X139.136 Y119.616 E6.26146
G1 X137.989 Y121.690 E6.27906
G1 X136.222 Y123.268 E6.29665
G1 X134.031 Y124.174 E6.31424
G1 X132.462 Y124.350 E6.32596
G1 X87.538 Y124.350 E6.65943
G1 X85.201 Y123.953 E6.67702
G1 X83.127 Y122.806 E6.69461
G1 X81.549 Y121.038 E6.71221
G1 X80.643 Y118.848 E6.72980
G1 X80.467 Y117.279 E6.74152
G1 X80.467 Y102.709 E6.84967
G1 X80.864 Y100.372 E6.86726
G1 X82.011 Y98.298 E6.88485
G1 X83.601 Y96.878 E6.90069
G1 X83.771 Y96.980 F7800.000
G1 X83.950 Y96.824 E6.90245 F1800.000
G1 X86.550 Y95.887 E6.92296
G1 X97.373 Y94.320 E7.00414
G1 X98.361 Y94.248 E7.01149
G1 X121.927 Y94.248 E7.18642
G1 X122.941 Y94.323 E7.19397
G1 X133.477 Y95.891 E7.27303 F1800.000
G1 X135.699 Y96.623 E7.29040
G1 X137.548 Y98.057 E7.30777
G1 X138.811 Y100.026 E7.32514
G1 X139.355 Y102.709 E7.34545
G1 X139.355 Y117.279 E7.45360
G1 X138.958 Y119.585 E7.47097
G1 X137.812 Y121.625 E7.48834
G1 X136.050 Y123.164 E7.50571
G1 X133.875 Y124.025 E7.52307
G1 X132.462 Y124.172 E7.53361
G1 X87.538 Y124.172 E7.86708
G1 X85.232 Y123.775 E7.88445
G1 X83.192 Y122.629 E7.90181
G1 X81.653 Y120.867 E7.91918
G1 X80.791 Y118.692 E7.93655
G1 X80.645 Y117.279 E7.94709
G1 X80.645 Y102.709 E8.05524
G1 X81.042 Y100.403 E8.07261
G1 X82.188 Y98.363 E8.08998
G1 X83.725 Y97.020 E8.10513
G1 X83.893 Y97.124 F7800.000
G1 X84.121 Y96.929 E8.10735 F1800.000
G1 X86.575 Y96.064 E8.12667
G1 X97.398 Y94.496 E8.20785
G1 X98.361 Y94.427 E8.21501
G1 X121.927 Y94.427 E8.38994
G1 X122.915 Y94.500 E8.39729
G1 X133.450 Y96.068 E8.47636 F1800.000
G1 X135.642 Y96.795 E8.49350
G1 X137.457 Y98.222 E8.51063
G1 X138.682 Y100.180 E8.52777
G1 X139.176 Y102.709 E8.54690
G1 X139.176 Y117.279 E8.65505
G1 X138.779 Y119.554 E8.67219
G1 X137.635 Y121.559 E8.68933
G1 X135.879 Y123.059 E8.70647
G1 X133.719 Y123.874 E8.72361
G1 X132.462 Y123.993 E8.73298
G1 X87.538 Y123.993 E9.06645
G1 X85.263 Y123.596 E9.08359
G1 X83.258 Y122.452 E9.10073
G1 X81.758 Y120.696 E9.11787
G1 X80.942 Y118.536 E9.13500
G1 X80.824 Y117.279 E9.14438
G1 X80.824 Y102.709 E9.25253
G1 X81.221 Y100.434 E9.26967
G1 X82.365 Y98.429 E9.28681
G1 X83.847 Y97.163 E9.30128
G1 X84.014 Y97.268 F7800.000
G1 X84.291 Y97.037 E9.30396 F1800.000
G1 X86.601 Y96.241 E9.32210
G1 X97.424 Y94.673 E9.40327
G1 X98.361 Y94.605 E9.41025
G1 X121.927 Y94.605 E9.58517
G1 X122.889 Y94.677 E9.59233
G1 X133.424 Y96.244 E9.67139 F1800.000
G1 X135.584 Y96.967 E9.68830
G1 X137.365 Y98.387 E9.70521
G1 X138.550 Y100.333 E9.72212
G1 X138.998 Y102.709 E9.74007
G1 X138.998 Y117.279 E9.84822
G1 X138.601 Y119.522 E9.86513
G1 X137.458 Y121.493 E9.88203
G1 X135.709 Y122.951 E9.89894
G1 X132.462 Y123.815 E9.92388
G1 X87.538 Y123.815 E10.25734
G1 X85.295 Y123.418 E10.27425
G1 X83.324 Y122.275 E10.29116
G1 X81.866 Y120.526 E10.30807
G1 X81.002 Y117.279 E10.33300
G1 X81.002 Y102.709 E10.44115
G1 X81.399 Y100.466 E10.45806
G1 X82.542 Y98.495 E10.47497
G1 X83.967 Y97.307 E10.48875
G1 X84.132 Y97.414 F7800.000
G1 X84.461 Y97.146 E10.49190 F1800.000
G1 X86.626 Y96.418 E10.50886
G1 X97.450 Y94.850 E10.59003
G1 X98.361 Y94.784 E10.59682
G1 X121.927 Y94.784 E10.77174
G1 X122.862 Y94.853 E10.77871
G1 X133.398 Y96.421 E10.85777 F1800.000
G1 X135.526 Y97.139 E10.87444
G1 X137.272 Y98.552 E10.89112
G1 X138.417 Y100.485 E10.90779
G1 X138.819 Y102.709 E10.92457
G1 X138.819 Y117.279 E11.03272
G1 X138.422 Y119.490 E11.04939
G1 X137.281 Y121.425 E11.06606
G1 X135.539 Y122.842 E11.08274
G1 X132.462 Y123.636 E11.10632
G1 X87.538 Y123.636 E11.43979
G1 X85.327 Y123.239 E11.45646
G1 X83.392 Y122.098 E11.47314
G1 X81.975 Y120.355 E11.48981
G1 X81.181 Y117.279 E11.51339
G1 X81.181 Y102.709 E11.62154
G1 X81.578 Y100.498 E11.63822
G1 X82.719 Y98.563 E11.65489
G1 X84.085 Y97.452 E11.66797
G1 X84.248 Y97.560 F7800.000
G1 X84.631 Y97.257 E11.67159 F1800.000
G1 X86.652 Y96.594 E11.68738
G1 X97.475 Y95.026 E11.76856
G1 X98.361 Y94.962 E11.77515
G1 X121.927 Y94.962 E11.95008
G1 X122.836 Y95.030 E11.95685
G1 X133.372 Y96.598 E12.03591 F1800.000
G1 X135.468 Y97.311 E12.05234
G1 X137.178 Y98.717 E12.06878
G1 X138.283 Y100.636 E12.08522
G1 X138.641 Y102.709 E12.10083
G1 X138.641 Y117.279 E12.20898
G1 X138.244 Y119.457 E12.22542
G1 X137.105 Y121.356 E12.24185
G1 X135.369 Y122.731 E12.25829
G1 X132.462 Y123.458 E12.28053
G1 X87.538 Y123.458 E12.61399
G1 X85.359 Y123.061 E12.63043
G1 X83.461 Y121.921 E12.64687
G1 X82.086 Y120.186 E12.66330
G1 X81.359 Y117.279 E12.68554
G1 X81.359 Y102.709 E12.79369
G1 X81.756 Y100.531 E12.81013
G1 X82.895 Y98.632 E12.82657
G1 X84.201 Y97.598 E12.83893
G1 E10.83893 F2400.00000
G92 E0
G1 X94.140 Y114.381 F7800.000
G1 E2.00000 F2400.00000
G1 X93.611 Y114.811 E2.00506 F1800.000
G1 X93.019 Y115.118 E2.01001
G1 X92.403 Y115.295 E2.01476
G1 X91.800 Y115.350 E2.01926
G1 X91.197 Y115.295 E2.02376
G1 X90.581 Y115.118 E2.02851
G1 X89.989 Y114.811 E2.03347
G1 X89.460 Y114.381 E2.03852
G1 X89.030 Y113.852 E2.04358
G1 X88.723 Y113.260 E2.04853
G1 X88.546 Y112.644 E2.05329
G1 X88.491 Y112.041 E2.05778
G1 X88.546 Y111.438 E2.06228
G1 X88.723 Y110.822 E2.06704
G1 X89.030 Y110.230 E2.07199
G1 X89.460 Y109.701 E2.07705
G1 X89.989 Y109.271 E2.08210
G1 X90.581 Y108.964 E2.08706
G1 X91.197 Y108.787 E2.09181
G1 X91.789 Y108.733 E2.09623 F1800.000
G1 X92.403 Y108.787 E2.10080
G1 X93.019 Y108.964 E2.10556
G1 X93.611 Y109.271 E2.11051
G1 X94.140 Y109.701 E2.11557
G1 X94.570 Y110.230 E2.12063
G1 X94.877 Y110.822 E2.12558
G1 X95.054 Y111.438 E2.13033
G1 X95.109 Y112.041 E2.13483
G1 X95.054 Y112.644 E2.13933
G1 X94.877 Y113.260 E2.14408
G1 X94.570 Y113.852 E2.14903
G1 X94.178 Y114.335 E2.15365
G1 X94.013 Y114.254 F7800.000
G1 X93.513 Y114.661 E2.15843 F1800.000
G1 X92.953 Y114.951 E2.16312
G1 X92.370 Y115.118 E2.16761
G1 X91.800 Y115.171 E2.17186
G1 X91.230 Y115.118 E2.17611
G1 X90.647 Y114.951 E2.18061
G1 X90.087 Y114.661 E2.18530
G1 X89.587 Y114.254 E2.19008
G1 X89.180 Y113.754 E2.19487
G1 X88.890 Y113.194 E2.19955
G1 X88.723 Y112.611 E2.20405
G1 X88.670 Y112.041 E2.20830
G1 X88.723 Y111.471 E2.21255
G1 X88.890 Y110.888 E2.21705
G1 X89.180 Y110.328 E2.22173
G1 X89.587 Y109.828 E2.22652
G1 X90.087 Y109.421 E2.23130
G1 X90.647 Y109.131 E2.23598
G1 X91.230 Y108.964 E2.24048
G1 X91.789 Y108.912 E2.24465 F1800.000
G1 X92.370 Y108.964 E2.24898
G1 X92.953 Y109.131 E2.25348
G1 X93.513 Y109.421 E2.25817
G1 X94.013 Y109.828 E2.26295
G1 X94.420 Y110.328 E2.26773
G1 X94.710 Y110.888 E2.27242
G1 X94.877 Y111.471 E2.27692
G1 X94.930 Y112.041 E2.28117
G1 X94.877 Y112.611 E2.28542
G1 X94.710 Y113.194 E2.28992
G1 X94.420 Y113.754 E2.29460
G1 X94.051 Y114.208 E2.29894
G1 X93.886 Y114.127 F7800.000
G1 X93.415 Y114.511 E2.30345 F1800.000
G1 X92.886 Y114.784 E2.30787
G1 X92.337 Y114.942 E2.31211
G1 X91.800 Y114.992 E2.31611
G1 X91.263 Y114.942 E2.32012
G1 X90.714 Y114.784 E2.32436
G1 X90.185 Y114.511 E2.32877
G1 X89.714 Y114.127 E2.33329
G1 X89.330 Y113.656 E2.33780
G1 X89.057 Y113.127 E2.34221
G1 X88.899 Y112.578 E2.34645
G1 X88.850 Y112.041 E2.35046
G1 X88.899 Y111.504 E2.35446
G1 X89.057 Y110.955 E2.35870
G1 X89.330 Y110.426 E2.36312
G1 X89.714 Y109.955 E2.36763
G1 X90.185 Y109.572 E2.37214
G1 X90.714 Y109.298 E2.37656
G1 X91.263 Y109.140 E2.38080
G1 X91.790 Y109.092 E2.38473 F1800.000
G1 X92.337 Y109.140 E2.38881
G1 X92.886 Y109.298 E2.39305
G1 X93.415 Y109.572 E2.39747
G1 X93.886 Y109.955 E2.40198
G1 X94.270 Y110.426 E2.40649
G1 X94.543 Y110.955 E2.41091
G1 X94.701 Y111.504 E2.41515
G1 X94.750 Y112.041 E2.41915
G1 X94.701 Y112.578 E2.42315
G1 X94.543 Y113.127 E2.42740
G1 X94.270 Y113.656 E2.43181
G1 X93.924 Y114.081 E2.43588
G1 X93.977 Y114.517 F7800.000
G1 X95.736 Y113.835 F7800.000
G1 X129.532 Y113.835 E2.68674 F1800.000
G1 X129.532 Y107.775 E2.73172
G1 X129.557 Y107.775 E2.73191
G1 X129.557 Y103.166 E2.76612
G1 X132.005 Y103.166 E2.78429
G1 X132.005 Y116.822 E2.88566
G1 X87.995 Y116.822 E3.21234
G1 X87.995 Y103.166 E3.31370
G1 X90.443 Y103.166 E3.33187
G1 X90.443 Y107.775 E3.36608
G1 X95.736 Y107.775 E3.40537
G1 X95.736 Y113.775 E3.44991
G1 X95.914 Y113.656 F7800.000
G1 X129.353 Y113.656 E3.69812 F1800.000
G1 X129.353 Y107.596 E3.74310
G1 X129.379 Y107.596 E3.74329
G1 X129.379 Y102.987 E3.77750
G1 X132.184 Y102.987 E3.79832
G1 X132.184 Y117.000 E3.90234
G1 X87.816 Y117.000 E4.23167
G1 X87.816 Y102.987 E4.33568
G1 X90.621 Y102.987 E4.35650
G1 X90.621 Y107.596 E4.39071
G1 X95.914 Y107.596 E4.43000
G1 X95.914 Y113.596 E4.47454
G1 X96.093 Y113.478 F7800.000
G1 X129.175 Y113.478 E4.72010 F1800.000
G1 X129.175 Y107.417 E4.76508
G1 X129.200 Y107.417 E4.76527
G1 X129.200 Y102.809 E4.79948
G1 X132.362 Y102.809 E4.82295
G1 X132.362 Y117.179 E4.92962
G1 X87.638 Y117.179 E5.26160
G1 X87.638 Y102.809 E5.36827
G1 X90.800 Y102.809 E5.39174
G1 X90.800 Y107.417 E5.42595
G1 X96.093 Y107.417 E5.46523
G1 X96.093 Y113.418 E5.50977
G1 X96.093 Y113.878 F7800.000
G1 X95.642 Y113.515 F7800.000
G1 X95.059 Y112.932 E5.51592 F1800.000
G1 X95.116 Y112.735 E5.51744
G1 X95.642 Y113.261 E5.52299
G1 X95.642 Y113.007 E5.52488
G1 X95.156 Y112.521 E5.53000
G1 X95.177 Y112.289 E5.53174
G1 X95.642 Y112.754 E5.53664
G1 X95.642 Y112.500 E5.53853
G1 X95.198 Y112.057 E5.54320
G1 X95.184 Y111.788 E5.54521
G1 X95.642 Y112.247 E5.55004
G1 X95.642 Y111.993 E5.55193
G1 X95.158 Y111.509 E5.55703
G1 X95.093 Y111.190 E5.55946
G1 X95.642 Y111.739 E5.56525
G1 X95.642 Y111.486 E5.56714
G1 X94.990 Y110.834 E5.57401
G1 X94.765 Y110.355 F7800.000
G1 X95.642 Y111.232 E5.58326 F1800.000
G1 X95.642 Y110.979 E5.58515
G1 X92.532 Y107.868 E5.61794
G1 X92.278 Y107.868 E5.61983
G1 X93.486 Y109.076 E5.63256
G1 X93.007 Y108.851 F7800.000
G1 X92.025 Y107.868 E5.64292 F1800.000
G1 X91.771 Y107.868 E5.64481
G1 X92.651 Y108.749 E5.65409
G1 X92.332 Y108.683 E5.65652
G1 X91.517 Y107.868 E5.66511
G1 X91.264 Y107.868 E5.66700
G1 X92.054 Y108.659 E5.67533
G1 X91.784 Y108.643 E5.67735
G1 X91.010 Y107.868 E5.68551
G1 X90.757 Y107.868 E5.68740
G1 X91.552 Y108.664 E5.69579
G1 X91.320 Y108.685 E5.69753
G1 X90.503 Y107.868 E5.70614
G1 X90.349 Y107.714 F7800.000
G1 X88.089 Y105.454 E5.72997 F1800.000
G1 X88.089 Y105.708 E5.73186
G1 X91.106 Y108.725 E5.76367
G1 X90.909 Y108.782 E5.76520
G1 X88.089 Y105.962 E5.79493
G1 X88.089 Y106.215 E5.79682
G1 X90.712 Y108.838 E5.82448
G1 X90.523 Y108.903 E5.82597
G1 X88.089 Y106.469 E5.85164
G1 X88.089 Y106.722 E5.85353
G1 X90.356 Y108.990 E5.87744
G1 X90.189 Y109.076 E5.87884
G1 X88.089 Y106.976 E5.90099
G1 X88.089 Y107.230 E5.90288
G1 X90.022 Y109.163 E5.92326
G1 X89.871 Y109.266 E5.92462
G1 X88.089 Y107.483 E5.94342
G1 X88.089 Y107.737 E5.94531
G1 X89.731 Y109.379 E5.96263
G1 X89.591 Y109.493 E5.96397
G1 X88.089 Y107.990 E5.97981
G1 X88.089 Y108.244 E5.98170
G1 X89.451 Y109.607 E5.99607
G1 X89.329 Y109.738 E5.99741
G1 X88.089 Y108.497 E6.01048
G1 X88.089 Y108.751 E6.01237
G1 X89.215 Y109.878 E6.02425
G1 X89.102 Y110.017 E6.02559
G1 X88.089 Y109.005 E6.03627
G1 X88.089 Y109.258 E6.03816
G1 X88.988 Y110.157 E6.04764
G1 X88.894 Y110.317 E6.04902
G1 X88.089 Y109.512 E6.05751
G1 X88.089 Y109.765 E6.05940
G1 X88.808 Y110.484 E6.06698
G1 X88.721 Y110.651 E6.06838
G1 X88.089 Y110.019 E6.07505
G1 X88.089 Y110.273 E6.07694
G1 X88.636 Y110.820 E6.08271
G1 X88.579 Y111.017 E6.08424
G1 X88.089 Y110.526 E6.08940
G1 X88.089 Y110.780 E6.09130
G1 X88.522 Y111.214 E6.09587
G1 X88.466 Y111.411 E6.09740
G1 X88.089 Y111.033 E6.10137
G1 X88.089 Y111.287 E6.10326
G1 X88.437 Y111.636 E6.10694
G1 X88.416 Y111.868 E6.10867
G1 X88.089 Y111.541 E6.11212
G1 X88.089 Y111.794 E6.11401
G1 X88.399 Y112.104 E6.11728
G1 X88.425 Y112.384 E6.11937
G1 X88.089 Y112.048 E6.12291
G1 X88.089 Y112.301 E6.12480
G1 X88.450 Y112.663 E6.12861
G1 X88.540 Y113.007 E6.13126
G1 X88.089 Y112.555 E6.13603
G1 X88.089 Y112.809 E6.13792
G1 X88.650 Y113.370 E6.14384
G1 X88.923 Y113.896 F7800.000
G1 X88.089 Y113.062 E6.15263 F1800.000
G1 X88.089 Y113.316 E6.15452
G1 X91.501 Y116.728 E6.19050
G1 X91.755 Y116.728 E6.19239
G1 X89.945 Y114.918 E6.21147
G1 X90.471 Y115.191 F7800.000
G1 X92.008 Y116.728 E6.22768 F1800.000
G1 X92.262 Y116.728 E6.22957
G1 X90.834 Y115.301 E6.24462
G1 X91.178 Y115.391 E6.24727
G1 X92.515 Y116.728 E6.26136
G1 X92.769 Y116.728 E6.26325
G1 X91.458 Y115.417 E6.27708
G1 X91.737 Y115.442 E6.27917
G1 X93.023 Y116.728 E6.29273
G1 X93.276 Y116.728 E6.29462
G1 X91.973 Y115.425 E6.30836
G1 X92.206 Y115.404 E6.31010
G1 X93.530 Y116.728 E6.32406
G1 X93.783 Y116.728 E6.32595
G1 X92.431 Y115.375 E6.34021
G1 X92.628 Y115.319 E6.34174
G1 X94.037 Y116.728 E6.35660
G1 X94.291 Y116.728 E6.35849
G1 X92.825 Y115.262 E6.37395
G1 X93.021 Y115.205 E6.37548
G1 X94.544 Y116.728 E6.39153
G1 X94.798 Y116.728 E6.39342
