; generated by Slic3r 1.2.9 on 2017-04-07 at 22:25:48

; external perimeters extrusion width = 0.40mm
; perimeters extrusion width = 0.68mm
; infill extrusion width = 1.28mm
; solid infill extrusion width = 0.68mm
; top infill extrusion width = 0.68mm
; support material extrusion width = 0.40mm

M107
M190 S60 ; set bed temperature
M104 S200 ; set temperature
G28 ; home all axes
G1 Z5 F5000 ; lift nozzle

M109 S200 ; wait for temperature to be reached
G21 ; set units to millimeters
G90 ; use absolute coordinates
M82 ; use absolute distances for extrusion
G92 E0
G1 Z0.100 F7800.000
G1 E-2.00000 F2400.00000
G92 E0
G1 X81.834 Y88.991 F7800.000
G1 E2.00000 F2400.00000
G1 X83.607 Y87.374 E2.01781 F1800.000
G1 X86.483 Y86.292 E2.04062
G1 X97.146 Y84.725 E2.12062
G1 X98.201 Y84.647 E2.12847
G1 X121.767 Y84.647 E2.30340
G1 X122.818 Y84.724 E2.31122
G1 X133.514 Y86.292 E2.39146 F1800.000
G1 X135.798 Y87.028 E2.40928
G1 X137.717 Y88.470 E2.42709
G1 X139.059 Y90.459 E2.44491
G1 X139.712 Y93.465 E2.46774
G1 X139.712 Y126.535 E2.71321
G1 X139.315 Y128.902 E2.73102
G1 X138.166 Y131.009 E2.74884
G1 X136.393 Y132.626 E2.76665
G1 X133.497 Y133.710 E2.78961
G1 X122.629 Y135.278 E2.87111
G1 X121.594 Y135.353 E2.87881
G1 X98.029 Y135.353 E3.05374
G1 X96.957 Y135.273 E3.06172
G1 X86.466 Y133.705 E3.14045
G1 X84.184 Y132.962 E3.15827
G1 X82.269 Y131.515 E3.17608
G1 X80.932 Y129.522 E3.19389
G1 X80.288 Y126.535 E3.21658
G1 X80.288 Y93.465 E3.46205
G1 X80.685 Y91.098 E3.47986
G1 X81.805 Y89.043 E3.49723
G1 X81.996 Y89.081 F7800.000
G1 X83.779 Y87.476 E3.51504 F1800.000
G1 X86.509 Y86.469 E3.53664
G1 X97.172 Y84.901 E3.61664
G1 X98.201 Y84.826 E3.62430
G1 X121.767 Y84.826 E3.79922
G1 X122.792 Y84.901 E3.80685
G1 X133.488 Y86.469 E3.88709 F1800.000
G1 X135.742 Y87.201 E3.90468
G1 X137.628 Y88.636 E3.92228
G1 X138.933 Y90.614 E3.93987
G1 X139.533 Y93.465 E3.96150
G1 X139.533 Y126.535 E4.20697
G1 X139.136 Y128.871 E4.22456
G1 X137.989 Y130.945 E4.24215
G1 X136.222 Y132.524 E4.25974
G1 X133.472 Y133.534 E4.28149
G1 X122.604 Y135.102 E4.36299
G1 X121.594 Y135.174 E4.37050
G1 X98.029 Y135.174 E4.54543
G1 X96.983 Y135.096 E4.55321
G1 X86.493 Y133.528 E4.63194
G1 X84.241 Y132.790 E4.64954
G1 X82.359 Y131.349 E4.66713
G1 X81.059 Y129.368 E4.68472
G1 X80.467 Y126.535 E4.70620
G1 X80.467 Y93.465 E4.95167
G1 X80.864 Y91.129 E4.96927
G1 X81.967 Y89.133 E4.98619
G1 X82.158 Y89.172 F7800.000
G1 X82.188 Y89.119 E4.98664 F1800.000
G1 X83.950 Y87.580 E5.00400
G1 X86.535 Y86.646 E5.02441
G1 X97.198 Y85.078 E5.10441
G1 X98.201 Y85.005 E5.11187
G1 X121.767 Y85.005 E5.28680
G1 X122.766 Y85.077 E5.29424
G1 X133.462 Y86.645 E5.37448 F1800.000
G1 X135.686 Y87.373 E5.39184
G1 X137.538 Y88.802 E5.40921
G1 X138.805 Y90.769 E5.42658
G1 X139.355 Y93.465 E5.44701
G1 X139.355 Y126.535 E5.69248
G1 X138.958 Y128.841 E5.70984
G1 X137.812 Y130.881 E5.72721
G1 X136.050 Y132.420 E5.74458
G1 X133.446 Y133.357 E5.76512
G1 X122.578 Y134.925 E5.84662
G1 X121.594 Y134.995 E5.85395
G1 X98.029 Y134.995 E6.02887
G1 X97.010 Y134.920 E6.03646
G1 X86.519 Y133.352 E6.11519
G1 X84.297 Y132.618 E6.13256
G1 X82.449 Y131.184 E6.14993
G1 X81.187 Y129.214 E6.16729
G1 X80.645 Y126.535 E6.18758
G1 X80.645 Y93.465 E6.43305
G1 X81.042 Y91.159 E6.45042
G1 X82.129 Y89.224 E6.46689
G1 X82.320 Y89.264 F7800.000
G1 X82.365 Y89.185 E6.46757 F1800.000
G1 X84.121 Y87.686 E6.48471
G1 X86.561 Y86.822 E6.50392
G1 X97.224 Y85.255 E6.58392
G1 X98.201 Y85.183 E6.59119
G1 X121.767 Y85.183 E6.76612
G1 X122.741 Y85.254 E6.77336
G1 X133.436 Y86.822 E6.85360 F1800.000
G1 X135.629 Y87.545 E6.87074
G1 X137.447 Y88.968 E6.88788
G1 X138.676 Y90.922 E6.90502
G1 X139.176 Y93.465 E6.92426
G1 X139.176 Y126.535 E7.16973
G1 X138.779 Y128.809 E7.18687
G1 X137.635 Y130.815 E7.20400
G1 X135.879 Y132.314 E7.22114
G1 X133.421 Y133.180 E7.24049
G1 X122.553 Y134.748 E7.32200
G1 X121.594 Y134.817 E7.32913
G1 X98.029 Y134.817 E7.50405
G1 X97.036 Y134.743 E7.51144
G1 X86.545 Y133.175 E7.59018
G1 X84.355 Y132.446 E7.60732
G1 X82.540 Y131.018 E7.62446
G1 X81.317 Y129.060 E7.64159
G1 X80.824 Y126.535 E7.66069
G1 X80.824 Y93.465 E7.90616
G1 X81.221 Y91.191 E7.92330
G1 X82.290 Y89.316 E7.93932
G1 X82.481 Y89.357 F7800.000
G1 X82.542 Y89.252 E7.94023 F1800.000
G1 X84.291 Y87.793 E7.95714
G1 X86.587 Y86.999 E7.97517
G1 X97.250 Y85.431 E8.05517
G1 X98.201 Y85.362 E8.06224
G1 X121.767 Y85.362 E8.23717
G1 X122.715 Y85.431 E8.24422
G1 X133.410 Y86.999 E8.32446 F1800.000
G1 X135.572 Y87.717 E8.34137
G1 X137.356 Y89.133 E8.35828
G1 X138.545 Y91.076 E8.37519
G1 X138.998 Y93.465 E8.39324
G1 X138.998 Y126.535 E8.63871
G1 X138.601 Y128.778 E8.65562
G1 X137.458 Y130.748 E8.67253
G1 X135.709 Y132.207 E8.68943
G1 X133.395 Y133.004 E8.70759
G1 X122.527 Y134.571 E8.78910
G1 X121.594 Y134.638 E8.79604
G1 X98.029 Y134.638 E8.97097
G1 X97.062 Y134.567 E8.97816
G1 X86.572 Y132.999 E9.05689
G1 X84.412 Y132.275 E9.07380
G1 X82.632 Y130.853 E9.09071
G1 X81.448 Y128.907 E9.10762
G1 X81.002 Y126.535 E9.12554
G1 X81.002 Y93.465 E9.37101
G1 X81.399 Y91.222 E9.38792
G1 X82.451 Y89.409 E9.40347
G1 X82.641 Y89.452 F7800.000
G1 X82.719 Y89.319 E9.40461 F1800.000
G1 X84.461 Y87.902 E9.42129
G1 X86.613 Y87.176 E9.43814
G1 X97.276 Y85.608 E9.51814
G1 X98.201 Y85.540 E9.52503
G1 X121.767 Y85.540 E9.69995
G1 X122.689 Y85.607 E9.70681
G1 X133.384 Y87.175 E9.78705 F1800.000
G1 X135.514 Y87.889 E9.80373
G1 X137.263 Y89.298 E9.82040
G1 X138.413 Y91.228 E9.83707
G1 X138.819 Y93.465 E9.85395
G1 X138.819 Y126.535 E10.09942
G1 X138.422 Y128.746 E10.11610
G1 X137.281 Y130.681 E10.13277
G1 X135.539 Y132.098 E10.14944
G1 X133.370 Y132.827 E10.16643
G1 X122.502 Y134.395 E10.24793
G1 X121.594 Y134.460 E10.25469
G1 X98.029 Y134.460 E10.42961
G1 X97.089 Y134.390 E10.43661
G1 X86.598 Y132.822 E10.51534
G1 X84.470 Y132.103 E10.53201
G1 X82.725 Y130.688 E10.54869
G1 X81.581 Y128.755 E10.56536
G1 X81.181 Y126.535 E10.58211
G1 X81.181 Y93.465 E10.82758
G1 X81.578 Y91.254 E10.84425
G1 X82.610 Y89.503 E10.85934
G1 X82.800 Y89.547 F7800.000
G1 X82.895 Y89.388 E10.86072 F1800.000
G1 X84.631 Y88.013 E10.87715
G1 X86.639 Y87.352 E10.89285
G1 X97.302 Y85.784 E10.97285
G1 X98.201 Y85.719 E10.97954
G1 X121.767 Y85.719 E11.15446
G1 X122.663 Y85.784 E11.16113
G1 X133.358 Y87.352 E11.24137 F1800.000
G1 X135.456 Y88.060 E11.25781
G1 X137.169 Y89.463 E11.27424
G1 X138.278 Y91.380 E11.29068
G1 X138.641 Y93.465 E11.30639
G1 X138.641 Y126.535 E11.55186
G1 X138.244 Y128.713 E11.56830
G1 X137.105 Y130.612 E11.58473
G1 X135.369 Y131.987 E11.60117
G1 X133.344 Y132.650 E11.61698
G1 X122.476 Y134.218 E11.69849
G1 X121.594 Y134.281 E11.70505
G1 X98.029 Y134.281 E11.87998
G1 X97.115 Y134.213 E11.88677
G1 X86.625 Y132.646 E11.96551
G1 X84.529 Y131.931 E11.98195
G1 X82.819 Y130.524 E11.99838
G1 X81.716 Y128.604 E12.01482
G1 X81.359 Y126.535 E12.03040
G1 X81.359 Y93.465 E12.27587
G1 X81.756 Y91.287 E12.29231
G1 X82.769 Y89.599 E12.30692
G1 E10.30692 F2400.00000
G92 E0
G1 X132.005 Y126.078 F7800.000
G1 E2.00000 F2400.00000
G1 X129.557 Y126.078 E2.01817 F1800.000
G1 X129.557 Y93.922 E2.25685
G1 X132.005 Y93.922 E2.27502
G1 X132.005 Y126.018 E2.51326
G1 X132.184 Y126.256 F7800.000
G1 X129.379 Y126.256 E2.53408 F1800.000
G1 X129.379 Y93.744 E2.77542
G1 X132.184 Y93.744 E2.79624
G1 X132.184 Y126.196 E3.03713
G1 X132.362 Y126.435 F7800.000
G1 X129.200 Y126.435 E3.06060 F1800.000
G1 X129.200 Y93.565 E3.30458
G1 X132.362 Y93.565 E3.32805
G1 X132.362 Y126.375 E3.57159
G1 X132.016 Y126.235 F7800.000
G1 X130.021 Y125.984 F7800.000
G1 X129.651 Y125.615 E3.57549 F1800.000
G1 X129.651 Y125.361 E3.57738
G1 X130.274 Y125.984 E3.58395
G1 X130.528 Y125.984 E3.58584
G1 X129.651 Y125.107 E3.59509
G1 X129.651 Y124.854 E3.59698
G1 X130.782 Y125.984 E3.60891
G1 X131.035 Y125.984 E3.61080
G1 X129.651 Y124.600 E3.62540
G1 X129.651 Y124.346 E3.62729
G1 X131.289 Y125.984 E3.64457
G1 X131.543 Y125.984 E3.64646
G1 X129.651 Y124.092 E3.66641
G1 X129.651 Y123.839 E3.66830
G1 X131.796 Y125.984 E3.69093
G1 X131.911 Y125.845 E3.69227
G1 X129.651 Y123.585 E3.71611
G1 X129.651 Y123.331 E3.71800
G1 X131.911 Y125.591 E3.74184
G1 X131.911 Y125.338 E3.74373
G1 X129.651 Y123.078 E3.76757
G1 X129.651 Y122.824 E3.76946
G1 X131.911 Y125.084 E3.79330
G1 X131.911 Y124.830 E3.79519
G1 X129.651 Y122.570 E3.81903
G1 X129.651 Y122.316 E3.82092
G1 X131.911 Y124.576 E3.84476
G1 X131.911 Y124.323 E3.84665
G1 X129.651 Y122.063 E3.87049
G1 X129.651 Y121.809 E3.87238
G1 X131.911 Y124.069 E3.89622
G1 X131.911 Y123.815 E3.89811
G1 X129.651 Y121.555 E3.92195
G1 X129.651 Y121.302 E3.92384
G1 X131.911 Y123.562 E3.94768
G1 X131.911 Y123.308 E3.94957
G1 X129.651 Y121.048 E3.97341
G1 X129.651 Y120.794 E3.97530
G1 X131.911 Y123.054 E3.99914
G1 X131.911 Y122.800 E4.00103
G1 X129.651 Y120.541 E4.02487
G1 X129.651 Y120.287 E4.02676
G1 X131.911 Y122.547 E4.05060
G1 X131.911 Y122.293 E4.05249
G1 X129.651 Y120.033 E4.07633
G1 X129.651 Y119.779 E4.07822
G1 X131.911 Y122.039 E4.10206
G1 X131.911 Y121.786 E4.10395
G1 X129.651 Y119.526 E4.12779
G1 X129.651 Y119.272 E4.12968
G1 X131.911 Y121.532 E4.15352
G1 X131.911 Y121.278 E4.15541
G1 X129.651 Y119.018 E4.17925
G1 X129.651 Y118.765 E4.18114
G1 X131.911 Y121.025 E4.20497
G1 X131.911 Y120.771 E4.20687
G1 X129.651 Y118.511 E4.23070
G1 X129.651 Y118.257 E4.23260
G1 X131.911 Y120.517 E4.25643
G1 X131.911 Y120.263 E4.25833
G1 X129.651 Y118.003 E4.28216
G1 X129.651 Y117.750 E4.28406
G1 X131.911 Y120.010 E4.30789
G1 X131.911 Y119.756 E4.30979
G1 X129.651 Y117.496 E4.33362
G1 X129.651 Y117.242 E4.33552
G1 X131.911 Y119.502 E4.35935
G1 X131.911 Y119.249 E4.36125
G1 X129.651 Y116.989 E4.38508
G1 X129.651 Y116.735 E4.38697
G1 X131.911 Y118.995 E4.41081
G1 X131.911 Y118.741 E4.41270
G1 X129.651 Y116.481 E4.43654
G1 X129.651 Y116.228 E4.43843
G1 X131.911 Y118.487 E4.46227
G1 X131.911 Y118.234 E4.46416
G1 X129.651 Y115.974 E4.48800
G1 X129.651 Y115.720 E4.48989
G1 X131.911 Y117.980 E4.51373
G1 X131.911 Y117.726 E4.51562
G1 X129.651 Y115.466 E4.53946
G1 X129.651 Y115.213 E4.54135
G1 X131.911 Y117.473 E4.56519
G1 X131.911 Y117.219 E4.56708
G1 X129.651 Y114.959 E4.59092
G1 X129.651 Y114.705 E4.59281
G1 X131.911 Y116.965 E4.61665
G1 X131.911 Y116.712 E4.61854
G1 X129.651 Y114.452 E4.64238
G1 X129.651 Y114.198 E4.64427
G1 X131.911 Y116.458 E4.66811
G1 X131.911 Y116.204 E4.67000
G1 X129.651 Y113.944 E4.69384
G1 X129.651 Y113.691 E4.69573
G1 X131.911 Y115.950 E4.71957
G1 X131.911 Y115.697 E4.72146
G1 X129.651 Y113.437 E4.74530
G1 X129.651 Y113.183 E4.74719
G1 X131.911 Y115.443 E4.77103
G1 X131.911 Y115.189 E4.77292
G1 X129.651 Y112.929 E4.79676
G1 X129.651 Y112.676 E4.79865
G1 X131.911 Y114.936 E4.82249
G1 X131.911 Y114.682 E4.82438
G1 X129.651 Y112.422 E4.84822
G1 X129.651 Y112.168 E4.85011
G1 X131.911 Y114.428 E4.87395
G1 X131.911 Y114.175 E4.87584
G1 X129.651 Y111.915 E4.89968
G1 X129.651 Y111.661 E4.90157
G1 X131.911 Y113.921 E4.92541
G1 X131.911 Y113.667 E4.92730
G1 X129.651 Y111.407 E4.95113
G1 X129.651 Y111.153 E4.95303
G1 X131.911 Y113.413 E4.97686
G1 X131.911 Y113.160 E4.97876
G1 X129.651 Y110.900 E5.00259
G1 X129.651 Y110.646 E5.00449
G1 X131.911 Y112.906 E5.02832
G1 X131.911 Y112.652 E5.03022
G1 X129.651 Y110.392 E5.05405
G1 X129.651 Y110.139 E5.05595
G1 X131.911 Y112.399 E5.07978
G1 X131.911 Y112.145 E5.08168
G1 X129.651 Y109.885 E5.10551
G1 X129.651 Y109.631 E5.10740
G1 X131.911 Y111.891 E5.13124
G1 X131.911 Y111.637 E5.13313
G1 X129.651 Y109.378 E5.15697
G1 X129.651 Y109.124 E5.15886
G1 X131.911 Y111.384 E5.18270
G1 X131.911 Y111.130 E5.18459
G1 X129.651 Y108.870 E5.20843
G1 X129.651 Y108.616 E5.21032
G1 X131.911 Y110.876 E5.23416
G1 X131.911 Y110.623 E5.23605
G1 X129.651 Y108.363 E5.25989
G1 X129.651 Y108.109 E5.26178
G1 X131.911 Y110.369 E5.28562
G1 X131.911 Y110.115 E5.28751
G1 X129.651 Y107.855 E5.31135
G1 X129.651 Y107.602 E5.31324
G1 X131.911 Y109.862 E5.33708
G1 X131.911 Y109.608 E5.33897
G1 X129.651 Y107.348 E5.36281
G1 X129.651 Y107.094 E5.36470
G1 X131.911 Y109.354 E5.38854
G1 X131.911 Y109.100 E5.39043
G1 X129.651 Y106.840 E5.41427
G1 X129.651 Y106.587 E5.41616
G1 X131.911 Y108.847 E5.44000
G1 X131.911 Y108.593 E5.44189
G1 X129.651 Y106.333 E5.46573
G1 X129.651 Y106.079 E5.46762
G1 X131.911 Y108.339 E5.49146
G1 X131.911 Y108.086 E5.49335
G1 X129.651 Y105.826 E5.51719
G1 X129.651 Y105.572 E5.51908
G1 X131.911 Y107.832 E5.54292
G1 X131.911 Y107.578 E5.54481
G1 X129.651 Y105.318 E5.56865
G1 X129.651 Y105.065 E5.57054
G1 X131.911 Y107.324 E5.59438
G1 X131.911 Y107.071 E5.59627
G1 X129.651 Y104.811 E5.62011
G1 X129.651 Y104.557 E5.62200
G1 X131.911 Y106.817 E5.64583
G1 X131.911 Y106.563 E5.64773
G1 X129.651 Y104.303 E5.67156
G1 X129.651 Y104.050 E5.67346
G1 X131.911 Y106.310 E5.69729
G1 X131.911 Y106.056 E5.69919
G1 X129.651 Y103.796 E5.72302
G1 X129.651 Y103.542 E5.72492
G1 X131.911 Y105.802 E5.74875
G1 X131.911 Y105.549 E5.75065
G1 X129.651 Y103.289 E5.77448
G1 X129.651 Y103.035 E5.77638
G1 X131.911 Y105.295 E5.80021
G1 X131.911 Y105.041 E5.80210
G1 X129.651 Y102.781 E5.82594
G1 X129.651 Y102.527 E5.82783
G1 X131.911 Y104.787 E5.85167
G1 X131.911 Y104.534 E5.85356
G1 X129.651 Y102.274 E5.87740
G1 X129.651 Y102.020 E5.87929
G1 X131.911 Y104.280 E5.90313
G1 X131.911 Y104.026 E5.90502
G1 X129.651 Y101.766 E5.92886
G1 X129.651 Y101.513 E5.93075
G1 X131.911 Y103.773 E5.95459
G1 X131.911 Y103.519 E5.95648
G1 X129.651 Y101.259 E5.98032
G1 X129.651 Y101.005 E5.98221
G1 X131.911 Y103.265 E6.00605
G1 X131.911 Y103.011 E6.00794
G1 X129.651 Y100.752 E6.03178
G1 X129.651 Y100.498 E6.03367
G1 X131.911 Y102.758 E6.05751
G1 X131.911 Y102.504 E6.05940
G1 X129.651 Y100.244 E6.08324
G1 X129.651 Y99.990 E6.08513
G1 X131.911 Y102.250 E6.10897
G1 X131.911 Y101.997 E6.11086
G1 X129.651 Y99.737 E6.13470
G1 X129.651 Y99.483 E6.13659
G1 X131.911 Y101.743 E6.16043
G1 X131.911 Y101.489 E6.16232
G1 X129.651 Y99.229 E6.18616
G1 X129.651 Y98.976 E6.18805
G1 X131.911 Y101.236 E6.21189
G1 X131.911 Y100.982 E6.21378
G1 X129.651 Y98.722 E6.23762
G1 X129.651 Y98.468 E6.23951
G1 X131.911 Y100.728 E6.26335
G1 X131.911 Y100.474 E6.26524
G1 X129.651 Y98.215 E6.28908
G1 X129.651 Y97.961 E6.29097
G1 X131.911 Y100.221 E6.31480
G1 X131.911 Y99.967 E6.31670
G1 X129.651 Y97.707 E6.34053
G1 X129.651 Y97.453 E6.34243
G1 X131.911 Y99.713 E6.36626
G1 X131.911 Y99.460 E6.36816
G1 X129.651 Y97.200 E6.39199
G1 X129.651 Y96.946 E6.39389
G1 X131.911 Y99.206 E6.41772
G1 X131.911 Y98.952 E6.41962
G1 X129.651 Y96.692 E6.44345
G1 X129.651 Y96.439 E6.44534
G1 X131.911 Y98.699 E6.46918
G1 X131.911 Y98.445 E6.47107
G1 X129.651 Y96.185 E6.49491
G1 X129.651 Y95.931 E6.49680
G1 X131.911 Y98.191 E6.52064
G1 X131.911 Y97.937 E6.52253
G1 X129.651 Y95.677 E6.54637
G1 X129.651 Y95.424 E6.54826
G1 X131.911 Y97.684 E6.57210
G1 X131.911 Y97.430 E6.57399
G1 X129.651 Y95.170 E6.59783
G1 X129.651 Y94.916 E6.59972
G1 X131.911 Y97.176 E6.62356
G1 X131.911 Y96.923 E6.62545
G1 X129.651 Y94.663 E6.64929
G1 X129.651 Y94.409 E6.65118
G1 X131.911 Y96.669 E6.67502
G1 X131.911 Y96.415 E6.67691
G1 X129.651 Y94.155 E6.70075
G1 X129.766 Y94.016 E6.70209
G1 X131.911 Y96.161 E6.72472
G1 X131.911 Y95.908 E6.72661
G1 X130.019 Y94.016 E6.74657
G1 X130.273 Y94.016 E6.74846
G1 X131.911 Y95.654 E6.76574
G1 X131.911 Y95.400 E6.76763
G1 X130.527 Y94.016 E6.78223
G1 X130.781 Y94.016 E6.78412
G1 X131.911 Y95.147 E6.79605
G1 X131.911 Y94.893 E6.79794
G1 X131.034 Y94.016 E6.80719
G1 X131.288 Y94.016 E6.80908
G1 X131.911 Y94.639 E6.81565
G1 X131.911 Y94.386 E6.81755
G1 X131.542 Y94.016 E6.82144
G1 X131.795 Y94.016 E6.82334
G1 X131.911 Y94.132 E6.82456
G1 E4.82456 F2400.00000
G92 E0
G1 X90.443 Y126.078 F7800.000
G1 E2.00000 F2400.00000
G1 X87.995 Y126.078 E2.01817 F1800.000
G1 X87.995 Y93.922 E2.25685
G1 X90.443 Y93.922 E2.27502
G1 X90.443 Y126.018 E2.51326
G1 X90.621 Y126.256 F7800.000
G1 X87.816 Y126.256 E2.53408 F1800.000
G1 X87.816 Y93.744 E2.77542
G1 X90.621 Y93.744 E2.79624
G1 X90.621 Y126.196 E3.03713
G1 X90.800 Y126.435 F7800.000
G1 X87.638 Y126.435 E3.06060 F1800.000
G1 X87.638 Y93.565 E3.30458
G1 X90.800 Y93.565 E3.32805
G1 X90.800 Y126.375 E3.57159
G1 X90.453 Y126.235 F7800.000
G1 X88.458 Y125.984 F7800.000
