;FLAVOR:RepRap
;TIME:1424
;Filament used: 0.379488m
;Layer height: 0.1
;Generated with Cura_SteamEngine 2.5.0-BETA
M190 S50
M104 S200
M109 S200
G28 ;Home
G1 Z15.0 F6000 ;Move the platform down 15mm
;Prime the extruder
G92 E0
G1 F200 E3
G92 E0
;LAYER_COUNT:278
;LAYER:0
M107
G0 F4500 X102.973 Y98.075 Z0.1
;TYPE:SKIRT
G1 F1800 X103.428 Y97.695 E0.00986
G1 X103.931 Y97.381 E0.01972
G1 X104.471 Y97.136 E0.02958
G1 X105.04 Y96.967 E0.03945
G1 X105.625 Y96.876 E0.0493
G1 X106.01 Y96.859 E0.05571
G1 X113.992 Y96.86 E0.18845
G1 X114.583 Y96.9 E0.1983
G1 X115.164 Y97.019 E0.20816
G1 X115.724 Y97.215 E0.21803
G1 X116.252 Y97.485 E0.22789
G1 X116.739 Y97.823 E0.23775
G1 X117.176 Y98.224 E0.24761
G1 X117.555 Y98.68 E0.25747
G1 X117.87 Y99.182 E0.26733
G1 X118.114 Y99.723 E0.2772
G1 X118.283 Y100.291 E0.28705
G1 X118.374 Y100.877 E0.29691
G1 X118.391 Y101.26 E0.30329
G1 X118.391 Y118.741 E0.594
G1 X118.351 Y119.333 E0.60387
G1 X118.232 Y119.913 E0.61371
G1 X118.036 Y120.473 E0.62358
G1 X117.766 Y121.001 E0.63344
G1 X117.428 Y121.488 E0.6433
G1 X117.027 Y121.925 E0.65316
G1 X116.572 Y122.305 E0.66302
G1 X116.069 Y122.619 E0.67288
G1 X115.529 Y122.864 E0.68275
G1 X114.96 Y123.033 E0.69262
G1 X114.375 Y123.124 E0.70246
G1 X113.991 Y123.141 E0.70885
G1 X106.009 Y123.141 E0.8416
G1 X105.417 Y123.101 E0.85146
G1 X104.837 Y122.982 E0.86131
G1 X104.277 Y122.786 E0.87118
G1 X103.749 Y122.516 E0.88104
G1 X103.262 Y122.178 E0.8909
G1 X102.825 Y121.777 E0.90076
G1 X102.445 Y121.322 E0.91062
G1 X102.131 Y120.819 E0.92048
G1 X101.886 Y120.279 E0.93034
G1 X101.717 Y119.71 E0.94021
G1 X101.626 Y119.125 E0.95006
G1 X101.609 Y118.741 E0.95645
G1 X101.609 Y101.259 E1.24718
G1 X101.649 Y100.667 E1.25704
G1 X101.768 Y100.087 E1.26689
G1 X101.964 Y99.527 E1.27676
G1 X102.234 Y98.999 E1.28662
G1 X102.572 Y98.512 E1.29648
G1 X102.973 Y98.075 E1.30634
G0 F4500 X103.365 Y98.257
G1 F1800 X103.815 Y97.915 E1.31574
G1 X104.308 Y97.639 E1.32514
G1 X104.836 Y97.435 E1.33455
G1 X105.386 Y97.308 E1.34394
G1 X106.01 Y97.259 E1.35435
G1 X113.992 Y97.26 E1.48709
G1 X114.555 Y97.3 E1.49647
G1 X115.108 Y97.419 E1.50588
G1 X115.638 Y97.615 E1.51528
G1 X116.136 Y97.884 E1.52469
G1 X116.59 Y98.22 E1.53408
G1 X116.993 Y98.617 E1.54349
G1 X117.336 Y99.066 E1.55289
G1 X117.612 Y99.56 E1.5623
G1 X117.815 Y100.087 E1.57169
G1 X117.942 Y100.638 E1.58109
G1 X117.991 Y101.26 E1.59147
G1 X117.991 Y118.741 E1.88218
G1 X117.951 Y119.305 E1.89158
G1 X117.832 Y119.858 E1.90099
G1 X117.636 Y120.388 E1.91039
G1 X117.368 Y120.885 E1.91978
G1 X117.032 Y121.34 E1.92918
G1 X116.635 Y121.743 E1.93859
G1 X116.185 Y122.085 E1.94799
G1 X115.692 Y122.361 E1.95739
G1 X115.164 Y122.565 E1.9668
G1 X114.614 Y122.692 E1.97619
G1 X113.991 Y122.741 E1.98658
G1 X106.009 Y122.741 E2.11932
G1 X105.445 Y122.701 E2.12872
G1 X104.892 Y122.582 E2.13813
G1 X104.362 Y122.386 E2.14753
G1 X103.865 Y122.118 E2.15692
G1 X103.41 Y121.782 E2.16632
G1 X103.007 Y121.385 E2.17573
G1 X102.665 Y120.935 E2.18513
G1 X102.389 Y120.442 E2.19453
G1 X102.185 Y119.914 E2.20394
G1 X102.058 Y119.364 E2.21333
G1 X102.009 Y118.741 E2.22372
G1 X102.009 Y101.259 E2.51445
G1 X102.049 Y100.695 E2.52385
G1 X102.168 Y100.142 E2.53326
G1 X102.364 Y99.612 E2.54265
G1 X102.632 Y99.115 E2.55204
G1 X102.968 Y98.66 E2.56145
G1 X103.365 Y98.257 E2.57086
G0 F4500 X103.756 Y98.451
G1 F1800 X104.198 Y98.148 E2.57977
G1 X104.681 Y97.913 E2.5887
G1 X105.192 Y97.753 E2.59761
G1 X105.722 Y97.67 E2.60653
G1 X106.009 Y97.659 E2.6113
G1 X113.991 Y97.66 E2.74405
G1 X114.526 Y97.7 E2.75297
G1 X115.049 Y97.819 E2.76189
G1 X115.549 Y98.014 E2.77081
G1 X116.013 Y98.282 E2.77972
G1 X116.433 Y98.615 E2.78864
G1 X116.799 Y99.007 E2.79756
G1 X117.103 Y99.45 E2.80649
G1 X117.337 Y99.932 E2.8154
G1 X117.497 Y100.444 E2.82432
G1 X117.58 Y100.974 E2.83324
G1 X117.591 Y101.26 E2.838
G1 X117.591 Y118.741 E3.12871
G1 X117.551 Y119.276 E3.13764
G1 X117.432 Y119.799 E3.14656
G1 X117.237 Y120.298 E3.15546
G1 X116.969 Y120.763 E3.16439
G1 X116.636 Y121.183 E3.1733
G1 X116.244 Y121.549 E3.18222
G1 X115.802 Y121.852 E3.19113
G1 X115.319 Y122.087 E3.20007
G1 X114.808 Y122.247 E3.20897
G1 X114.278 Y122.33 E3.21789
G1 X113.991 Y122.341 E3.22267
G1 X106.009 Y122.341 E3.35541
G1 X105.474 Y122.301 E3.36433
G1 X104.951 Y122.182 E3.37325
G1 X104.452 Y121.987 E3.38216
G1 X103.987 Y121.719 E3.39109
G1 X103.567 Y121.386 E3.4
G1 X103.201 Y120.994 E3.40892
G1 X102.898 Y120.552 E3.41783
G1 X102.663 Y120.069 E3.42676
G1 X102.503 Y119.558 E3.43567
G1 X102.42 Y119.028 E3.44459
G1 X102.409 Y118.741 E3.44937
G1 X102.409 Y101.259 E3.74009
G1 X102.449 Y100.724 E3.74902
G1 X102.568 Y100.201 E3.75794
G1 X102.763 Y99.702 E3.76684
G1 X103.031 Y99.237 E3.77577
G1 X103.364 Y98.817 E3.78468
G1 X103.756 Y98.451 E3.7936
G0 F4500 X104.145 Y98.658
G1 F1800 X104.578 Y98.397 E3.80201
G1 X105.046 Y98.207 E3.81041
G1 X105.539 Y98.094 E3.81882
G1 X106.009 Y98.059 E3.82666
G1 X113.991 Y98.06 E3.9594
G1 X114.495 Y98.1 E3.96781
G1 X114.987 Y98.219 E3.97623
G1 X115.453 Y98.414 E3.98463
G1 X115.883 Y98.679 E3.99303
G1 X116.266 Y99.01 E4.00144
G1 X116.592 Y99.396 E4.00985
G1 X116.853 Y99.829 E4.01825
G1 X117.043 Y100.298 E4.02667
G1 X117.156 Y100.79 E4.03507
G1 X117.191 Y101.26 E4.0429
G1 X117.191 Y118.741 E4.33361
G1 X117.151 Y119.245 E4.34202
G1 X117.032 Y119.736 E4.35042
G1 X116.838 Y120.203 E4.35883
G1 X116.572 Y120.633 E4.36724
G1 X116.242 Y121.016 E4.37565
G1 X115.855 Y121.342 E4.38406
G1 X115.422 Y121.603 E4.39247
G1 X114.954 Y121.793 E4.40087
G1 X114.461 Y121.906 E4.40928
G1 X113.991 Y121.941 E4.41712
G1 X106.009 Y121.941 E4.54986
G1 X105.505 Y121.901 E4.55827
G1 X105.014 Y121.782 E4.56667
G1 X104.547 Y121.588 E4.57508
G1 X104.117 Y121.322 E4.58349
G1 X103.734 Y120.992 E4.5919
G1 X103.408 Y120.605 E4.60031
G1 X103.147 Y120.172 E4.60872
G1 X102.957 Y119.704 E4.61712
G1 X102.844 Y119.211 E4.62553
G1 X102.809 Y118.741 E4.63337
G1 X102.809 Y101.259 E4.9241
G1 X102.849 Y100.755 E4.9325
G1 X102.968 Y100.264 E4.9409
G1 X103.162 Y99.797 E4.94931
G1 X103.428 Y99.367 E4.95772
G1 X103.758 Y98.984 E4.96613
G1 X104.145 Y98.658 E4.97455
G1 F1500 E-1.52545
G0 F4500 X106.614 Y100.585
G0 X106.614 Y101.864
G0 X106.67 Y101.92
G0 X106.6 Y101.85
;TYPE:WALL-INNER
G1 F1500 E4.97455
G1 F1800 X113.4 Y101.85 E5.08763
G1 X113.4 Y118.15 E5.3587
G1 X106.6 Y118.15 E5.47178
G1 X106.6 Y101.85 E5.74285
G0 F4500 X106.2 Y101.45
;TYPE:WALL-OUTER
G1 F1800 X113.8 Y101.45 E5.86924
G1 X113.8 Y118.55 E6.15362
G1 X106.2 Y118.55 E6.28001
G1 X106.2 Y101.45 E6.56438
G0 F4500 X106.4 Y101.45
G0 X106.67 Y101.92
G0 X106.778 Y102.253
;TYPE:SKIN
G1 F1800 X113.219 Y108.694 E6.71586
G1 X113.289 Y108.764
G0 F4500 X113.219 Y108.128
G1 F1800 X107.121 Y102.029 E6.85929
G1 X107.051 Y101.959
G0 F4500 X107.686 Y102.029
G1 F1800 X113.219 Y107.562 E6.98942
G1 X113.289 Y107.632
G0 F4500 X113.219 Y106.997
G1 F1800 X108.252 Y102.029 E7.10625
G1 X108.182 Y101.959
G0 F4500 X108.818 Y102.029
G1 F1800 X113.219 Y106.431 E7.20976
G1 X113.289 Y106.501
G0 F4500 X113.219 Y105.865
G1 F1800 X109.383 Y102.029 E7.29998
G1 X109.313 Y101.959
G0 F4500 X109.949 Y102.029
G1 F1800 X113.219 Y105.3 E7.3769
G1 X113.289 Y105.37
G0 F4500 X113.219 Y104.734
G1 F1800 X110.515 Y102.029 E7.4405
G1 X110.445 Y101.959
G0 F4500 X111.08 Y102.029
G1 F1800 X113.219 Y104.168 E7.49081
G1 X113.289 Y104.238
G0 F4500 X113.219 Y103.603
G1 F1800 X111.646 Y102.029 E7.52781
G1 X111.576 Y101.959
G0 F4500 X112.212 Y102.029
G1 F1800 X113.219 Y103.037 E7.55151
G1 X113.289 Y103.107
G0 F4500 X113.219 Y102.471
G1 F1800 X112.777 Y102.029 E7.5619
G0 F4500 X106.778 Y102.818
G1 F1800 X113.219 Y109.26 E7.7134
G1 X113.289 Y109.33
G0 F4500 X113.219 Y109.825
G1 F1800 X106.778 Y103.384 E7.86488
G1 X106.708 Y103.314
G0 F4500 X106.778 Y103.95
G1 F1800 X113.22 Y110.392 E8.01639
G1 X113.29 Y110.462
G0 F4500 X113.22 Y110.957
G1 F1800 X106.778 Y104.516 E8.16788
G1 X106.708 Y104.446
G0 F4500 X106.778 Y105.081
G1 F1800 X113.22 Y111.523 E8.31939
G1 X113.29 Y111.593
G0 F4500 X113.22 Y112.089
G1 F1800 X106.778 Y105.647 E8.47089
G1 X106.708 Y105.577
G0 F4500 X106.778 Y106.213
G1 F1800 X113.22 Y112.654 E8.62239
G1 X113.29 Y112.724
G0 F4500 X113.22 Y113.22
G1 F1800 X106.778 Y106.778 E8.77389
G1 X106.708 Y106.708
G0 F4500 X106.778 Y107.344
G1 F1800 X113.22 Y113.786 E8.9254
G1 X113.29 Y113.856
G0 F4500 X113.22 Y114.351
G1 F1800 X106.778 Y107.91 E9.07689
G1 X106.708 Y107.84
G0 F4500 X106.778 Y108.475
G1 F1800 X113.22 Y114.917 E9.2284
G1 X113.29 Y114.987
G0 F4500 X113.22 Y115.483
G1 F1800 X106.778 Y109.041 E9.37991
G1 X106.708 Y108.971
G0 F4500 X106.778 Y109.607
G1 F1800 X113.22 Y116.048 E9.5314
G1 X113.29 Y116.118
G0 F4500 X113.22 Y116.614
G1 F1800 X106.779 Y110.173 E9.68288
G1 X106.709 Y110.103
G0 F4500 X106.779 Y110.739
G1 F1800 X113.22 Y117.18 E9.83436
G1 X113.29 Y117.25
G0 F4500 X113.22 Y117.746
G1 F1800 X106.779 Y111.304 E9.98586
G1 X106.709 Y111.234
G0 F4500 X106.779 Y111.87
G1 F1800 X112.878 Y117.969 E10.1293
G1 X112.948 Y118.039
G0 F4500 X112.312 Y117.969
G1 F1800 X106.779 Y112.436 E10.25943
G1 X106.709 Y112.366
G0 F4500 X106.779 Y113.002
G1 F1800 X111.746 Y117.969 E10.37624
G1 X111.816 Y118.039
G0 F4500 X111.181 Y117.969
G1 F1800 X106.779 Y113.567 E10.47977
G1 X106.709 Y113.497
G0 F4500 X106.779 Y114.133
G1 F1800 X110.615 Y117.969 E10.56999
G1 X110.685 Y118.039
G0 F4500 X110.049 Y117.969
G1 F1800 X106.779 Y114.699 E10.64689
G1 X106.709 Y114.629
G0 F4500 X106.779 Y115.264
G1 F1800 X109.484 Y117.969 E10.71051
G1 X109.554 Y118.039
G0 F4500 X108.918 Y117.969
G1 F1800 X106.779 Y115.83 E10.76082
G1 X106.709 Y115.76
G0 F4500 X106.779 Y116.396
G1 F1800 X108.352 Y117.969 E10.79781
G1 X108.422 Y118.039
G0 F4500 X107.787 Y117.969
G1 F1800 X106.779 Y116.961 E10.82152
G1 X106.709 Y116.891
G0 F4500 X106.779 Y117.527
G1 F1800 X107.221 Y117.969 E10.83191
G0 F4500 X107.221 Y117.75
G0 X106.67 Y101.92
G0 X106.6 Y101.85
;TIME_ELAPSED:25.422429
;LAYER:1
M140 S50
M106 S255
G0 F6750 X106.6 Y101.85 Z0.2
;TYPE:WALL-INNER
G1 F2700 X113.4 Y101.85 E10.945
G1 X113.4 Y118.15 E11.21607
G1 X106.6 Y118.15 E11.32915
G1 X106.6 Y101.85 E11.60022
G0 F6750 X106.2 Y101.45
;TYPE:WALL-OUTER
G1 F1800 X113.8 Y101.45 E11.72661
G1 X113.8 Y118.55 E12.01098
G1 X106.2 Y118.55 E12.13737
G1 X106.2 Y101.45 E12.42175
G0 F6750 X106.4 Y101.45
G0 X106.67 Y101.92
G0 X107.273 Y102.029
;TYPE:SKIN
G1 F1800 X106.779 Y102.524 E12.43338
G0 F6750 X106.779 Y103.089
G1 F1800 X107.839 Y102.029 E12.45831
G1 X107.909 Y101.959
G0 F6750 X108.405 Y102.029
G1 F1800 X106.779 Y103.655 E12.49655
G1 X106.709 Y103.725
G0 F6750 X106.779 Y104.221
G1 F1800 X108.97 Y102.029 E12.54809
G1 X109.04 Y101.959
G0 F6750 X109.536 Y102.029
G1 F1800 X106.779 Y104.786 E12.61293
G1 X106.709 Y104.856
G0 F6750 X106.779 Y105.352
G1 F1800 X110.102 Y102.029 E12.69108
G1 X110.172 Y101.959
G0 F6750 X110.667 Y102.029
G1 F1800 X106.779 Y105.918 E12.78253
G1 X106.709 Y105.988
G0 F6750 X106.779 Y106.483
G1 F1800 X111.233 Y102.029 E12.88728
G1 X111.303 Y101.959
G0 F6750 X111.799 Y102.029
G1 F1800 X106.779 Y107.049 E13.00535
G1 X106.709 Y107.119
G0 F6750 X106.779 Y107.615
G1 F1800 X112.364 Y102.029 E13.13671
G1 X112.434 Y101.959
G0 F6750 X112.93 Y102.029
G1 F1800 X106.779 Y108.18 E13.28137
G1 X106.709 Y108.25
G0 F6750 X106.779 Y108.746
G1 F1800 X113.219 Y102.307 E13.43282
G1 X113.289 Y102.237
G0 F6750 X113.219 Y102.872
G1 F1800 X106.779 Y109.312 E13.58428
G1 X106.709 Y109.382
G0 F6750 X106.779 Y109.878
G1 F1800 X113.219 Y103.438 E13.73573
G1 X113.289 Y103.368
G0 F6750 X113.219 Y104.004
G1 F1800 X106.78 Y110.443 E13.88717
G1 X106.71 Y110.513
G0 F6750 X106.78 Y111.008
G1 F1800 X113.219 Y104.569 E14.03861
G1 X113.289 Y104.499
G0 F6750 X113.219 Y105.135
G1 F1800 X106.78 Y111.574 E14.19004
G1 X106.71 Y111.644
G0 F6750 X106.78 Y112.14
G1 F1800 X113.219 Y105.701 E14.34148
G1 X113.289 Y105.631
G0 F6750 X113.219 Y106.266
G1 F1800 X106.78 Y112.705 E14.49291
G1 X106.71 Y112.775
G0 F6750 X106.78 Y113.271
G1 F1800 X113.219 Y106.832 E14.64435
G1 X113.289 Y106.762
G0 F6750 X113.219 Y107.398
G1 F1800 X106.78 Y113.837 E14.79578
G1 X106.71 Y113.907
G0 F6750 X106.78 Y114.402
G1 F1800 X113.219 Y107.963 E14.94722
G1 X113.289 Y107.893
G0 F6750 X113.219 Y108.529
G1 F1800 X106.78 Y114.968 E15.09865
G1 X106.71 Y115.038
G0 F6750 X106.78 Y115.534
G1 F1800 X113.219 Y109.095 E15.25009
G1 X113.289 Y109.025
G0 F6750 X113.219 Y109.66
G1 F1800 X106.78 Y116.099 E15.40152
G1 X106.71 Y116.169
G0 F6750 X106.78 Y116.665
G1 F1800 X113.219 Y110.225 E15.55297
G1 X113.289 Y110.155
G0 F6750 X113.219 Y110.791
G1 F1800 X106.78 Y117.231 E15.70442
G1 X106.71 Y117.301
G0 F6750 X106.78 Y117.796
G1 F1800 X113.219 Y111.357 E15.85585
G1 X113.289 Y111.287
G0 F6750 X113.219 Y111.922
G1 F1800 X107.173 Y117.969 E15.99806
G1 X107.103 Y118.039
G0 F6750 X107.739 Y117.969
G1 F1800 X113.219 Y112.488 E16.12695
G1 X113.289 Y112.418
G0 F6750 X113.219 Y113.054
G1 F1800 X108.304 Y117.969 E16.24254
G1 X108.234 Y118.039
G0 F6750 X108.87 Y117.969
G1 F1800 X113.219 Y113.62 E16.34483
G1 X113.289 Y113.55
G0 F6750 X113.219 Y114.185
G1 F1800 X109.436 Y117.969 E16.43381
G1 X109.366 Y118.039
G0 F6750 X110.001 Y117.969
G1 F1800 X113.219 Y114.751 E16.50949
G1 X113.289 Y114.681
G0 F6750 X113.219 Y115.317
G1 F1800 X110.567 Y117.969 E16.57186
G1 X110.497 Y118.039
G0 F6750 X111.133 Y117.969
G1 F1800 X113.219 Y115.882 E16.62093
G1 X113.289 Y115.812
G0 F6750 X113.219 Y116.448
G1 F1800 X111.698 Y117.969 E16.6567
G1 X111.628 Y118.039
G0 F6750 X112.264 Y117.969
G1 F1800 X113.219 Y117.014 E16.67916
G1 X113.289 Y116.944
G0 F6750 X113.219 Y117.579
G1 F1800 X112.83 Y117.969 E16.68833
G0 F6750 X112.83 Y117.75
G0 X106.67 Y101.92
G0 X106.6 Y101.85
;TIME_ELAPSED:37.907472
;LAYER:2
G0 F9000 X106.6 Y101.85 Z0.3
;TYPE:WALL-INNER
G1 F3600 X113.4 Y101.85 E16.80141
G1 X113.4 Y118.15 E17.07248
G1 X106.6 Y118.15 E17.18556
G1 X106.6 Y101.85 E17.45663
G0 F9000 X106.2 Y101.45
;TYPE:WALL-OUTER
G1 F1800 X113.8 Y101.45 E17.58302
G1 X113.8 Y118.55 E17.8674
G1 X106.2 Y118.55 E17.99379
G1 X106.2 Y101.45 E18.27816
G0 F9000 X106.4 Y101.45
G0 X106.67 Y101.92
G0 X106.778 Y102.253
;TYPE:SKIN
G1 F1800 X113.219 Y108.694 E18.42964
G1 X113.289 Y108.764
G0 F9000 X113.219 Y108.128
G1 F1800 X107.121 Y102.029 E18.57307
G1 X107.051 Y101.959
G0 F9000 X107.686 Y102.029
G1 F1800 X113.219 Y107.562 E18.7032
G1 X113.289 Y107.632
G0 F9000 X113.219 Y106.997
G1 F1800 X108.252 Y102.029 E18.82003
G1 X108.182 Y101.959
G0 F9000 X108.818 Y102.029
G1 F1800 X113.219 Y106.431 E18.92354
G1 X113.289 Y106.501
G0 F9000 X113.219 Y105.865
G1 F1800 X109.383 Y102.029 E19.01376
G1 X109.313 Y101.959
G0 F9000 X109.949 Y102.029
G1 F1800 X113.219 Y105.3 E19.09068
G1 X113.289 Y105.37
G0 F9000 X113.219 Y104.734
G1 F1800 X110.515 Y102.029 E19.15428
G1 X110.445 Y101.959
G0 F9000 X111.08 Y102.029
G1 F1800 X113.219 Y104.168 E19.20459
G1 X113.289 Y104.238
G0 F9000 X113.219 Y103.603
G1 F1800 X111.646 Y102.029 E19.24159
G1 X111.576 Y101.959
G0 F9000 X112.212 Y102.029
G1 F1800 X113.219 Y103.037 E19.26529
G1 X113.289 Y103.107
G0 F9000 X113.219 Y102.471
G1 F1800 X112.777 Y102.029 E19.27568
G0 F9000 X106.778 Y102.818
G1 F1800 X113.219 Y109.26 E19.42718
G1 X113.289 Y109.33
G0 F9000 X113.219 Y109.825
G1 F1800 X106.778 Y103.384 E19.57866
G1 X106.708 Y103.314
G0 F9000 X106.778 Y103.95
G1 F1800 X113.22 Y110.392 E19.73017
G1 X113.29 Y110.462
G0 F9000 X113.22 Y110.957
G1 F1800 X106.778 Y104.516 E19.88166
G1 X106.708 Y104.446
G0 F9000 X106.778 Y105.081
G1 F1800 X113.22 Y111.523 E20.03317
G1 X113.29 Y111.593
G0 F9000 X113.22 Y112.089
G1 F1800 X106.778 Y105.647 E20.18467
G1 X106.708 Y105.577
G0 F9000 X106.778 Y106.213
G1 F1800 X113.22 Y112.654 E20.33617
G1 X113.29 Y112.724
G0 F9000 X113.22 Y113.22
G1 F1800 X106.778 Y106.778 E20.48767
G1 X106.708 Y106.708
G0 F9000 X106.778 Y107.344
G1 F1800 X113.22 Y113.786 E20.63918
G1 X113.29 Y113.856
G0 F9000 X113.22 Y114.351
G1 F1800 X106.778 Y107.91 E20.79067
G1 X106.708 Y107.84
G0 F9000 X106.778 Y108.475
G1 F1800 X113.22 Y114.917 E20.94218
G1 X113.29 Y114.987
G0 F9000 X113.22 Y115.483
G1 F1800 X106.778 Y109.041 E21.09368
G1 X106.708 Y108.971
G0 F9000 X106.778 Y109.607
G1 F1800 X113.22 Y116.048 E21.24518
G1 X113.29 Y116.118
G0 F9000 X113.22 Y116.614
